Avengers.cube
#Created by: Pixelmator Pro
#Color profile: "sRGB IEC61966-2.1"
TITLE "Avengers going Camping_3"
#Data domain
#LUT size
LUT_3D_SIZE 5
DOMAIN_MIN 0.000000 0.000000 0.000000
DOMAIN_MAX 0.823529 0.823529 0.823529
0.000 0.000 0.000
0.025 0.000 0.000
0.240 0.000 0.000
0.735 0.000 0.000
1.000 0.058 0.058
0.000 0.020 0.000
0.020 0.020 0.000
0.237 0.020 0.000
0.732 0.020 0.000
1.000 0.079 0.058
0.000 0.126 0.002
0.033 0.121 0.020
0.141 0.138 0.001
0.726 0.041 0.000
1.000 0.099 0.058
0.067 0.528 0.229
0.134 0.525 0.241
0.281 0.518 0.286
0.561 0.553 0.041
1.000 0.118 0.057
0.442 1.000 0.733
0.478 1.000 0.736
0.555 1.000 0.746
0.803 1.000 0.808
1.000 1.000 0.282
0.000 0.000 0.020
0.021 0.000 0.020
0.233 0.000 0.020
0.733 0.000 0.020
1.000 0.058 0.079
0.000 0.020 0.020
0.020 0.020 0.020
0.219 0.020 0.020
0.730 0.020 0.020
1.000 0.079 0.079
0.000 0.134 0.022
0.020 0.126 0.037
0.139 0.135 0.025
0.721 0.041 0.020
1.000 0.099 0.078
0.038 0.530 0.247
0.110 0.528 0.259
0.269 0.520 0.304
0.560 0.552 0.064
1.000 0.118 0.077
0.432 1.000 0.753
0.469 1.000 0.756
0.548 1.000 0.765
0.800 1.000 0.828
1.000 1.000 0.303
0.000 0.000 0.122
0.020 0.000 0.123
0.211 0.000 0.150
0.726 0.000 0.111
1.000 0.058 0.099
0.000 0.020 0.132
0.020 0.020 0.123
0.194 0.020 0.145
0.723 0.020 0.102
1.000 0.078 0.099
0.000 0.163 0.142
0.020 0.155 0.138
0.128 0.123 0.126
0.711 0.041 0.064
1.000 0.098 0.098
0.000 0.540 0.263
0.020 0.537 0.274
0.205 0.527 0.317
0.559 0.548 0.128
1.000 0.117 0.097
0.392 1.000 0.772
0.432 1.000 0.775
0.518 1.000 0.784
0.790 1.000 0.847
1.000 1.000 0.326
0.000 0.000 0.519
0.020 0.000 0.517
0.110 0.000 0.518
0.687 0.000 0.578
1.000 0.064 0.451
0.000 0.020 0.521
0.020 0.020 0.519
0.098 0.020 0.517
0.683 0.020 0.576
1.000 0.084 0.449
0.000 0.053 0.534
0.020 0.052 0.530
0.055 0.048 0.520
0.667 0.041 0.570
1.000 0.104 0.439
0.000 0.603 0.560
0.020 0.601 0.559
0.041 0.591 0.555
0.515 0.524 0.529
1.000 0.120 0.343
0.094 1.000 0.791
0.115 1.000 0.793
0.162 1.000 0.800
0.685 1.000 0.858
1.000 1.000 0.511
0.007 0.007 0.990
0.027 0.007 0.990
0.048 0.007 0.990
0.452 0.016 0.998
1.000 0.067 0.981
0.007 0.027 0.990
0.027 0.027 0.990
0.048 0.027 0.990
0.448 0.036 0.998
1.000 0.087 0.981
0.007 0.048 0.990
0.028 0.048 0.990
0.048 0.048 0.990
0.431 0.055 0.998
1.000 0.107 0.981
0.024 0.284 1.000
0.044 0.282 1.000
0.064 0.276 1.000
0.301 0.234 1.000
1.000 0.124 0.983
0.146 1.000 1.000
0.166 1.000 1.000
0.185 1.000 1.000
0.200 1.000 1.000
1.000 1.000 1.000
