Avengers.cube
#Created by: Pixelmator Pro
#Color profile: "sRGB IEC61966-2.1"
TITLE "Avengers going Camping_3"
#Data domain
#LUT size
LUT_3D_SIZE 7
DOMAIN_MIN 0.000000 0.000000 0.000000
DOMAIN_MAX 0.882353 0.882353 0.882353
0.000 0.000 0.000
0.014 0.000 0.000
0.086 0.000 0.000
0.295 0.000 0.000
0.653 0.000 0.000
0.991 0.018 0.018
1.000 0.078 0.078
0.000 0.014 0.000
0.014 0.014 0.000
0.077 0.014 0.000
0.288 0.014 0.000
0.650 0.014 0.000
0.991 0.032 0.017
1.000 0.093 0.078
0.000 0.032 0.000
0.014 0.031 0.000
0.038 0.035 0.000
0.298 0.029 0.000
0.646 0.029 0.000
0.991 0.046 0.017
1.000 0.107 0.078
0.000 0.164 0.014
0.022 0.160 0.029
0.079 0.157 0.051
0.180 0.179 0.002
0.654 0.049 0.000
0.990 0.060 0.016
1.000 0.121 0.078
0.039 0.453 0.177
0.089 0.451 0.187
0.153 0.448 0.203
0.292 0.441 0.256
0.482 0.478 0.025
0.994 0.134 0.020
1.000 0.136 0.078
0.244 0.854 0.495
0.279 0.854 0.499
0.324 0.853 0.506
0.436 0.850 0.530
0.653 0.841 0.609
0.892 0.879 0.129
1.000 0.362 0.126
0.595 1.000 0.892
0.617 1.000 0.893
0.643 1.000 0.894
0.698 1.000 0.901
0.834 1.000 0.925
1.000 1.000 0.999
1.000 1.000 0.371
0.000 0.000 0.014
0.014 0.000 0.014
0.080 0.000 0.014
0.290 0.000 0.014
0.651 0.000 0.014
0.991 0.017 0.032
1.000 0.078 0.093
0.000 0.014 0.014
0.014 0.014 0.014
0.061 0.014 0.014
0.282 0.014 0.014
0.648 0.014 0.014
0.991 0.032 0.032
1.000 0.093 0.093
0.000 0.038 0.014
0.014 0.032 0.014
0.036 0.034 0.014
0.280 0.029 0.014
0.644 0.029 0.014
0.991 0.046 0.032
1.000 0.107 0.093
0.000 0.168 0.027
0.014 0.164 0.041
0.072 0.158 0.066
0.179 0.177 0.019
0.646 0.048 0.014
0.990 0.060 0.031
1.000 0.121 0.093
0.018 0.455 0.190
0.071 0.453 0.199
0.139 0.449 0.216
0.287 0.442 0.271
0.482 0.477 0.041
0.994 0.133 0.034
1.000 0.136 0.092
0.232 0.855 0.509
0.268 0.854 0.513
0.314 0.853 0.519
0.429 0.850 0.544
0.651 0.842 0.623
0.892 0.879 0.144
1.000 0.366 0.141
0.591 1.000 0.906
0.613 1.000 0.907
0.639 1.000 0.909
0.695 1.000 0.915
0.832 1.000 0.939
1.000 1.000 1.000
1.000 1.000 0.386
0.000 0.000 0.032
0.014 0.000 0.033
0.071 0.000 0.040
0.283 0.000 0.036
0.648 0.000 0.029
0.991 0.017 0.046
1.000 0.078 0.107
0.000 0.014 0.037
0.014 0.014 0.032
0.054 0.014 0.036
0.275 0.014 0.034
0.646 0.014 0.029
0.991 0.032 0.046
1.000 0.093 0.107
0.000 0.046 0.038
0.014 0.038 0.035
0.034 0.033 0.032
0.261 0.029 0.030
0.641 0.029 0.029
0.991 0.046 0.046
1.000 0.107 0.107
0.000 0.179 0.042
0.014 0.172 0.054
0.046 0.164 0.076
0.177 0.173 0.038
0.636 0.049 0.029
0.990 0.060 0.045
1.000 0.121 0.107
0.000 0.458 0.202
0.037 0.456 0.212
0.111 0.452 0.227
0.277 0.443 0.284
0.481 0.475 0.059
0.994 0.137 0.049
1.000 0.135 0.107
0.211 0.856 0.523
0.249 0.855 0.527
0.297 0.854 0.533
0.417 0.851 0.557
0.648 0.842 0.637
0.892 0.879 0.161
1.000 0.372 0.157
0.585 1.000 0.920
0.607 1.000 0.921
0.633 1.000 0.923
0.690 1.000 0.929
0.829 1.000 0.953
1.000 1.000 1.000
1.000 1.000 0.400
0.000 0.000 0.159
0.014 0.000 0.158
0.043 0.000 0.166
0.261 0.000 0.192
0.639 0.000 0.176
0.991 0.017 0.069
1.000 0.078 0.122
0.000 0.014 0.164
0.014 0.014 0.160
0.035 0.014 0.161
0.252 0.014 0.189
0.636 0.014 0.172
0.991 0.031 0.065
1.000 0.093 0.121
0.000 0.030 0.180
0.014 0.029 0.170
0.030 0.029 0.161
0.235 0.029 0.184
0.631 0.029 0.164
0.990 0.045 0.064
1.000 0.107 0.121
0.000 0.208 0.182
0.014 0.203 0.180
0.029 0.195 0.177
0.166 0.161 0.164
0.611 0.054 0.126
0.990 0.059 0.060
1.000 0.121 0.121
0.000 0.475 0.216
0.014 0.472 0.224
0.029 0.468 0.237
0.212 0.452 0.290
0.479 0.469 0.155
0.992 0.157 0.062
1.000 0.135 0.121
0.109 0.860 0.534
0.156 0.859 0.538
0.216 0.858 0.544
0.365 0.854 0.568
0.635 0.843 0.651
0.891 0.877 0.192
1.000 0.390 0.175
0.557 1.000 0.934
0.579 1.000 0.935
0.607 1.000 0.937
0.668 1.000 0.943
0.816 1.000 0.967
1.000 1.000 1.000
1.000 1.000 0.416
0.000 0.000 0.445
0.014 0.000 0.443
0.029 0.000 0.442
0.189 0.000 0.452
0.606 0.000 0.500
0.991 0.017 0.459
1.000 0.080 0.202
0.000 0.014 0.446
0.014 0.014 0.445
0.029 0.014 0.443
0.181 0.014 0.450
0.602 0.014 0.499
0.991 0.031 0.457
1.000 0.094 0.199
0.000 0.029 0.450
0.014 0.029 0.448
0.029 0.029 0.445
0.168 0.029 0.447
0.596 0.029 0.497
0.990 0.045 0.454
1.000 0.108 0.195
0.000 0.128 0.475
0.014 0.125 0.470
0.029 0.120 0.464
0.119 0.108 0.447
0.572 0.046 0.488
0.989 0.059 0.442
1.000 0.122 0.177
0.000 0.525 0.483
0.014 0.523 0.482
0.029 0.520 0.481
0.043 0.506 0.475
0.442 0.450 0.453
1.000 0.170 0.377
1.000 0.135 0.135
0.000 0.879 0.547
0.014 0.878 0.550
0.029 0.877 0.555
0.053 0.872 0.575
0.534 0.854 0.654
0.890 0.869 0.402
1.000 0.430 0.197
0.394 1.000 0.945
0.423 1.000 0.946
0.460 1.000 0.948
0.548 1.000 0.954
0.752 1.000 0.978
1.000 1.000 1.000
1.000 1.000 0.443
0.000 0.000 0.845
0.014 0.000 0.845
0.029 0.000 0.844
0.047 0.000 0.842
0.491 0.000 0.853
0.982 0.012 0.882
1.000 0.093 0.738
0.000 0.014 0.846
0.014 0.014 0.845
0.029 0.014 0.845
0.047 0.014 0.843
0.487 0.014 0.853
0.981 0.026 0.881
1.000 0.108 0.737
0.000 0.029 0.847
0.014 0.029 0.846
0.029 0.029 0.845
0.046 0.029 0.843
0.481 0.029 0.852
0.980 0.041 0.881
1.000 0.122 0.737
0.000 0.043 0.851
0.014 0.043 0.850
0.029 0.043 0.849
0.043 0.043 0.846
0.459 0.043 0.848
0.976 0.054 0.880
1.000 0.136 0.734
0.000 0.379 0.878
0.014 0.378 0.877
0.029 0.375 0.875
0.043 0.367 0.868
0.359 0.341 0.847
0.959 0.096 0.876
1.000 0.150 0.723
0.000 0.931 0.886
0.015 0.930 0.886
0.029 0.929 0.886
0.043 0.926 0.884
0.058 0.910 0.878
0.843 0.847 0.858
1.000 0.435 0.732
0.198 1.000 0.959
0.212 1.000 0.959
0.226 1.000 0.960
0.240 1.000 0.964
0.262 1.000 0.981
0.938 1.000 1.000
1.000 1.000 0.789
0.017 0.017 1.000
0.031 0.017 1.000
0.046 0.017 1.000
0.060 0.017 1.000
0.093 0.017 1.000
0.777 0.054 1.000
1.000 0.096 1.000
0.017 0.031 1.000
0.031 0.031 1.000
0.046 0.031 1.000
0.060 0.031 1.000
0.088 0.032 1.000
0.776 0.068 1.000
1.000 0.111 1.000
0.017 0.046 1.000
0.031 0.046 1.000
0.046 0.046 1.000
0.060 0.046 1.000
0.080 0.046 1.000
0.775 0.082 1.000
1.000 0.125 1.000
0.017 0.060 1.000
0.031 0.060 1.000
0.046 0.060 1.000
0.060 0.060 1.000
0.074 0.060 1.000
0.770 0.096 1.000
1.000 0.140 1.000
0.017 0.075 1.000
0.031 0.075 1.000
0.046 0.075 1.000
0.060 0.075 1.000
0.075 0.075 1.000
0.749 0.109 1.000
1.000 0.153 1.000
0.127 0.738 1.000
0.142 0.738 1.000
0.156 0.737 1.000
0.169 0.734 1.000
0.180 0.724 1.000
0.730 0.713 1.000
1.000 0.279 1.000
0.236 1.000 1.000
0.250 1.000 1.000
0.265 1.000 1.000
0.279 1.000 1.000
0.292 1.000 1.000
0.299 1.000 1.000
1.000 1.000 1.000
