Avengers.cube
#Created by: Pixelmator Pro
#Color profile: "sRGB IEC61966-2.1"
TITLE "Avengers going Camping_3"
#Data domain
DOMAIN_MIN 0.000 0.000 0.000
DOMAIN_MAX 1.000 1.000 1.000
#LUT size
LUT_3D_SIZE 35
0.000 0.000 0.000
0.003 0.000 0.000
0.006 0.000 0.000
0.009 0.000 0.000
0.012 0.000 0.000
0.014 0.000 0.000
0.017 0.000 0.000
0.025 0.000 0.000
0.039 0.000 0.000
0.060 0.000 0.000
0.086 0.000 0.000
0.116 0.000 0.000
0.151 0.000 0.000
0.192 0.000 0.000
0.240 0.000 0.000
0.295 0.000 0.000
0.355 0.000 0.000
0.423 0.000 0.000
0.495 0.000 0.000
0.572 0.000 0.000
0.653 0.000 0.000
0.735 0.000 0.000
0.818 0.000 0.000
0.900 0.000 0.000
0.960 0.005 0.005
0.991 0.018 0.018
1.000 0.032 0.032
1.000 0.046 0.046
1.000 0.058 0.058
1.000 0.069 0.069
1.000 0.078 0.078
1.000 0.086 0.086
1.000 0.091 0.091
1.000 0.095 0.095
1.000 0.098 0.098
0.000 0.003 0.000
0.003 0.003 0.000
0.006 0.003 0.000
0.009 0.003 0.000
0.012 0.003 0.000
0.014 0.003 0.000
0.017 0.003 0.000
0.023 0.003 0.000
0.036 0.003 0.000
0.057 0.003 0.000
0.083 0.003 0.000
0.114 0.003 0.000
0.149 0.003 0.000
0.190 0.003 0.000
0.239 0.003 0.000
0.293 0.003 0.000
0.354 0.003 0.000
0.422 0.003 0.000
0.494 0.003 0.000
0.572 0.003 0.000
0.652 0.003 0.000
0.734 0.003 0.000
0.817 0.003 0.000
0.900 0.003 0.000
0.960 0.008 0.005
0.991 0.020 0.018
1.000 0.035 0.032
1.000 0.049 0.046
1.000 0.061 0.058
1.000 0.072 0.069
1.000 0.081 0.078
1.000 0.088 0.086
1.000 0.094 0.091
1.000 0.098 0.095
1.000 0.101 0.098
0.000 0.006 0.000
0.003 0.006 0.000
0.006 0.006 0.000
0.009 0.006 0.000
0.012 0.006 0.000
0.014 0.006 0.000
0.017 0.006 0.000
0.023 0.006 0.000
0.035 0.006 0.000
0.055 0.006 0.000
0.081 0.006 0.000
0.112 0.006 0.000
0.147 0.006 0.000
0.189 0.006 0.000
0.237 0.006 0.000
0.292 0.006 0.000
0.353 0.006 0.000
0.421 0.006 0.000
0.494 0.006 0.000
0.571 0.006 0.000
0.652 0.006 0.000
0.734 0.006 0.000
0.817 0.006 0.000
0.899 0.006 0.000
0.960 0.011 0.005
0.991 0.023 0.017
1.000 0.038 0.032
1.000 0.052 0.046
1.000 0.064 0.058
1.000 0.075 0.069
1.000 0.084 0.078
1.000 0.091 0.086
1.000 0.097 0.091
1.000 0.101 0.095
1.000 0.104 0.098
0.000 0.009 0.000
0.003 0.009 0.000
0.006 0.009 0.000
0.009 0.009 0.000
0.012 0.009 0.000
0.014 0.009 0.000
0.017 0.009 0.000
0.021 0.009 0.000
0.033 0.009 0.000
0.055 0.009 0.000
0.083 0.009 0.000
0.113 0.009 0.000
0.146 0.009 0.000
0.187 0.009 0.000
0.236 0.009 0.000
0.291 0.009 0.000
0.352 0.009 0.000
0.420 0.009 0.000
0.493 0.009 0.000
0.570 0.009 0.000
0.651 0.009 0.000
0.734 0.009 0.000
0.817 0.009 0.000
0.899 0.009 0.000
0.960 0.014 0.005
0.991 0.026 0.017
1.000 0.041 0.032
1.000 0.055 0.046
1.000 0.067 0.058
1.000 0.078 0.069
1.000 0.087 0.078
1.000 0.094 0.086
1.000 0.100 0.091
1.000 0.104 0.095
1.000 0.107 0.098
0.000 0.012 0.000
0.003 0.012 0.000
0.006 0.012 0.000
0.009 0.012 0.000
0.012 0.012 0.000
0.014 0.012 0.000
0.017 0.012 0.000
0.020 0.012 0.000
0.030 0.012 0.000
0.051 0.012 0.000
0.083 0.012 0.000
0.116 0.012 0.000
0.148 0.012 0.000
0.187 0.012 0.000
0.234 0.012 0.000
0.289 0.012 0.000
0.351 0.012 0.000
0.419 0.012 0.000
0.492 0.012 0.000
0.570 0.012 0.000
0.651 0.012 0.000
0.733 0.012 0.000
0.817 0.012 0.000
0.899 0.012 0.000
0.960 0.017 0.005
0.991 0.029 0.017
1.000 0.044 0.032
1.000 0.057 0.046
1.000 0.070 0.058
1.000 0.081 0.069
1.000 0.090 0.078
1.000 0.097 0.086
1.000 0.103 0.091
1.000 0.107 0.095
1.000 0.109 0.098
0.000 0.014 0.000
0.003 0.014 0.000
0.006 0.014 0.000
0.009 0.014 0.000
0.012 0.014 0.000
0.014 0.014 0.000
0.017 0.014 0.000
0.020 0.014 0.000
0.027 0.014 0.000
0.045 0.014 0.000
0.077 0.014 0.000
0.116 0.014 0.000
0.152 0.014 0.000
0.188 0.014 0.000
0.234 0.014 0.000
0.288 0.014 0.000
0.350 0.014 0.000
0.418 0.014 0.000
0.491 0.014 0.000
0.569 0.014 0.000
0.650 0.014 0.000
0.733 0.014 0.000
0.816 0.014 0.000
0.899 0.014 0.000
0.960 0.020 0.005
0.991 0.032 0.017
1.000 0.046 0.032
1.000 0.060 0.046
1.000 0.073 0.058
1.000 0.084 0.069
1.000 0.093 0.078
1.000 0.100 0.086
1.000 0.106 0.091
1.000 0.110 0.095
1.000 0.112 0.098
0.000 0.017 0.000
0.003 0.017 0.000
0.006 0.017 0.000
0.009 0.017 0.000
0.012 0.017 0.000
0.014 0.017 0.000
0.017 0.017 0.000
0.020 0.017 0.000
0.024 0.017 0.000
0.039 0.017 0.000
0.070 0.017 0.000
0.111 0.017 0.000
0.153 0.017 0.000
0.192 0.017 0.000
0.234 0.017 0.000
0.288 0.017 0.000
0.349 0.017 0.000
0.417 0.017 0.000
0.491 0.017 0.000
0.569 0.017 0.000
0.650 0.017 0.000
0.733 0.017 0.000
0.816 0.017 0.000
0.899 0.017 0.000
0.960 0.023 0.005
0.991 0.035 0.017
1.000 0.049 0.032
1.000 0.063 0.046
1.000 0.076 0.058
1.000 0.086 0.069
1.000 0.096 0.078
1.000 0.103 0.086
1.000 0.109 0.091
1.000 0.113 0.095
1.000 0.115 0.098
0.000 0.020 0.000
0.003 0.020 0.000
0.006 0.020 0.000
0.009 0.020 0.000
0.012 0.020 0.000
0.014 0.020 0.000
0.017 0.020 0.000
0.020 0.020 0.000
0.023 0.020 0.000
0.035 0.020 0.000
0.062 0.020 0.000
0.103 0.020 0.000
0.150 0.020 0.000
0.195 0.020 0.000
0.237 0.020 0.000
0.288 0.020 0.000
0.348 0.020 0.000
0.416 0.020 0.000
0.490 0.020 0.000
0.568 0.020 0.000
0.649 0.020 0.000
0.732 0.020 0.000
0.816 0.020 0.000
0.898 0.020 0.000
0.960 0.025 0.005
0.991 0.038 0.017
1.000 0.052 0.032
1.000 0.066 0.046
1.000 0.079 0.058
1.000 0.089 0.069
1.000 0.098 0.078
1.000 0.106 0.086
1.000 0.111 0.091
1.000 0.116 0.095
1.000 0.118 0.098
0.000 0.023 0.000
0.003 0.023 0.000
0.006 0.023 0.000
0.009 0.023 0.000
0.012 0.023 0.000
0.014 0.023 0.000
0.017 0.023 0.000
0.020 0.023 0.000
0.023 0.023 0.000
0.031 0.023 0.000
0.054 0.023 0.000
0.092 0.023 0.000
0.141 0.023 0.000
0.192 0.023 0.000
0.242 0.023 0.000
0.289 0.023 0.000
0.348 0.023 0.000
0.415 0.023 0.000
0.489 0.023 0.000
0.567 0.023 0.000
0.648 0.023 0.000
0.732 0.023 0.000
0.815 0.023 0.000
0.898 0.023 0.000
0.960 0.028 0.005
0.991 0.040 0.017
1.000 0.055 0.032
1.000 0.069 0.046
1.000 0.081 0.058
1.000 0.092 0.069
1.000 0.101 0.078
1.000 0.109 0.086
1.000 0.114 0.091
1.000 0.118 0.095
1.000 0.121 0.098
0.000 0.026 0.000
0.003 0.026 0.000
0.006 0.026 0.000
0.009 0.026 0.000
0.012 0.026 0.000
0.014 0.026 0.000
0.017 0.026 0.000
0.020 0.026 0.000
0.023 0.026 0.000
0.028 0.027 0.000
0.045 0.027 0.000
0.080 0.026 0.000
0.128 0.026 0.000
0.184 0.026 0.000
0.242 0.026 0.000
0.295 0.026 0.000
0.348 0.026 0.000
0.414 0.026 0.000
0.488 0.026 0.000
0.566 0.026 0.000
0.647 0.026 0.000
0.731 0.026 0.000
0.815 0.026 0.000
0.898 0.026 0.000
0.959 0.031 0.005
0.991 0.043 0.017
1.000 0.058 0.032
1.000 0.072 0.046
1.000 0.084 0.058
1.000 0.095 0.069
1.000 0.104 0.078
1.000 0.112 0.086
1.000 0.117 0.091
1.000 0.121 0.095
1.000 0.124 0.098
0.000 0.032 0.000
0.003 0.032 0.000
0.006 0.032 0.000
0.009 0.031 0.000
0.012 0.031 0.000
0.014 0.031 0.000
0.017 0.032 0.000
0.020 0.032 0.000
0.023 0.033 0.000
0.026 0.035 0.000
0.038 0.035 0.000
0.066 0.035 0.000
0.111 0.033 0.000
0.168 0.031 0.000
0.233 0.029 0.000
0.298 0.029 0.000
0.354 0.029 0.000
0.415 0.029 0.000
0.487 0.029 0.000
0.565 0.029 0.000
0.646 0.029 0.000
0.730 0.029 0.000
0.814 0.029 0.000
0.897 0.029 0.000
0.959 0.034 0.005
0.991 0.046 0.017
1.000 0.061 0.032
1.000 0.075 0.046
1.000 0.087 0.058
1.000 0.098 0.069
1.000 0.107 0.078
1.000 0.114 0.086
1.000 0.120 0.091
1.000 0.124 0.095
1.000 0.127 0.098
0.000 0.046 0.000
0.003 0.045 0.000
0.006 0.045 0.000
0.009 0.044 0.000
0.012 0.043 0.000
0.014 0.043 0.000
0.017 0.044 0.000
0.020 0.045 0.000
0.024 0.046 0.000
0.027 0.049 0.000
0.035 0.052 0.000
0.055 0.053 0.000
0.093 0.051 0.000
0.148 0.045 0.000
0.215 0.038 0.000
0.288 0.033 0.000
0.360 0.032 0.000
0.420 0.032 0.000
0.487 0.032 0.000
0.564 0.032 0.000
0.645 0.032 0.000
0.729 0.032 0.000
0.813 0.032 0.000
0.896 0.032 0.000
0.959 0.037 0.005
0.991 0.049 0.017
1.000 0.064 0.032
1.000 0.077 0.046
1.000 0.090 0.058
1.000 0.101 0.069
1.000 0.110 0.078
1.000 0.117 0.086
1.000 0.123 0.091
1.000 0.127 0.095
1.000 0.130 0.098
0.000 0.067 0.000
0.003 0.066 0.000
0.006 0.065 0.000
0.009 0.064 0.000
0.012 0.064 0.000
0.014 0.063 0.000
0.018 0.063 0.001
0.022 0.064 0.002
0.027 0.065 0.002
0.033 0.067 0.003
0.040 0.070 0.002
0.052 0.074 0.000
0.079 0.076 0.000
0.125 0.073 0.000
0.191 0.063 0.000
0.268 0.049 0.000
0.351 0.040 0.000
0.427 0.035 0.000
0.491 0.035 0.000
0.564 0.035 0.000
0.644 0.035 0.000
0.727 0.035 0.000
0.812 0.035 0.000
0.895 0.035 0.000
0.958 0.040 0.005
0.991 0.052 0.017
1.000 0.066 0.032
1.000 0.080 0.046
1.000 0.093 0.058
1.000 0.104 0.069
1.000 0.113 0.078
1.000 0.120 0.085
1.000 0.126 0.091
1.000 0.130 0.095
1.000 0.133 0.098
0.000 0.094 0.000
0.003 0.093 0.000
0.006 0.092 0.001
0.009 0.091 0.001
0.012 0.090 0.002
0.015 0.090 0.003
0.020 0.089 0.006
0.027 0.089 0.008
0.035 0.089 0.011
0.044 0.090 0.013
0.051 0.093 0.011
0.060 0.097 0.007
0.075 0.102 0.003
0.107 0.104 0.000
0.163 0.100 0.000
0.240 0.088 0.000
0.329 0.067 0.000
0.419 0.047 0.000
0.499 0.038 0.000
0.567 0.038 0.000
0.644 0.038 0.000
0.726 0.038 0.000
0.810 0.038 0.000
0.894 0.038 0.000
0.958 0.043 0.005
0.991 0.054 0.017
1.000 0.069 0.032
1.000 0.083 0.046
1.000 0.096 0.058
1.000 0.107 0.069
1.000 0.116 0.078
1.000 0.123 0.085
1.000 0.129 0.091
1.000 0.133 0.095
1.000 0.135 0.098
0.000 0.126 0.002
0.003 0.125 0.003
0.006 0.124 0.005
0.009 0.123 0.008
0.012 0.122 0.011
0.017 0.122 0.014
0.024 0.121 0.017
0.033 0.121 0.020
0.044 0.120 0.024
0.055 0.120 0.028
0.066 0.121 0.031
0.076 0.124 0.030
0.085 0.129 0.020
0.102 0.135 0.006
0.141 0.138 0.001
0.208 0.133 0.000
0.297 0.118 0.000
0.395 0.091 0.000
0.493 0.054 0.000
0.575 0.043 0.000
0.647 0.041 0.000
0.726 0.041 0.000
0.809 0.041 0.000
0.893 0.041 0.000
0.957 0.045 0.005
0.991 0.057 0.017
1.000 0.072 0.032
1.000 0.086 0.045
1.000 0.099 0.058
1.000 0.109 0.069
1.000 0.119 0.078
1.000 0.126 0.085
1.000 0.132 0.091
1.000 0.136 0.095
1.000 0.138 0.098
0.000 0.164 0.014
0.003 0.163 0.017
0.006 0.162 0.020
0.009 0.161 0.023
0.014 0.160 0.026
0.022 0.160 0.029
0.031 0.159 0.033
0.041 0.159 0.036
0.052 0.158 0.040
0.066 0.157 0.046
0.079 0.157 0.051
0.093 0.158 0.056
0.105 0.161 0.055
0.116 0.167 0.040
0.135 0.175 0.010
0.180 0.179 0.002
0.258 0.173 0.000
0.359 0.155 0.000
0.467 0.120 0.000
0.571 0.068 0.000
0.654 0.049 0.000
0.729 0.044 0.000
0.808 0.043 0.000
0.891 0.043 0.000
0.956 0.048 0.005
0.990 0.060 0.016
1.000 0.075 0.031
1.000 0.089 0.045
1.000 0.101 0.058
1.000 0.112 0.069
1.000 0.121 0.078
1.000 0.129 0.085
1.000 0.135 0.091
1.000 0.139 0.095
1.000 0.141 0.098
0.000 0.208 0.035
0.003 0.208 0.038
0.006 0.207 0.040
0.011 0.206 0.043
0.019 0.205 0.046
0.029 0.205 0.049
0.039 0.204 0.052
0.049 0.203 0.056
0.062 0.203 0.060
0.076 0.202 0.066
0.092 0.201 0.072
0.110 0.201 0.080
0.126 0.201 0.085
0.141 0.205 0.085
0.154 0.212 0.069
0.173 0.221 0.025
0.226 0.226 0.003
0.316 0.220 0.000
0.429 0.197 0.000
0.544 0.155 0.000
0.651 0.090 0.000
0.736 0.056 0.000
0.811 0.047 0.000
0.891 0.046 0.000
0.956 0.051 0.004
0.990 0.062 0.016
1.000 0.077 0.031
1.000 0.091 0.045
1.000 0.104 0.058
1.000 0.115 0.069
1.000 0.124 0.078
1.000 0.132 0.085
1.000 0.137 0.091
1.000 0.142 0.095
1.000 0.144 0.098
0.000 0.260 0.060
0.003 0.259 0.063
0.009 0.258 0.066
0.019 0.258 0.069
0.029 0.257 0.072
0.039 0.256 0.074
0.049 0.256 0.077
0.060 0.255 0.080
0.072 0.254 0.084
0.087 0.253 0.090
0.105 0.252 0.096
0.124 0.251 0.105
0.145 0.251 0.114
0.166 0.252 0.121
0.183 0.255 0.123
0.197 0.263 0.105
0.218 0.275 0.046
0.277 0.281 0.000
0.381 0.272 0.000
0.503 0.246 0.000
0.624 0.196 0.000
0.734 0.117 0.000
0.819 0.063 0.000
0.893 0.049 0.000
0.955 0.053 0.004
0.990 0.065 0.016
1.000 0.080 0.031
1.000 0.094 0.045
1.000 0.107 0.058
1.000 0.118 0.069
1.000 0.127 0.078
1.000 0.135 0.085
1.000 0.140 0.091
1.000 0.144 0.095
1.000 0.147 0.098
0.002 0.318 0.093
0.011 0.317 0.095
0.021 0.317 0.098
0.031 0.316 0.100
0.042 0.316 0.103
0.052 0.315 0.105
0.062 0.315 0.108
0.073 0.314 0.111
0.085 0.313 0.115
0.101 0.312 0.119
0.118 0.311 0.126
0.139 0.310 0.134
0.162 0.309 0.143
0.187 0.308 0.155
0.211 0.309 0.164
0.231 0.313 0.166
0.248 0.321 0.147
0.270 0.334 0.077
0.339 0.341 0.005
0.452 0.331 0.000
0.581 0.301 0.000
0.706 0.244 0.000
0.816 0.154 0.000
0.901 0.077 0.000
0.959 0.056 0.004
0.990 0.068 0.016
1.000 0.083 0.031
1.000 0.097 0.045
1.000 0.110 0.058
1.000 0.121 0.069
1.000 0.130 0.078
1.000 0.137 0.085
1.000 0.143 0.091
1.000 0.147 0.095
1.000 0.150 0.098
0.017 0.382 0.131
0.028 0.382 0.133
0.038 0.381 0.136
0.048 0.381 0.138
0.059 0.380 0.140
0.069 0.380 0.143
0.078 0.380 0.145
0.089 0.379 0.148
0.101 0.378 0.151
0.116 0.378 0.155
0.134 0.377 0.161
0.155 0.375 0.168
0.180 0.374 0.178
0.207 0.373 0.189
0.236 0.372 0.202
0.264 0.372 0.214
0.287 0.376 0.216
0.305 0.386 0.196
0.332 0.400 0.113
0.408 0.406 0.013
0.527 0.395 0.000
0.661 0.362 0.000
0.788 0.297 0.000
0.897 0.195 0.000
0.962 0.100 0.005
0.990 0.071 0.016
1.000 0.085 0.030
1.000 0.099 0.044
1.000 0.112 0.057
1.000 0.123 0.068
1.000 0.133 0.078
1.000 0.140 0.085
1.000 0.146 0.091
1.000 0.150 0.095
1.000 0.153 0.098
0.039 0.453 0.177
0.050 0.452 0.179
0.060 0.452 0.181
0.070 0.451 0.183
0.080 0.451 0.185
0.089 0.451 0.187
0.099 0.450 0.189
0.109 0.450 0.191
0.121 0.449 0.194
0.136 0.449 0.198
0.153 0.448 0.203
0.174 0.447 0.209
0.199 0.445 0.218
0.227 0.444 0.229
0.259 0.442 0.242
0.292 0.441 0.256
0.323 0.442 0.269
0.348 0.446 0.274
0.369 0.457 0.247
0.401 0.471 0.153
0.482 0.478 0.025
0.606 0.465 0.000
0.743 0.428 0.000
0.870 0.356 0.000
0.958 0.247 0.009
0.994 0.134 0.020
1.000 0.089 0.031
1.000 0.102 0.044
1.000 0.115 0.057
1.000 0.126 0.068
1.000 0.136 0.078
1.000 0.143 0.085
1.000 0.149 0.091
1.000 0.153 0.095
1.000 0.156 0.098
0.067 0.528 0.229
0.077 0.527 0.230
0.087 0.527 0.232
0.096 0.527 0.234
0.106 0.526 0.235
0.115 0.526 0.237
0.124 0.526 0.239
0.134 0.525 0.241
0.146 0.525 0.243
0.160 0.524 0.247
0.177 0.524 0.251
0.197 0.523 0.257
0.221 0.522 0.264
0.249 0.520 0.274
0.281 0.518 0.286
0.317 0.517 0.300
0.353 0.515 0.317
0.388 0.516 0.332
0.416 0.521 0.335
0.438 0.532 0.303
0.475 0.547 0.195
0.561 0.553 0.041
0.688 0.540 0.000
0.826 0.500 0.000
0.941 0.424 0.008
1.000 0.305 0.027
1.000 0.173 0.039
1.000 0.106 0.045
1.000 0.118 0.057
1.000 0.129 0.068
1.000 0.138 0.078
1.000 0.146 0.085
1.000 0.152 0.091
1.000 0.156 0.095
1.000 0.159 0.098
0.102 0.607 0.287
0.111 0.606 0.288
0.120 0.606 0.290
0.129 0.606 0.291
0.138 0.606 0.293
0.146 0.605 0.294
0.155 0.605 0.296
0.164 0.605 0.297
0.175 0.604 0.299
0.189 0.604 0.302
0.205 0.603 0.306
0.224 0.603 0.311
0.247 0.602 0.317
0.274 0.600 0.325
0.306 0.599 0.336
0.342 0.597 0.349
0.381 0.595 0.365
0.422 0.594 0.383
0.459 0.595 0.399
0.489 0.600 0.403
0.513 0.611 0.365
0.553 0.626 0.240
0.642 0.632 0.060
0.770 0.619 0.000
0.905 0.577 0.002
0.996 0.498 0.029
1.000 0.369 0.057
1.000 0.218 0.061
1.000 0.129 0.059
1.000 0.132 0.068
1.000 0.141 0.077
1.000 0.149 0.085
1.000 0.155 0.091
1.000 0.159 0.095
1.000 0.161 0.098
0.142 0.688 0.351
0.151 0.688 0.353
0.159 0.688 0.354
0.168 0.688 0.355
0.176 0.687 0.356
0.184 0.687 0.357
0.192 0.687 0.359
0.201 0.687 0.360
0.211 0.687 0.362
0.223 0.686 0.364
0.238 0.686 0.367
0.256 0.685 0.371
0.278 0.684 0.376
0.304 0.683 0.383
0.334 0.682 0.392
0.369 0.680 0.403
0.408 0.679 0.418
0.451 0.677 0.435
0.495 0.675 0.455
0.534 0.676 0.472
0.566 0.681 0.475
0.592 0.693 0.432
0.635 0.708 0.287
0.725 0.714 0.082
0.853 0.700 0.000
0.971 0.658 0.024
1.000 0.576 0.066
1.000 0.437 0.089
1.000 0.265 0.083
1.000 0.152 0.072
1.000 0.144 0.077
1.000 0.151 0.085
1.000 0.157 0.091
1.000 0.162 0.095
1.000 0.164 0.098
0.190 0.771 0.421
0.198 0.771 0.422
0.205 0.771 0.423
0.213 0.771 0.424
0.221 0.771 0.425
0.228 0.771 0.426
0.236 0.770 0.427
0.244 0.770 0.428
0.253 0.770 0.430
0.264 0.770 0.431
0.278 0.769 0.434
0.294 0.769 0.437
0.314 0.768 0.442
0.338 0.767 0.447
0.367 0.766 0.454
0.400 0.765 0.464
0.438 0.763 0.476
0.480 0.762 0.491
0.526 0.760 0.510
0.572 0.758 0.530
0.613 0.759 0.548
0.646 0.765 0.551
0.673 0.777 0.504
0.719 0.791 0.336
0.809 0.797 0.105
0.930 0.783 0.010
1.000 0.741 0.055
1.000 0.656 0.109
1.000 0.507 0.123
1.000 0.314 0.104
1.000 0.176 0.084
1.000 0.154 0.085
1.000 0.160 0.091
1.000 0.164 0.095
1.000 0.167 0.098
0.244 0.854 0.495
0.251 0.854 0.496
0.258 0.854 0.497
0.265 0.854 0.498
0.272 0.854 0.498
0.279 0.854 0.499
0.286 0.854 0.500
0.293 0.854 0.501
0.302 0.853 0.502
0.312 0.853 0.504
0.324 0.853 0.506
0.339 0.853 0.508
0.357 0.852 0.512
0.379 0.851 0.516
0.405 0.851 0.522
0.436 0.850 0.530
0.471 0.848 0.540
0.512 0.847 0.552
0.557 0.845 0.568
0.605 0.843 0.587
0.653 0.841 0.609
0.695 0.842 0.626
0.728 0.848 0.629
0.756 0.860 0.579
0.803 0.874 0.387
