green.cube
TITLE "Generated by Resolve"
LUT_3D_SIZE 33
0 0.0172732 0.041413
0 0.0189059 0.0440833
0 0.0226139 0.0565652
0 0.0274357 0.0736095
0.00666819 0.0302281 0.0880293
0.0373236 0.0308537 0.100145
0.076936 0.0292821 0.109743
0.125689 0.0256504 0.116472
0.183062 0.0203555 0.119951
0.246723 0.0139925 0.120104
0.312901 0.00698863 0.117708
0.374533 0.000244144 0.113848
0.430198 0 0.109667
0.484413 0 0.104936
0.537194 0 0.100237
0.588129 0 0.0954604
0.637873 0 0.0908827
0.688121 0 0.0859846
0.740734 0 0.080705
0.796689 0 0.0749981
0.854337 0 0.0690776
0.911833 0 0.0634012
0.968948 0 0.057847
1 0 0.0525826
1 0 0.0475624
1 0 0.0416114
1 0 0.0353552
1 0 0.0291447
1 0 0.0229953
1 0 0.0167849
1 0 0.0104372
1 0 0.00430304
1 0 0.00341802
0 0.0175631 0.0444495
0 0.018967 0.0469062
0 0.0226139 0.0588998
0 0.0277104 0.0755474
0.00540169 0.0320287 0.0894026
0.0351263 0.0337682 0.100938
0.0737163 0.0330205 0.110002
0.12134 0.0297856 0.116197
0.177996 0.0242313 0.119509
0.241733 0.0168765 0.119631
0.308537 0.00891127 0.117281
0.371405 0.00144961 0.11342
0.427817 0 0.109056
0.482628 0 0.104295
0.535729 0 0.0993057
0.58674 0 0.0945144
0.636469 0 0.0899062
0.686641 0 0.0848402
0.739223 0 0.079469
0.795178 0 0.073579
0.852934 0 0.0677195
0.910597 0 0.0620737
0.967956 0 0.056672
1 0 0.0515145
1 0 0.0466011
1 0 0.0409705
1 0 0.0350958
1 0 0.0292515
1 0 0.0234226
1 0 0.0173037
1 0 0.0108339
1 0 0.00486763
1 0 0.00396735
0 0.0449989 0.0509346
0 0.0479286 0.0525368
0 0.0550088 0.0621195
0 0.0621347 0.0765545
0 0.0665141 0.0889448
0.0194858 0.0687572 0.0982223
0.0553445 0.0686809 0.104875
0.0991226 0.0664073 0.108812
0.152193 0.0617838 0.10985
0.213382 0.0548104 0.108278
0.279194 0.0466468 0.10425
0.344533 0.0381323 0.0986954
0.403693 0.030396 0.0932479
0.460502 0.02327 0.0878614
0.51516 0.0167544 0.0823835
0.567605 0.0104372 0.0773632
0.61828 0.00448615 0.0726024
0.668605 0 0.0677653
0.721035 0 0.0624857
0.776913 0 0.0563821
0.834867 0 0.0500649
0.892897 0 0.0437934
0.950545 0 0.0376135
1 0 0.0317235
1 0 0.0259251
1 0 0.0204623
1 0 0.0152895
1 0 0.0101625
1 0 0.00460822
1 0 0
1 0 0
1 0 0
1 0 0
0 0.0787366 0.0628061
0 0.081529 0.0658122
0 0.0895247 0.0755322
0 0.0966659 0.0865492
0 0.101717 0.0954604
0.00761425 0.104723 0.101625
0.0406348 0.105943 0.105348
0.0809033 0.105089 0.106508
0.12961 0.102083 0.104891
0.187366 0.0964675 0.100481
0.250782 0.0892805 0.0939193
0.315892 0.0811627 0.0861524
0.376761 0.0732891 0.0783703
0.435523 0.0658732 0.0710155
0.491844 0.0588083 0.064683
0.545586 0.0522774 0.0589914
0.597345 0.0460059 0.0538338
0.648066 0.0399939 0.0487373
0.700267 0.0339361 0.0433509
0.756359 0.0270237 0.0374762
0.814694 0.0199893 0.0311742
0.87335 0.012726 0.0247959
0.931945 0.00553903 0.0185092
0.990143 0 0.0125582
1 0 0.00674449
1 0 0.00137331
1 0 0
1 0 0
1 0 0
1 0 0
1 0 0
1 0 0
1 0 0
0 0.113191 0.0731518
0 0.115663 0.0785534
0 0.122683 0.0915236
0 0.129183 0.101732
0 0.135073 0.107332
0.000106813 0.139025 0.109728
0.0310063 0.141131 0.110323
0.0683299 0.141543 0.10869
0.113344 0.139849 0.104692
0.167025 0.135897 0.0975509
0.227436 0.129885 0.0882887
0.291142 0.122621 0.0776684
0.35172 0.115175 0.0676432
0.412192 0.107485 0.0578775
0.46981 0.100374 0.0497139
0.524819 0.0936294 0.0429999
0.577478 0.0872206 0.0371099
0.628885 0.0809949 0.0316014
0.681254 0.0747387 0.0260319
0.737118 0.0679026 0.0202335
0.795743 0.0607004 0.0140383
0.854841 0.0532998 0.00769055
0.914015 0.0460059 0.0012665
0.973144 0.0385138 0
1 0.031281 0
1 0.0243076 0
1 0.0173495 0
1 0.010605 0
1 0.0040589 0
1 0 0
1 0 0
1 0 0
1 0 0
0 0.148714 0.0781415
0 0.151064 0.085008
0 0.156954 0.0998703
0 0.162158 0.111635
0 0.16759 0.117754
0 0.172076 0.118624
0.0253452 0.175006 0.11693
0.0602121 0.176486 0.113054
0.102144 0.17586 0.106691
0.152056 0.173312 0.0974136
0.209247 0.168658 0.0854505
0.270817 0.162524 0.0722057
0.329931 0.155825 0.0597696
0.390188 0.148409 0.0477302
0.449027 0.141207 0.0372778
0.505013 0.134356 0.0290379
0.558495 0.127794 0.0221866
0.610452 0.121523 0.0160372
0.663157 0.115099 0.0101472
0.718868 0.108339 0.00425727
0.777691 0.100999 0
0.837018 0.0936599 0
0.896696 0.086183 0
0.95642 0.078584 0
1 0.071107 0
1 0.0636759 0
1 0.0563821 0
1 0.0493477 0
1 0.042649 0
1 0.0357519 0
1 0.0287938 0
1 0.0222782 0
1 0.0216983 0
0 0.185275 0.0776074
0 0.18735 0.0856336
0 0.19266 0.100938
0 0.196567 0.113359
0 0.200885 0.121324
0 0.205127 0.12369
0.0223392 0.208362 0.12195
0.0554055 0.210437 0.116991
0.0948196 0.210864 0.109087
0.141573 0.209277 0.0981155
0.195361 0.206043 0.0840467
0.254505 0.20087 0.0684825
0.312016 0.195026 0.0536355
0.370733 0.188357 0.0395056
0.429801 0.181353 0.0268406
0.486351 0.174563 0.0168002
0.540383 0.167987 0.00866712
0.592782 0.161669 0.00163272
0.645747 0.155261 0
0.701396 0.148562 0
0.760327 0.141146 0
0.819867 0.133684 0
0.879957 0.12607 0
0.940185 0.118349 0
1 0.110689 0
1 0.10309 0
1 0.095552 0
1 0.0881514 0
1 0.0810712 0
1 0.0741283 0
1 0.0669413 0
1 0.0603952 0
1 0.0598306 0
0 0.223102 0.0711986
0 0.224643 0.0801251
0 0.229114 0.0970016
0 0.232303 0.10988
0 0.235599 0.118929
0 0.238941 0.123323
0.0200656 0.241932 0.122774
0.0524453 0.24416 0.118105
0.0901503 0.24509 0.109712
0.134432 0.244572 0.0977188
0.185275 0.242267 0.0822614
0.241596 0.238193 0.0649119
0.297414 0.233265 0.0482032
0.354208 0.227451 0.0322118
0.412528 0.220783 0.0175784
0.469047 0.214191 0.00588998
0.523415 0.207797 0
0.576074 0.201434 0
0.629145 0.195026 0
0.684825 0.188312 0
0.743755 0.180957 0
0.803433 0.173404 0
0.863645 0.165682 0
0.924132 0.158007 0
0.984802 0.150134 0
1 0.142336 0
1 0.134554 0
1 0.126894 0
1 0.119539 0
1 0.112245 0
1 0.104936 0
1 0.0984054 0
1 0.0978408 0
0 0.262196 0.0583658
0 0.262867 0.068452
0 0.266804 0.0872206
0 0.269215 0.101381
0 0.271473 0.11162
0 0.273823 0.11754
0.016907 0.276326 0.118471
0.0497139 0.278325 0.114778
0.0868086 0.279438 0.106798
0.129534 0.279362 0.0945296
0.177996 0.277852 0.0784161
0.231708 0.274769 0.0599222
0.285908 0.270573 0.0420081
0.340749 0.26537 0.0248569
0.397513 0.259541 0.00874342
0.453513 0.2533 0
0.507607 0.247105 0
0.56022 0.240879 0
0.61323 0.234531 0
0.668803 0.227832 0
0.727749 0.220493 0
0.787472 0.212924 0
0.847761 0.205249 0
0.908522 0.197421 0
0.969528 0.189517 0
1 0.181506 0
1 0.17351 0
1 0.165698 0
1 0.158083 0
1 0.15053 0
1 0.14313 0
1 0.136446 0
1 0.135805 0
0 0.302251 0.0399634
0 0.301885 0.0502632
0 0.305165 0.0712139
0 0.306844 0.0873121
0 0.308202 0.098909
0 0.309682 0.10605
0.011841 0.311238 0.108675
0.0459754 0.312718 0.106386
0.0833295 0.313741 0.0992752
0.125383 0.313893 0.0872969
0.172335 0.312856 0.0712902
0.22414 0.310292 0.0527962
0.27689 0.306798 0.0340734
0.329641 0.302403 0.0165408
0.384756 0.297047 0
0.439689 0.29131 0
0.493278 0.285435 0
0.545663 0.279225 0
0.598383 0.27306 0
0.653712 0.266377 0
0.712596 0.259098 0
0.77232 0.251621 0
0.832654 0.243946 0
0.893568 0.235996 0
0.954818 0.228092 0
1 0.219883 0
1 0.211734 0
1 0.203784 0
1 0.195865 0
1 0.188159 0
1 0.180621 0
1 0.173785 0
1 0.173236 0
0 0.342809 0.0189517
0 0.341619 0.0273747
0 0.344167 0.0487373
0 0.345449 0.0667887
0 0.345922 0.0802777
0 0.346456 0.0890516
0.00421149 0.347189 0.0931868
0.0401923 0.348058 0.092256
0.0786297 0.348516 0.0863355
0.120867 0.348486 0.0753338
0.167102 0.347631 0.0602121
0.217533 0.345571 0.0422217
0.26923 0.342458 0.0237125
0.320363 0.338506 0.00614939
0.373739 0.333791 0
0.427451 0.328405 0
0.480369 0.322728 0
0.532204 0.316838 0
0.584649 0.310735 0
0.639597 0.304143 0
0.698329 0.296986 0
0.758083 0.289387 0
0.818387 0.281773 0
0.879332 0.273945 0
0.940795 0.265766 0
1 0.257725 0
1 0.249348 0
1 0.241199 0
1 0.233158 0
1 0.225299 0
1 0.217411 0
1 0.210498 0
1 0.209949 0
0 0.383429 0
0 0.381689 0.00192264
0 0.383139 0.022034
0 0.384863 0.0409857
0 0.384771 0.0556954
0 0.384558 0.0658427
0 0.38439 0.071458
0.0318151 0.384344 0.0721752
0.07187 0.384222 0.0678111
0.114946 0.383886 0.0584115
0.161257 0.382895 0.0447547
0.211048 0.380835 0.0282597
0.262242 0.37792 0.0104829
0.312139 0.374289 0
0.36405 0.369894 0
0.41648 0.364858 0
0.46862 0.359396 0
0.51989 0.353689 0
0.571771 0.347738 0
0.626184 0.341329 0
0.684703 0.334173 0
0.744366 0.32665 0
0.804669 0.319051 0
0.86566 0.311162 0
0.927214 0.303014 0
0.989075 0.294835 0
1 0.286549 0
1 0.278172 0
1 0.269886 0
1 0.261845 0
1 0.253773 0
1 0.246906 0
1 0.246357 0
0 0.423499 0
0 0.42179 0
0 0.42211 0
0 0.424582 0.012253
0 0.424506 0.0271916
0 0.423697 0.0382696
0 0.422721 0.0450446
0.020737 0.421942 0.0471046
0.0626841 0.421027 0.0446632
0.107164 0.420005 0.0373846
0.154208 0.418616 0.0256199
0.203906 0.416526 0.0108339
0.25507 0.413535 0
0.304097 0.410101 0
0.354818 0.405997 0
0.406058 0.40119 0
0.457481 0.395911 0
0.508217 0.390372 0
0.559579 0.384497 0
0.613474 0.378195 0
0.671672 0.371054 0
0.731243 0.363638 0
0.791501 0.355962 0
0.852506 0.348074 0
0.914076 0.339986 0
0.976074 0.331762 0
1 0.323445 0
1 0.314992 0
1 0.306523 0
1 0.298238 0
1 0.290059 0
1 0.283055 0
1 0.282506 0
0 0.461662 0
0 0.460395 0
0 0.460334 0
0 0.463401 0
0 0.463798 0
0 0.462898 0.00888075
0 0.461479 0.0163119
0.00753796 0.459937 0.0195621
0.0513313 0.458457 0.0185397
0.0974289 0.456703 0.0130312
0.145556 0.45478 0.00352483
0.195758 0.452262 0
0.24744 0.449195 0
0.295903 0.445716 0
0.345815 0.44155 0
0.396231 0.436851 0
0.446983 0.431754 0
0.497261 0.42623 0
0.54815 0.420554 0
0.601602 0.414221 0
0.659388 0.407233 0
0.718853 0.399893 0
0.779171 0.392157 0
0.840116 0.384405 0
0.901701 0.376318 0
0.96379 0.368078 0
1 0.359777 0
1 0.351232 0
1 0.342809 0
1 0.334249 0
1 0.325994 0
1 0.318914 0
1 0.318425 0
0 0.498589 0
0 0.497581 0
0 0.497719 0
0 0.501549 0
0 0.502815 0
0 0.502068 0
0 0.500526 0
0 0.498466 0
0.0382239 0.496468 0
0.0859236 0.494057 0
0.135348 0.491447 0
0.18645 0.488533 0
0.238865 0.485023 0
0.28716 0.4813 0
0.336629 0.477043 0
0.386587 0.472328 0
0.436835 0.467277 0
0.486824 0.46186 0
0.537392 0.456138 0
0.590372 0.449958 0
0.647776 0.443015 0
0.707195 0.435645 0
0.767269 0.428153 0
0.828199 0.420279 0
0.889799 0.412177 0
0.951919 0.403922 0
1 0.395438 0
1 0.386938 0
1 0.378302 0
1 0.369848 0
1 0.361379 0
1 0.354238 0
1 0.353674 0
0 0.53492 0
0 0.534371 0
0 0.534569 0
0 0.538552 0
0 0.540825 0
0 0.54078 0
0 0.539437 0
0 0.537392 0
0.0242161 0.534783 0
0.0732586 0.531991 0
0.123812 0.528908 0
0.175906 0.525353 0
0.229099 0.521263 0
0.277882 0.517235 0
0.327214 0.512886 0
0.376913 0.508202 0
0.426932 0.502998 0
0.476509 0.497688 0
0.526787 0.491905 0
0.579431 0.485832 0
0.636454 0.478935 0
0.695811 0.471504 0
0.755856 0.463966 0
0.816709 0.456092 0
0.878279 0.448081 0
0.940429 0.43978 0
1 0.431281 0
1 0.422873 0
1 0.41416 0
1 0.405554 0
1 0.396811 0
1 0.3897 0
1 0.389136 0
0 0.570947 0
0 0.570611 0
0 0.570886 0
0 0.574899 0
0 0.577966 0
0 0.578546 0
0 0.577661 0
0 0.575555 0
0.0104982 0.573037 0
0.0603647 0.569924 0
0.111864 0.5664 0
0.164828 0.562325 0
0.218647 0.557992 0
0.268025 0.553674 0
0.317388 0.549142 0
0.367147 0.544076 0
0.417029 0.538872 0
0.466407 0.533639 0
0.516426 0.527916 0
0.568811 0.521767 0
0.625544 0.514916 0
0.684794 0.507637 0
0.744762 0.500038 0
0.805585 0.49218 0
0.86714 0.484108 0
0.929412 0.475792 0
0.991989 0.467399 0
1 0.458808 0
1 0.450141 0
1 0.441321 0
1 0.432563 0
1 0.425376 0
1 0.424872 0
0 0.606912 0
0 0.606516 0
0 0.607065 0
0 0.611093 0
0 0.61474 0
0 0.61561 0
0 0.615137 0
0 0.613367 0
0 0.610727 0
0.0480659 0.607446 0
0.100099 0.603708 0
0.153567 0.599573 0
0.207965 0.594812 0
0.258 0.590249 0
0.3075 0.58555 0
0.357275 0.580453 0
0.407126 0.575235 0
0.456489 0.569802 0
0.506355 0.56408 0
0.558618 0.557916 0
0.615061 0.551171 0
0.674296 0.543832 0
0.734188 0.536248 0
0.794965 0.528405 0
0.856458 0.520378 0
0.918578 0.512139 0
0.981262 0.503517 0
1 0.494972 0
1 0.486183 0
1 0.47744 0
1 0.468574 0
1 0.461357 0
1 0.460777 0
0 0.642756 0
0 0.642512 0
0 0.642832 0
0 0.646723 0
0 0.650935 0
0 0.652323 0
0 0.651911 0
0 0.650355 0
0 0.647883 0
0.0365148 0.644678 0
0.088838 0.640772 0
0.142687 0.636332 0
0.197452 0.631418 0
0.248157 0.626719 0
0.297795 0.621897 0
0.347646 0.616739 0
0.397513 0.611475 0
0.446921 0.605982 0
0.496712 0.600183 0
0.548699 0.594095 0
0.604959 0.587304 0
0.664118 0.579965 0
0.723949 0.572381 0
0.784634 0.564614 0
0.846159 0.556451 0
0.908248 0.548196 0
0.970901 0.539681 0
1 0.531029 0
1 0.522332 0
1 0.51339 0
1 0.504356 0
1 0.4972 0
1 0.496696 0
0 0.678096 0
0 0.678019 0
0 0.678386 0
0 0.68217 0
0 0.686549 0
0 0.688029 0
0 0.687892 0
0 0.686534 0
0 0.684306 0
0.0259861 0.681041 0
0.0784924 0.677043 0
0.132418 0.672618 0
0.187335 0.66775 0
0.23859 0.662852 0
0.28835 0.657877 0
0.338277 0.65272 0
0.38822 0.647242 0
0.437629 0.641855 0
0.487388 0.636057 0
0.539254 0.629892 0
0.595331 0.623056 0
0.654414 0.615854 0
0.714199 0.60827 0
0.774853 0.600412 0
0.836286 0.592386 0
0.898405 0.583978 0
0.961044 0.575448 0
1 0.566827 0
1 0.557992 0
1 0.549065 0
1 0.540017 0
1 0.532815 0
1 0.53225 0
0 0.712612 0
0 0.712612 0
0 0.713085 0
0 0.716884 0
0 0.72137 0
0 0.72311 0
0 0.723079 0
0 0.721782 0
0 0.719509 0
0.0164645 0.716426 0
0.0689555 0.712474 0
0.122942 0.708034 0
0.178103 0.702983 0
0.229648 0.6981 0
0.279438 0.693141 0
0.329412 0.687953 0
0.379385 0.682521 0
0.428885 0.676982 0
0.478569 0.671107 0
0.530327 0.665019 0
0.586221 0.65832 0
0.645319 0.650904 0
0.705165 0.643351 0
0.765774 0.635493 0
0.827176 0.627436 0
0.889281 0.618997 0
0.951904 0.610513 0
1 0.601724 0
1 0.593057 0
1 0.583963 0
1 0.574792 0
1 0.56759 0
1 0.567025 0
0 0.746227 0
0 0.74638 0
0 0.747127 0
0 0.751019 0
0 0.755718 0
0 0.757473 0
0 0.757534 0
0 0.756313 0
0 0.754208 0
0.00772107 0.751034 0
0.0601816 0.747173 0
0.11429 0.742687 0
0.169375 0.737697 0
0.221225 0.732784 0
0.271077 0.727749 0
0.321111 0.722484 0
0.371115 0.717037 0
0.420722 0.711528 0
0.470329 0.705806 0
0.52195 0.699657 0
0.577798 0.692866 0
0.636881 0.68542 0
0.696529 0.678019 0
0.757137 0.670008 0
0.818524 0.661875 0
0.880583 0.653559 0
0.943206 0.645045 0
1 0.636286 0
1 0.627375 0
1 0.618418 0
1 0.60911 0
1 0.601968 0
1 0.601404 0
0 0.779355 0
0 0.779675 0
0 0.780835 0
0 0.784878 0
0 0.789746 0
0 0.791562 0
0 0.791806 0
0 0.790677 0
0 0.788479 0
0 0.785412 0
0.0519875 0.781521 0
0.10605 0.777203 0
0.161166 0.772213 0
0.213413 0.767193 0
0.263249 0.762219 0
0.313344 0.756802 0
0.363363 0.751476 0
0.412955 0.745907 0
0.462501 0.740169 0
0.513985 0.733989 0
0.569696 0.727321 0
0.628794 0.719921 0
0.688457 0.712367 0
0.74902 0.704402 0
0.810361 0.696254 0
0.872389 0.687922 0
0.935012 0.679316 0
0.998169 0.670451 0
1 0.661585 0
1 0.652628 0
1 0.64332 0
1 0.636103 0
1 0.635554 0
0 0.812009 0
0 0.812604 0
0 0.814069 0
0 0.818387 0
0 0.823346 0
0 0.825345 0
0 0.82565 0
0 0.824628 0
0 0.822507 0
0 0.819486 0
0.044419 0.815778 0
0.0984817 0.811337 0
0.153567 0.806439 0
0.206027 0.801404 0
0.255879 0.796368 0
0.305974 0.791089 0
0.356054 0.785611 0
0.405676 0.780026 0
0.455207 0.77435 0
0.506539 0.768246 0
0.562097 0.761517 0
0.621256 0.754025 0
0.680919 0.74638 0
0.741421 0.738537 0
0.802731 0.730419 0
0.864912 0.721859 0
0.927535 0.713283 0
0.990646 0.704463 0
1 0.695567 0
1 0.686442 0
1 0.67718 0
1 0.670008 0
1 0.669535 0
0 0.844114 0
0 0.844892 0
0 0.846784 0
0 0.851637 0
0 0.856504 0
0 0.858549 0
0 0.859052 0
0 0.858167 0
0 0.856229 0
0 0.853284 0
0.0376135 0.849485 0
0.0916152 0.845075 0
0.146654 0.840284 0
0.199298 0.835172 0
0.249119 0.830274 0
0.299229 0.824933 0
0.349294 0.819516 0
0.398932 0.813916 0
0.448478 0.808179 0
0.499855 0.80206 0
0.555245 0.795224 0
0.614374 0.787839 0
0.674052 0.780224 0
0.734554 0.77229 0
0.79585 0.764096 0
0.857862 0.755657 0
0.920501 0.747005 0
0.983642 0.73814 0
1 0.729198 0
1 0.720058 0
1 0.710826 0
1 0.703761 0
1 0.703212 0
0 0.875853 0
0 0.876829 0
0 0.879072 0
0 0.884474 0
0 0.889204 0
0 0.891478 0
0 0.892042 0
0 0.891295 0
0 0.889433 0
0 0.886534 0
0.0315404 0.882994 0
0.0855116 0.878645 0
0.140627 0.873732 0
0.193317 0.868711 0
0.243122 0.863828 0
0.293248 0.858427 0
0.343282 0.853086 0
0.392935 0.847471 0
0.442466 0.841657 0
0.493675 0.835615 0
0.548898 0.828885 0
0.60795 0.821439 0
0.667704 0.813703 0
0.728191 0.805753 0
0.789441 0.797665 0
0.851453 0.789136 0
0.914061 0.780468 0
0.977249 0.771588 0
1 0.762692 0
1 0.753506 0
1 0.744121 0
1 0.737133 0
1 0.736584 0
0 0.907439 0
0 0.908339 0
0 0.91107 0
0 0.916976 0
0 0.921523 0
0 0.923705 0
0 0.924453 0
0 0.923842 0
0 0.922118 0
0 0.919493 0
0.0265507 0.915984 0
0.0803998 0.911635 0
0.135348 0.906844 0
0.188067 0.901915 0
0.237827 0.896941 0
0.287907 0.89163 0
0.337926 0.886168 0
0.387564 0.880613 0
0.437034 0.874876 0
0.488212 0.868757 0
0.543313 0.862028 0
0.602228 0.854612 0
0.661982 0.846998 0
0.722499 0.838941 0
0.783749 0.830701 0
0.845731 0.822232 0
0.908339 0.813611 0
0.971527 0.804715 0
1 0.795727 0
1 0.78645 0
1 0.777127 0
1 0.770275 0
1 0.769726 0
0 0.938842 0
0 0.939864 0
0 0.943023 0
0 0.949081 0
0 0.953445 0
0 0.955612 0
0 0.956466 0
0 0.955856 0
0 0.954314 0
