green.cube
TITLE "Generated by Resolve"
LUT_3D_SIZE 5
0 0.0172732 0.041413
0.183062 0.0203555 0.119951
0.637873 0 0.0908827
1 0 0.0475624
1 0 0.00341802
0 0.262196 0.0583658
0.0868086 0.279438 0.106798
0.507607 0.247105 0
0.969528 0.189517 0
1 0.135805 0
0 0.570947 0
0.0104982 0.573037 0
0.417029 0.538872 0
0.86714 0.484108 0
1 0.424872 0
0 0.844114 0
0 0.856229 0
0.349294 0.819516 0
0.79585 0.764096 0
1 0.703212 0
0 1 0
0 1 0
0.325246 1 0
0.766323 1 0
1 0.961746 0
0 0 0.485939
0.185092 0.00184634 0.502007
0.617884 0 0.499352
1 0 0.44445
1 0 0.381369
0 0.256535 0.403723
0.0702831 0.275685 0.38706
0.426184 0.248051 0.399634
0.952056 0.172045 0.339193
1 0.112291 0.280919
0 0.551736 0.342428
0.0399939 0.535729 0.399695
0.384512 0.515618 0.396109
0.838102 0.468254 0.270619
1 0.404868 0.201205
0 0.828519 0.293599
0 0.838087 0.294667
0.332906 0.799268 0.269108
0.776699 0.747127 0.210422
1 0.686595 0.149722
0 1 0.300984
0 1 0.280369
0.290257 1 0.233387
0.739178 1 0.181353
1 0.95169 0.128252
0 0 0.960861
0.194873 0 0.962707
0.600946 0 0.924285
1 0 0.86302
1 0 0.788083
0 0.246433 0.852827
0.0677958 0.255207 0.813336
0.440253 0.22742 0.78378
0.931243 0.157473 0.762448
1 0.0947127 0.700099
0 0.535439 0.770031
0.00442512 0.532769 0.753948
0.376181 0.510552 0.697826
0.734462 0.478096 0.69398
1 0.392233 0.625742
0 0.811368 0.716808
0 0.821469 0.722393
0.386664 0.758679 0.724117
0.759518 0.722515 0.71313
1 0.676753 0.602853
0 1 0.704494
0 1 0.696422
0.271824 1 0.657664
0.730617 0.992126 0.617029
1 0.936278 0.552956
0 0 1
0.175952 0 1
0.574685 0 1
1 0 1
1 0 1
0 0.233295 1
0.0525521 0.237308 1
0.463462 0.199313 1
0.919631 0.143511 1
1 0.083711 1
0 0.520058 1
0 0.528298 1
0.368444 0.495186 1
0.770413 0.455634 1
1 0.382422 1
0 0.794446 1
0 0.808621 1
0.34258 0.761425 1
0.767391 0.71693 0.975219
1 0.690715 0.963363
0 1 1
0 1 1
0.260014 1 1
0.796185 0.955413 1
1 0.906859 1
0 0 1
0.158679 0 1
0.544137 0 1
0.977646 0 1
1 0 1
0 0.224796 1
0.044831 0.231662 1
0.449271 0.194537 1
0.898024 0.140841 1
1 0.0851301 1
0 0.508324 1
0 0.519249 1
0.356664 0.483497 1
0.805249 0.429938 1
1 0.369909 1
0 0.783291 1
0 0.79826 1
0.288212 0.764294 1
0.742138 0.711879 1
1 0.670085 1
0 1 1
0 1 1
0.247517 1 1
0.744595 0.965377 1
1 0.903334 1
