green.cube
TITLE "Generated by Resolve"
LUT_3D_SIZE 9
0 0.0172732 0.041413
0.00666819 0.0302281 0.0880293
0.183062 0.0203555 0.119951
0.430198 0 0.109667
0.637873 0 0.0908827
0.854337 0 0.0690776
1 0 0.0475624
1 0 0.0229953
1 0 0.00341802
0 0.113191 0.0731518
0 0.135073 0.107332
0.113344 0.139849 0.104692
0.35172 0.115175 0.0676432
0.577478 0.0872206 0.0371099
0.795743 0.0607004 0.0140383
1 0.031281 0
1 0.0040589 0
1 0 0
0 0.262196 0.0583658
0 0.271473 0.11162
0.0868086 0.279438 0.106798
0.285908 0.270573 0.0420081
0.507607 0.247105 0
0.727749 0.220493 0
0.969528 0.189517 0
1 0.158083 0
1 0.135805 0
0 0.423499 0
0 0.424506 0.0271916
0.0626841 0.421027 0.0446632
0.25507 0.413535 0
0.457481 0.395911 0
0.671672 0.371054 0
0.914076 0.339986 0
1 0.306523 0
1 0.282506 0
0 0.570947 0
0 0.577966 0
0.0104982 0.573037 0
0.218647 0.557992 0
0.417029 0.538872 0
0.625544 0.514916 0
0.86714 0.484108 0
1 0.450141 0
1 0.424872 0
0 0.712612 0
0 0.72137 0
0 0.719509 0
0.178103 0.702983 0
0.379385 0.682521 0
0.586221 0.65832 0
0.827176 0.627436 0
1 0.593057 0
1 0.567025 0
0 0.844114 0
0 0.856504 0
0 0.856229 0
0.146654 0.840284 0
0.349294 0.819516 0
0.555245 0.795224 0
0.79585 0.764096 0
1 0.729198 0
1 0.703212 0
0 0.97023 0
0 0.985031 0
0 0.986007 0
0.127871 0.971481 0
0.329793 0.951202 0
0.534676 0.927184 0
0.774731 0.895964 0
1 0.860807 0
1 0.835081 0
0 1 0
0 1 0
0 1 0
0.12578 1 0
0.325246 1 0
0.528038 1 0
0.766323 1 0
1 0.987167 0
1 0.961746 0
0 0.00891127 0.237675
0.00750744 0.0227207 0.257008
0.173404 0.0130159 0.304753
0.414786 0 0.317571
0.627024 0 0.301488
0.846296 0 0.277424
1 0 0.250019
1 0 0.218952
1 0 0.195071
0 0.111864 0.222705
0 0.133837 0.225925
0.0949111 0.139376 0.259281
0.315953 0.114916 0.267735
0.558083 0.0806897 0.250523
0.785382 0.0516823 0.22562
1 0.0210269 0.196078
1 0 0.167636
1 0 0.14696
0 0.257404 0.227085
0 0.265492 0.258518
0.0732433 0.275456 0.279255
0.243122 0.270741 0.257298
0.467689 0.244984 0.213016
0.712276 0.212345 0.172091
0.961593 0.179782 0.140383
1 0.14638 0.110384
1 0.123186 0.0912032
0 0.412375 0.18761
0 0.409796 0.237537
0.0717327 0.404211 0.273198
0.233341 0.402609 0.2533
0.422171 0.389456 0.194553
0.651957 0.363119 0.134752
0.904036 0.330495 0.0966201
1 0.295796 0.0650034
1 0.270344 0.0445106
0 0.560327 0.139178
0 0.564965 0.160952
0.0209964 0.552651 0.19762
0.217365 0.539376 0.194415
0.401343 0.526543 0.150378
0.610391 0.505241 0.0994888
0.856794 0.474556 0.0608682
1 0.439811 0.0289006
1 0.413703 0.00782788
0 0.702541 0.108339
0 0.710842 0.115053
0 0.707835 0.119371
0.170977 0.690227 0.11191
0.369635 0.670954 0.0906539
0.575067 0.648295 0.0619211
0.817365 0.617945 0.0307012
1 0.583139 0
1 0.55697 0
0 0.836133 0.0947738
0 0.847364 0.0937362
0 0.846662 0.0911879
0.134813 0.830533 0.0765698
0.337835 0.809812 0.0579232
0.544396 0.786023 0.0359045
0.78616 0.755444 0.0081178
1 0.720821 0
1 0.694499 0
0 0.963287 0.10103
0 0.978332 0.0940566
0 0.979507 0.0814069
0.111894 0.964569 0.0627146
0.315007 0.944106 0.0428931
0.521157 0.920424 0.0210727
0.763348 0.889433 0
1 0.854429 0
1 0.828367 0
0 1 0.114946
0 1 0.112322
0 1 0.0946059
0.105089 1 0.0686961
0.305287 1 0.0453956
0.510094 1 0.0226444
0.751766 1 0
1 0.98233 0
1 0.95671 0
0 0 0.485939
0.0158541 0.0103761 0.478096
0.185092 0.00184634 0.502007
0.409476 0 0.513802
0.617884 0 0.499352
0.837797 0 0.474647
1 0 0.44445
1 0 0.409491
1 0 0.381369
0 0.106813 0.4271
0 0.126314 0.400366
0.100282 0.131975 0.413321
0.304845 0.110277 0.442145
0.542046 0.0752575 0.444953
0.775433 0.0440833 0.423941
1 0.0125124 0.393179
1 0 0.359884
1 0 0.335073
0 0.256535 0.403723
0 0.265919 0.390692
0.0702831 0.275685 0.38706
0.21976 0.272526 0.405737
0.426184 0.248051 0.399634
0.687984 0.208759 0.37261
0.952056 0.172045 0.339193
1 0.137209 0.305562
1 0.112291 0.280919
0 0.406699 0.37937
0 0.404761 0.398444
0.0811322 0.396323 0.41976
0.219577 0.398688 0.428
0.379202 0.390646 0.401907
0.60737 0.363607 0.352361
0.888472 0.32398 0.299275
1 0.287343 0.262196
1 0.260639 0.236667
0 0.551736 0.342428
0 0.554849 0.361654
0.0399939 0.535729 0.399695
0.229709 0.522072 0.418677
0.384512 0.515618 0.396109
0.576654 0.500038 0.339376
0.838102 0.468254 0.270619
1 0.431693 0.227329
1 0.404868 0.201205
0 0.693996 0.311727
0 0.702037 0.319173
0 0.695247 0.331731
0.185061 0.671214 0.348119
0.372915 0.654032 0.33695
0.563287 0.63714 0.296117
0.804273 0.609903 0.240314
1 0.575021 0.198062
1 0.548623 0.172045
0 0.828519 0.293599
0 0.839063 0.295415
0 0.838087 0.294667
0.128634 0.820584 0.284108
0.332906 0.799268 0.269108
0.53669 0.776379 0.245319
0.776699 0.747127 0.210422
1 0.712795 0.174563
1 0.686595 0.149722
0 0.956756 0.292332
0 0.971695 0.287266
0 0.97261 0.278889
0.100832 0.95697 0.262242
0.304936 0.9364 0.242267
0.51136 0.912551 0.21976
0.753643 0.881895 0.190738
1 0.847288 0.157671
1 0.821424 0.134157
0 1 0.300984
0 1 0.297932
0 1 0.280369
0.0882124 1 0.256397
0.290257 1 0.233387
0.4963 1 0.209995
0.739178 1 0.181353
0.997192 0.977035 0.149935
1 0.95169 0.128252
0 0 0.741344
0.0191348 0 0.742489
0.198596 0 0.736522
0.408453 0 0.726452
0.609583 0 0.708232
0.828504 0 0.682658
1 0 0.650584
1 0 0.612039
1 0 0.580774
0 0.0981613 0.682124
0 0.112016 0.65774
0.120912 0.11339 0.638239
0.321767 0.0949722 0.648569
0.538994 0.0658427 0.651041
0.766354 0.0362402 0.631922
1 0.00474556 0.600565
1 0 0.564874
1 0 0.536339
0 0.253651 0.626474
0 0.263584 0.593912
0.0724498 0.26891 0.553414
0.226139 0.266331 0.55668
0.414054 0.244968 0.572808
0.665293 0.205753 0.572259
0.94052 0.164828 0.546502
1 0.129 0.51191
1 0.102815 0.48481
0 0.401358 0.58764
0 0.404898 0.58024
0.0699931 0.397253 0.552407
0.21622 0.399222 0.54342
0.354376 0.393668 0.553384
0.558999 0.369299 0.543755
0.856474 0.322759 0.508736
1 0.279957 0.46923
1 0.252369 0.441917
0 0.543557 0.552148
0 0.548928 0.560739
0.0399481 0.529595 0.565316
0.244465 0.512535 0.575463
0.374899 0.510536 0.57911
0.533028 0.50164 0.554177
0.786358 0.470665 0.498848
1 0.426047 0.438529
1 0.397284 0.407538
0 0.685512 0.521675
0 0.693553 0.528832
0 0.683726 0.538827
0.213169 0.65156 0.560128
0.393744 0.634409 0.569467
0.552743 0.624445 0.550607
0.768887 0.605097 0.49044
1 0.569558 0.416693
1 0.541436 0.380118
0 0.820294 0.501259
0 0.830747 0.504891
0 0.829313 0.505074
0.135286 0.806561 0.503853
0.352575 0.77908 0.509529
0.545953 0.7579 0.498375
0.765911 0.735805 0.453208
1 0.705119 0.392416
1 0.679149 0.358038
0 0.949401 0.494606
0 0.964233 0.492821
0 0.964889 0.487297
0.0921645 0.948592 0.471809
0.300282 0.926452 0.455863
0.508217 0.901701 0.43801
0.74699 0.872282 0.407706
1 0.839246 0.367559
1 0.813947 0.339391
0 1 0.49868
0 1 0.49688
0 1 0.4822
0.0754864 1 0.461189
0.279377 1 0.440101
0.486366 1 0.417075
0.729549 1 0.38735
0.987305 0.969421 0.353216
1 0.944884 0.328023
0 0 0.960861
0.0121767 0 0.970733
0.194873 0 0.962707
0.402289 0 0.945144
0.600946 0 0.924285
0.8177 0 0.897307
1 0 0.86302
1 0 0.821668
1 0 0.788083
0 0.0897688 0.910338
0 0.0994278 0.917723
0.132372 0.0940108 0.904936
0.339254 0.0767376 0.888655
0.540902 0.0544442 0.87274
0.758465 0.0282597 0.848829
1 0 0.816434
1 0 0.778759
1 0 0.747997
0 0.246433 0.852827
0 0.255695 0.853513
0.0677958 0.255207 0.813336
0.253315 0.246754 0.783764
0.440253 0.22742 0.78378
0.66891 0.194965 0.783993
0.931243 0.157473 0.762448
1 0.121187 0.728099
1 0.0947127 0.700099
0 0.393896 0.807248
0 0.401999 0.809476
0.0370336 0.397406 0.761715
0.221271 0.392355 0.713634
0.366415 0.386557 0.707424
0.551629 0.365972 0.71632
0.829831 0.321553 0.713527
1 0.273793 0.685374
1 0.244938 0.658305
0 0.535439 0.770031
0 0.543313 0.777066
0.00442512 0.532769 0.753948
0.232959 0.514138 0.71368
0.376181 0.510552 0.697826
0.511666 0.504967 0.703822
0.734462 0.478096 0.69398
1 0.428016 0.657664
1 0.392233 0.625742
0 0.676951 0.738888
0 0.685634 0.746639
0 0.679347 0.744656
0.215869 0.645335 0.730999
0.412634 0.624521 0.729839
0.552438 0.617746 0.734371
0.72488 0.607477 0.710079
0.982086 0.575006 0.656703
1 0.540917 0.609445
0 0.811368 0.716808
0 0.822492 0.723033
0 0.821469 0.722393
0.143801 0.793866 0.717006
0.386664 0.758679 0.724117
0.576349 0.736828 0.729961
0.759518 0.722515 0.71313
0.979797 0.701473 0.65658
1 0.676753 0.602853
0 0.941192 0.705669
0 0.956298 0.708644
0 0.956924 0.704936
0.0860456 0.939773 0.690471
0.311742 0.911513 0.682704
0.536431 0.879637 0.683955
0.763806 0.851591 0.672038
0.99176 0.826963 0.627146
1 0.806058 0.581674
0 1 0.704494
0 1 0.706737
0 1 0.696422
0.0655222 1 0.677623
0.271824 1 0.657664
0.484154 1 0.639002
0.730617 0.992126 0.617029
0.983093 0.958648 0.583093
1 0.936278 0.552956
0 0 1
0.00445563 0 1
0.186526 0 1
0.39324 0 1
0.590372 0 1
0.803922 0 1
1 0 1
1 0 1
1 0 0.977478
0 0.0830701 1
0 0.0922408 1
0.126848 0.0856336 1
0.336233 0.0677653 1
0.535271 0.0469673 1
0.750454 0.0216678 1
0.992477 0 1
1 0 0.974212
1 0 0.941955
0 0.239322 1
0 0.248341 1
0.0596628 0.243793 1
0.268025 0.228061 1
0.463966 0.208392 1
0.678065 0.182391 0.991196
0.926146 0.149752 0.963058
1 0.11458 0.92755
1 0.088426 0.899016
0 0.386725 1
0 0.395514 1
0.00791943 0.392279 1
0.217868 0.379965 0.952987
0.393454 0.368048 0.920043
0.584009 0.347784 0.911055
0.840284 0.31017 0.907103
1 0.267079 0.883955
1 0.238407 0.858259
0 0.527764 0.968704
0 0.536553 0.979583
0 0.533425 0.969543
0.199283 0.51548 0.909102
0.376349 0.505379 0.861982
0.528511 0.497169 0.846342
0.733806 0.474128 0.849012
1 0.427649 0.842603
1 0.389303 0.823224
0 0.668589 0.936751
0 0.678401 0.948074
0 0.6766 0.94519
0.177584 0.650355 0.905577
0.397284 0.627283 0.86392
0.555795 0.617945 0.841428
0.708797 0.610758 0.841154
0.935164 0.582849 0.829847
1 0.548989 0.806394
0 0.80267 0.913222
0 0.815045 0.923964
0 0.814939 0.923415
0.124544 0.791913 0.904448
0.385138 0.754772 0.881865
0.593423 0.72903 0.871855
0.764813 0.716243 0.873091
0.941176 0.704677 0.849882
1 0.684581 0.818494
0 0.933196 0.899443
0 0.948592 0.908019
0 0.94995 0.905898
0.0780652 0.933028 0.890227
0.31902 0.901045 0.876036
0.568353 0.862257 0.873259
0.797299 0.832212 0.874556
0.990051 0.814969 0.857954
1 0.801419 0.826719
0 1 0.895186
0 1 0.902205
0 1 0.895201
0.0575113 1 0.878004
0.267597 1 0.858274
0.496864 1 0.844816
0.765255 0.970962 0.840635
1 0.938628 0.827146
1 0.921157 0.801434
0 0 1
0 0 1
0.175952 0 1
0.380255 0 1
0.574685 0 1
0.784649 0 1
1 0 1
1 0 1
1 0 1
0 0.0783856 1
0 0.0874189 1
0.119112 0.0802319 1
0.328313 0.0623941 1
0.52668 0.0416876 1
0.739406 0.0172274 1
0.978073 0 1
1 0 1
1 0 1
0 0.233295 1
0 0.24239 1
0.0525521 0.237308 1
0.264118 0.219944 1
0.463462 0.199313 1
0.675395 0.174594 1
0.919631 0.143511 1
1 0.109133 1
1 0.083711 1
0 0.379782 1
0 0.389166 1
0 0.386053 1
0.210193 0.369589 1
0.407324 0.350713 1
0.611795 0.327962 1
0.856107 0.296284 1
1 0.25948 1
1 0.232502 1
0 0.520058 1
0 0.530007 1
0 0.528298 1
0.167819 0.512062 1
0.368444 0.495186 1
0.553414 0.479744 1
0.770413 0.455634 1
1 0.415518 1
1 0.382422 1
0 0.660288 1
0 0.67158 1
0 0.671214 1
0.133257 0.653513 1
0.358343 0.630732 1
0.548089 0.615213 1
0.728344 0.602747 0.976867
0.939269 0.578576 0.973556
1 0.54847 0.968917
0 0.794446 1
0 0.807965 1
0 0.808621 1
0.0979477 0.791501 1
0.34258 0.761425 1
0.572152 0.733303 1
0.767391 0.71693 0.975219
0.929274 0.707774 0.969451
1 0.690715 0.963363
0 0.925704 1
0 0.941039 1
0 0.943328 1
0.0679026 0.927733 1
0.297398 0.900465 1
0.560037 0.86067 1
0.812757 0.82594 1
0.999664 0.809033 1
1 0.802213 0.990677
0 1 1
0 1 1
0 1 1
0.0499123 1 1
0.260014 1 1
0.499992 1 1
0.796185 0.955413 1
1 0.921111 1
1 0.906859 1
0 0 1
0 0 1
0.165759 0 1
0.365835 0 1
0.55726 0 1
0.764858 0 1
0.995071 0 1
1 0 1
1 0 1
0 0.0749828 1
0 0.0848249 1
0.110796 0.0780346 1
0.316991 0.0605173 1
0.513344 0.0402686 1
0.722667 0.0167086 1
0.957732 0 1
1 0 1
1 0 1
0 0.228504 1
0 0.238163 1
0.0470893 0.232837 1
0.257465 0.215106 1
0.457053 0.194293 1
0.667979 0.169787 1
0.910933 0.139208 1
1 0.10605 1
1 0.0817884 1
0 0.373861 1
0 0.383948 1
0 0.38056 1
0.203784 0.363775 1
0.404257 0.343236 1
0.612879 0.319219 1
0.856092 0.288518 1
1 0.253651 1
1 0.227527 1
0 0.513283 1
0 0.524132 1
0 0.522652 1
0.15758 0.506569 1
0.359564 0.486625 1
0.564446 0.46421 1
0.800885 0.435889 1
1 0.400717 1
1 0.373388 1
0 0.653178 1
0 0.665431 1
0 0.665492 1
0.117693 0.649775 1
0.325475 0.629206 1
0.53312 0.607965 1
0.751629 0.58677 1
0.978714 0.56025 1
1 0.533791 1
0 0.787533 1
0 0.80119 1
0 0.802686 1
0.0856489 0.787518 1
0.299306 0.765286 1
0.527459 0.738506 1
0.757137 0.715541 1
0.950866 0.699687 1
1 0.684642 1
0 0.919356 1
0 0.934173 1
0 0.936858 1
0.0609445 0.922576 1
0.272328 0.900587 1
0.513909 0.868437 1
0.788403 0.831312 1
1 0.810559 1
1 0.803738 1
0 1 1
0 1 1
0 1 1
0.0446021 1 1
0.250462 1 1
0.477028 1 1
0.783673 0.955947 1
1 0.916442 1
1 0.900023 1
0 0 1
0 0 1
0.158679 0 1
0.355306 0 1
0.544137 0 1
0.749554 0 1
0.977646 0 1
1 0 1
1 0 1
0 0.0715343 1
0 0.0831159 1
0.104448 0.078172 1
0.306294 0.0621195 1
0.498711 0.0430304 1
0.704662 0.0201572 1
0.937316 0 1
1 0 1
1 0 1
0 0.224796 1
0 0.23592 1
0.044831 0.231662 1
0.251881 0.214923 1
0.449271 0.194537 1
0.658274 0.170321 1
0.898024 0.140841 1
1 0.108476 1
1 0.0851301 1
0 0.369451 1
0 0.380835 1
0 0.378058 1
0.201236 0.361532 1
0.400793 0.3411 1
0.609262 0.316991 1
0.852079 0.286549 1
1 0.252247 1
1 0.22678 1
0 0.508324 1
0 0.520317 1
0 0.519249 1
0.155261 0.503731 1
0.356664 0.483497 1
0.563027 0.46006 1
0.805249 0.429938 1
1 0.395575 1
1 0.369909 1
0 0.648112 1
0 0.660853 1
0 0.661509 1
0.115145 0.646937 1
0.318441 0.626749 1
0.524239 0.603616 1
0.762936 0.575174 1
1 0.543694 1
1 0.518715 1
0 0.783291 1
0 0.796445 1
0 0.79826 1
0.0832685 0.784695 1
0.288212 0.764294 1
0.497704 0.740398 1
0.742138 0.711879 1
0.971771 0.68748 1
1 0.670085 1
0 0.916716 1
0 0.92961 1
0 0.931899 1
0.0597696 0.919661 1
0.264607 0.899458 1
0.478172 0.874174 1
0.74844 0.838636 1
0.991882 0.810987 1
1 0.798993 1
0 1 1
0 1 1
0 1 1
0.0461128 1 1
0.247517 1 1
0.458503 1 1
0.744595 0.965377 1
1 0.921324 1
1 0.903334 1
