rally.cube
TITLE "Generated by Resolve"
LUT_3D_SIZE 5
0.04065 0.0462196 0.0537575
0.283421 0.0781262 0.0623789
0.718593 0.0830854 0.0753643
0.760204 0.100618 0.0774548
0.760204 0.100618 0.0774548
0 0.228779 0.0829633
0.154833 0.238041 0.0841535
0.687144 0.230594 0.0807965
0.784741 0.192386 0.0813306
0.764477 0.119371 0.0775464
0 0.518608 0.123873
0 0.51429 0.123308
0.695033 0.623835 0.087953
0.913542 0.634333 0.0801556
0.911452 0.617182 0.0819257
0.0129397 0.663874 0.140169
0.0125277 0.66334 0.140261
0.329809 0.731304 0.122637
0.918593 0.828885 0.0644694
0.952987 0.828855 0.0622568
0.0148318 0.665888 0.139452
0.0147555 0.665827 0.139483
0.0148318 0.665888 0.139452
0.885618 0.836316 0.0690166
0.956298 0.842115 0.0635386
0.0271611 0.0510262 0.200137
0.238224 0.081651 0.219837
0.700801 0.0842908 0.188357
0.759472 0.0836805 0.158206
0.760204 0.0912642 0.13666
0 0.209094 0.181216
0.142123 0.215106 0.170352
0.700725 0.1888 0.1299
0.770626 0.134813 0.123644
0.760906 0.103746 0.0784924
0 0.505943 0.122225
0 0.501686 0.121675
0.68867 0.606439 0.0890364
0.909453 0.617227 0.0818799
0.906752 0.598947 0.0830549
0.0115511 0.662104 0.140475
0.0111391 0.661555 0.140566
0.315679 0.72697 0.123278
0.917403 0.825635 0.06421
0.952392 0.825513 0.0618753
0.0148318 0.665888 0.139452
0.0147402 0.665827 0.139483
0.0148318 0.665888 0.139452
0.884337 0.83621 0.0691539
0.956298 0.842115 0.0635386
0.00224308 0.0138705 0.551247
0.2159 0.0149844 0.573266
0.699763 0.125277 0.570047
0.783062 0.0886549 0.598444
0.782254 0.085893 0.58436
0.002121 0.0263523 0.528389
0.114046 0.0326848 0.548012
0.680583 0.122789 0.547814
0.781933 0.0844892 0.578988
0.781003 0.0814069 0.563821
0 0.52723 0.504616
0 0.522072 0.500908
0.664179 0.583703 0.48983
0.902922 0.592981 0.498207
0.899794 0.571633 0.489067
0 0.591745 0.271077
0 0.590143 0.268101
0.168414 0.763348 0.423056
0.902663 0.828244 0.337163
0.950927 0.834531 0.321324
0 0.651392 0.268482
0 0.655558 0.271336
0 0.667094 0.280888
0.87744 0.848829 0.236393
0.956512 0.849958 0.183825
0.00328069 0.035935 0.713344
0.155596 0.1234 0.73875
0.701808 0.0735637 0.77966
0.812909 0.214527 0.814649
0.811841 0.212482 0.812467
0.00328069 0.0352636 0.712306
0.0324254 0.0480812 0.720745
0.681041 0.0584268 0.775265
0.813016 0.216175 0.813733
0.813092 0.217304 0.812985
0.0174868 0.476677 0.82652
0.0171359 0.468635 0.824887
0.616053 0.492714 0.840162
0.878202 0.543282 0.865293
0.879286 0.527611 0.863157
0.0178531 0.696025 0.778164
0.0183413 0.700328 0.786679
0.0177615 0.70013 0.778424
0.88423 0.840513 0.790372
0.914488 0.804898 0.754696
0.0104067 0.708568 0.707973
0.0125429 0.720546 0.728511
0.0109712 0.718502 0.715572
0.848371 0.889555 0.757412
0.932555 0.885649 0.723415
0.00331121 0.0382849 0.717006
0.0982986 0.12047 0.737453
0.697368 0.0770275 0.784482
0.812604 0.208713 0.818128
0.812604 0.208713 0.818128
0.00331121 0.0382849 0.717006
0.0176242 0.0412146 0.721981
0.675273 0.0669871 0.782071
0.812604 0.208713 0.818128
0.812604 0.208713 0.818128
0.0137789 0.391104 0.809689
0.0132448 0.378927 0.806607
0.566567 0.392294 0.838239
0.849897 0.418326 0.863462
0.84828 0.386252 0.857908
0.0215763 0.705333 0.851179
0.0215915 0.704021 0.851118
0.0217288 0.702571 0.854307
0.916365 0.816953 0.884627
0.924575 0.832349 0.90631
0.0213169 0.730694 0.850523
0.0213169 0.730694 0.850523
0.0213169 0.730694 0.850523
0.623987 0.896849 0.872923
0.931655 0.899565 0.893278
