rally.cube
TITLE "Generated by Resolve"
LUT_3D_SIZE 33
0.04065 0.0462196 0.0537575
0.04065 0.0462196 0.0537575
0.04065 0.0462196 0.0537575
0.0669871 0.0508888 0.0576791
0.10135 0.054902 0.0591592
0.129778 0.0602731 0.060029
0.167315 0.0663157 0.0609598
0.215228 0.0717937 0.0613565
0.283421 0.0781262 0.0623789
0.403876 0.0847944 0.0649271
0.475441 0.0881971 0.0668498
0.536416 0.0891127 0.0688487
0.590448 0.087892 0.0708171
0.635355 0.0860456 0.0724956
0.669703 0.0849622 0.0737163
0.697002 0.0836957 0.0746166
0.718593 0.0830854 0.0753643
0.734478 0.0828717 0.0759442
0.743343 0.0829175 0.0762798
0.748684 0.0829786 0.0765087
0.753307 0.0868391 0.0768139
0.757214 0.0926833 0.0771496
0.759686 0.0986954 0.077409
0.760204 0.100618 0.0774548
0.760204 0.100618 0.0774548
0.760204 0.100618 0.0774548
0.760204 0.100618 0.0774548
0.760204 0.100618 0.0774548
0.760204 0.100618 0.0774548
0.760204 0.100618 0.0774548
0.760204 0.100618 0.0774548
0.760204 0.100618 0.0774548
0.760204 0.100618 0.0774548
0.04065 0.0462196 0.0537575
0.04065 0.0462196 0.0537575
0.04065 0.0462196 0.0537575
0.0564889 0.0511482 0.0555886
0.0920424 0.053315 0.0588388
0.123079 0.0588388 0.0597543
0.159121 0.0650492 0.0607614
0.206668 0.0708019 0.0613413
0.265324 0.0770123 0.062089
0.394278 0.0842603 0.0646525
0.467857 0.0878767 0.0666361
0.530434 0.089128 0.0686198
0.585977 0.0880293 0.0706493
0.63212 0.086183 0.0723735
0.66772 0.085008 0.07364
0.695155 0.0838178 0.0745556
0.717357 0.0830549 0.0753185
0.733898 0.0828412 0.0759136
0.743038 0.0829633 0.0762798
0.748501 0.0829786 0.0764935
0.753079 0.0865492 0.0767834
0.757122 0.0925002 0.0771496
0.759625 0.0984512 0.0773938
0.760204 0.100618 0.0774548
0.760204 0.100618 0.0774548
0.760204 0.100618 0.0774548
0.760204 0.100618 0.0774548
0.760204 0.100618 0.0774548
0.760204 0.100618 0.0774548
0.760204 0.100618 0.0774548
0.760204 0.100618 0.0774548
0.760204 0.100618 0.0774548
0.760204 0.100618 0.0774548
0.04065 0.0462196 0.0537575
0.04065 0.0462196 0.0537575
0.04065 0.0462196 0.0537575
0.0484016 0.0514076 0.0546731
0.0818647 0.0520027 0.0584573
0.116106 0.0576181 0.0595865
0.150744 0.063798 0.0606241
0.197833 0.0698405 0.0612802
0.251942 0.0760204 0.0618448
0.381781 0.0835584 0.064332
0.459937 0.0875257 0.0664225
0.525063 0.089128 0.0684062
0.581811 0.0881514 0.0704814
0.628824 0.0863355 0.0722515
0.665385 0.085069 0.0735485
0.693706 0.0838636 0.0744945
0.716274 0.0831006 0.0752728
0.733196 0.0828565 0.0758984
0.742596 0.082887 0.0762493
0.748287 0.0829328 0.076463
0.752911 0.0863355 0.0767834
0.756909 0.0920424 0.0771191
0.759503 0.098085 0.0773938
0.760204 0.100618 0.0774548
0.760204 0.100618 0.0774548
0.760204 0.100618 0.0774548
0.760204 0.100618 0.0774548
0.760204 0.100618 0.0774548
0.760204 0.100618 0.0774548
0.760204 0.100618 0.0774548
0.760204 0.100618 0.0774548
0.760204 0.100618 0.0774548
0.760204 0.100618 0.0774548
0.0389258 0.0741131 0.0565499
0.0392004 0.0722515 0.0560464
0.0395972 0.0699779 0.0558022
0.0398871 0.0698711 0.055787
0.0655528 0.0723583 0.0583352
0.1028 0.0745708 0.060853
0.133913 0.0777142 0.0615854
0.179736 0.0805524 0.0621653
0.23653 0.0843824 0.0628061
0.35761 0.0859541 0.0642405
0.448829 0.0870527 0.0661173
0.519707 0.089128 0.0682078
0.577249 0.088365 0.0703288
0.625467 0.0864729 0.0721294
0.663111 0.0851759 0.0734722
0.692042 0.0839704 0.0744488
0.715038 0.0832074 0.0752575
0.732555 0.0828565 0.0758679
0.742275 0.0829328 0.0762493
0.748104 0.0829786 0.076463
0.752651 0.0860914 0.0767681
0.75671 0.0916609 0.0771038
0.759365 0.097734 0.0773632
0.760204 0.100618 0.0774548
0.760204 0.100618 0.0774548
0.760204 0.100618 0.0774548
0.760204 0.100618 0.0774548
0.760204 0.100618 0.0774548
0.760204 0.100618 0.0774548
0.760204 0.100618 0.0774548
0.760204 0.100618 0.0774548
0.760204 0.100618 0.0774548
0.760204 0.100618 0.0774548
0.0366979 0.105989 0.060029
0.0368963 0.104601 0.0596933
0.0371099 0.102998 0.0593118
0.0372778 0.101808 0.0590219
0.0498054 0.102724 0.0591745
0.0930495 0.104662 0.0652934
0.128283 0.107683 0.0657206
0.165072 0.110872 0.0661479
0.210056 0.112749 0.0662699
0.276799 0.113939 0.066041
0.406043 0.108659 0.0667277
0.489387 0.10309 0.0683452
0.557549 0.0953384 0.0700236
0.613184 0.0869612 0.0716411
0.657618 0.0853132 0.0732738
0.690333 0.0840162 0.0743877
0.71368 0.0831922 0.0752117
0.731762 0.0828717 0.0758373
0.741909 0.0829328 0.0762493
0.747799 0.0829328 0.0764477
0.752483 0.0859083 0.0767529
0.756512 0.0912642 0.0770886
0.759289 0.0974899 0.0773632
0.760204 0.100618 0.0774548
0.760204 0.100618 0.0774548
0.760204 0.100618 0.0774548
0.760204 0.100618 0.0774548
0.760204 0.100618 0.0774548
0.760204 0.100618 0.0774548
0.760204 0.100618 0.0774548
0.760204 0.100618 0.0774548
0.760204 0.100618 0.0774548
0.760204 0.100618 0.0774548
0.0304723 0.133257 0.0660563
0.0310521 0.132113 0.0658274
0.0318761 0.130663 0.065507
0.0321813 0.129274 0.0652171
0.0333715 0.129274 0.0652171
0.0725109 0.132158 0.0660563
0.116915 0.135073 0.0704356
0.152667 0.139315 0.0708324
0.197665 0.142885 0.071046
0.250813 0.145678 0.0708934
0.367529 0.145068 0.0698558
0.44477 0.143069 0.0701915
0.514122 0.139635 0.0708324
0.578378 0.130022 0.07187
0.635477 0.115511 0.0732738
0.677409 0.102327 0.0746166
0.706523 0.0914931 0.0752575
0.72752 0.0835126 0.0757
0.740856 0.0829023 0.0761883
0.747463 0.0829023 0.0764324
0.752178 0.0855573 0.0767224
0.756283 0.0908827 0.0770581
0.759228 0.0972915 0.0773632
0.760204 0.100618 0.0774548
0.760204 0.100618 0.0774548
0.760204 0.100618 0.0774548
0.760204 0.100618 0.0774548
0.760204 0.100618 0.0774548
0.760204 0.100618 0.0774548
0.760204 0.100618 0.0774548
0.760204 0.100618 0.0774548
0.760204 0.100618 0.0774548
0.760204 0.100618 0.0774548
0.0136568 0.164157 0.0721904
0.0144808 0.162753 0.0719158
0.0154116 0.161181 0.0716259
0.0161746 0.159884 0.0713817
0.0162356 0.159716 0.0713359
0.0444953 0.15993 0.0705425
0.102205 0.162615 0.0746929
0.140551 0.167788 0.0751965
0.182788 0.172091 0.0754253
0.237461 0.175525 0.075349
0.339757 0.175906 0.0740978
0.432502 0.17464 0.0737163
0.501671 0.173709 0.0739757
0.55996 0.170581 0.0743114
0.608896 0.164523 0.074815
0.652186 0.157336 0.0754406
0.689082 0.148989 0.0760967
0.71989 0.13872 0.076585
0.74197 0.125475 0.0768139
0.751873 0.115892 0.0771038
0.756848 0.108949 0.0774243
0.75877 0.101701 0.0774395
0.759121 0.0970321 0.077348
0.760204 0.100618 0.0774548
0.760204 0.100618 0.0774548
0.760204 0.100618 0.0774548
0.760204 0.100618 0.0774548
0.760204 0.100618 0.0774548
0.760204 0.100618 0.0774548
0.760204 0.100618 0.0774548
0.760204 0.100618 0.0774548
0.760204 0.100618 0.0774548
0.760204 0.100618 0.0774548
0 0.196155 0.077821
0 0.194934 0.0776226
0 0.193729 0.0774243
0 0.192813 0.0772717
0 0.191791 0.0771191
0.00341802 0.191363 0.0768444
0.0769513 0.195071 0.076585
0.12781 0.199573 0.079408
0.170153 0.205158 0.0796979
0.224506 0.209751 0.0796674
0.307027 0.211429 0.078584
0.420447 0.208042 0.0771954
0.493019 0.208103 0.0772259
0.55491 0.2056 0.0773022
0.606104 0.200839 0.0775921
0.649699 0.194827 0.0779431
0.684352 0.188968 0.0783246
0.710887 0.183688 0.0787213
0.733303 0.178195 0.0790417
0.752605 0.172366 0.0792554
0.765301 0.167651 0.079408
0.771282 0.1626 0.0793164
0.772488 0.152758 0.0788586
0.770474 0.141146 0.0783398
0.766476 0.127108 0.0777295
0.763546 0.114824 0.0775616
0.76083 0.103105 0.0775311
0.760204 0.100618 0.0774548
0.760204 0.100618 0.0774548
0.760204 0.100618 0.0774548
0.760204 0.100618 0.0774548
0.760204 0.100618 0.0774548
0.760204 0.100618 0.0774548
0 0.228779 0.0829633
0 0.227893 0.082826
0 0.226871 0.0826581
0 0.225849 0.0825208
0 0.224628 0.0823072
0 0.224338 0.0822614
0.0224002 0.226352 0.0809339
0.106645 0.23125 0.0838941
0.154833 0.238041 0.0841535
0.208591 0.244358 0.0840925
0.275151 0.249744 0.0834516
0.407233 0.24686 0.0806744
0.483131 0.246952 0.0803388
0.550729 0.245319 0.0801556
0.604883 0.241382 0.0802625
0.650248 0.236133 0.0805219
0.687144 0.230594 0.0807965
0.71606 0.225727 0.0811017
0.739223 0.221561 0.0814679
0.757687 0.217197 0.0817731
0.771572 0.213596 0.0819715
0.780148 0.210956 0.0820783
0.784909 0.20763 0.0820783
0.787137 0.202655 0.0818952
0.784741 0.192386 0.0813306
0.782422 0.182589 0.080766
0.779904 0.17319 0.0801556
0.776455 0.161639 0.0794385
0.773114 0.150301 0.0787823
0.770291 0.140459 0.0783093
0.767834 0.131899 0.0779278
0.765942 0.1252 0.0776837
0.764477 0.119371 0.0775464
0 0.261448 0.0880598
0 0.260609 0.0879377
0 0.25977 0.0878004
0 0.259052 0.0876936
0 0.258228 0.0875563
0 0.257069 0.0873732
0 0.257481 0.0872663
0.0575723 0.262638 0.0854658
0.135821 0.270253 0.0887617
0.189532 0.277836 0.0886549
0.254719 0.284443 0.0880903
0.376608 0.287007 0.0849928
0.471824 0.28719 0.0836194
0.54435 0.287175 0.0831922
0.604105 0.284764 0.0829175
0.652583 0.280873 0.0830396
0.69221 0.276829 0.0831464
0.723384 0.273075 0.08336
0.747692 0.269276 0.0836652
0.767468 0.265965 0.0839551
0.782666 0.262684 0.084123
0.793133 0.261173 0.0843366
0.798703 0.25922 0.0843824
0.801938 0.256916 0.0844129
0.799664 0.248676 0.0840925
0.797086 0.23975 0.0837415
0.794797 0.231418 0.0834058
0.792569 0.223423 0.0830701
0.790646 0.216449 0.0826734
0.788952 0.210071 0.0823224
0.787427 0.204181 0.0819715
0.786267 0.199084 0.0817121
0.785077 0.194202 0.0814221
0 0.289143 0.0918135
0 0.288426 0.091722
0 0.287816 0.0916457
0 0.287236 0.0915694
0 0.286732 0.0915084
0 0.286 0.0914015
0 0.284962 0.091249
0.0306096 0.291264 0.0897383
0.122667 0.299641 0.0926528
0.181964 0.30988 0.0926223
0.246509 0.318853 0.0921798
0.339544 0.326375 0.090135
0.463188 0.326574 0.0870832
0.539864 0.328756 0.0863508
0.602594 0.328054 0.085832
0.653849 0.325628 0.0856641
0.69662 0.322286 0.0855421
0.729824 0.319509 0.0856489
0.75584 0.316732 0.0858167
0.776593 0.313924 0.0860914
0.793744 0.311803 0.0863355
0.805951 0.310292 0.0864729
0.813458 0.309712 0.0865644
0.817899 0.309163 0.0866407
0.816175 0.30251 0.0863508
0.814054 0.295583 0.0860304
0.81178 0.288624 0.0857099
0.809857 0.28249 0.0854963
0.807843 0.276356 0.0852064
0.806409 0.271458 0.0849928
0.804639 0.265904 0.0847944
0.803693 0.262364 0.0846571
0.802182 0.257664 0.0844434
0 0.325124 0.0968185
0 0.324453 0.0967117
0 0.323964 0.0966506
0 0.323308 0.0965591
0 0.322286 0.0964065
0 0.321355 0.0962692
0 0.320073 0.0961013
0.00149538 0.322133 0.0958114
0.0763409 0.330938 0.0964218
0.161975 0.342611 0.0966201
0.235172 0.353277 0.0959487
0.31249 0.362951 0.0944533
0.465171 0.365179 0.0899672
0.548714 0.366857 0.088777
0.615839 0.366918 0.0880598
0.669413 0.365103 0.0876936
0.712688 0.362844 0.0875257
0.7467 0.361151 0.0875715
0.772671 0.359701 0.0877089
0.793256 0.358572 0.0879377
0.809873 0.357534 0.0881361
0.82211 0.357519 0.088304
0.83003 0.35903 0.0884718
0.834913 0.360021 0.0885939
0.834211 0.355947 0.0884565
0.831754 0.349676 0.0882124
0.82977 0.344076 0.088014
0.827863 0.338598 0.0877852
0.826093 0.333471 0.087602
0.824537 0.328786 0.0874189
0.823301 0.32491 0.0872816
0.822019 0.321065 0.087129
0.821057 0.318013 0.0870222
0 0.366018 0.102693
0 0.365377 0.102602
0 0.364599 0.102495
0 0.364096 0.102419
0 0.363455 0.102327
0 0.362356 0.102174
0 0.361059 0.101961
0 0.35993 0.101823
0.010132 0.366659 0.100572
0.10573 0.377829 0.101472
0.194736 0.39118 0.100725
0.279774 0.403372 0.0991836
0.415274 0.411826 0.094377
0.533013 0.413504 0.0913558
0.611246 0.415091 0.090074
0.671565 0.414023 0.0893263
0.719539 0.411673 0.0888838
0.757229 0.409918 0.088716
0.785672 0.408698 0.0887922
0.807996 0.407919 0.0889143
0.825986 0.407584 0.0890974
0.839292 0.408759 0.0892958
0.847227 0.410101 0.0894026
0.852338 0.412146 0.0894789
0.852918 0.409323 0.0895247
0.850919 0.403037 0.0894026
0.849287 0.398184 0.0893263
0.847532 0.393088 0.0892348
0.845975 0.388663 0.0891432
0.844434 0.384482 0.0890822
0.843198 0.380941 0.0890059
0.842191 0.378027 0.0889601
0.841199 0.375311 0.0889143
0 0.407004 0.108705
0 0.406424 0.108614
0 0.405875 0.108537
0 0.405173 0.108431
0 0.404761 0.108385
0 0.403967 0.108248
0 0.402869 0.10808
0 0.401633 0.107912
0 0.40116 0.107851
0.0200656 0.412406 0.105577
0.138933 0.42739 0.105837
0.23714 0.442481 0.10428
0.34287 0.457954 0.100954
0.507118 0.463966 0.0942245
0.597604 0.468528 0.0916762
0.666392 0.469352 0.0901045
0.71957 0.46804 0.0892348
0.761334 0.466865 0.0887312
0.793317 0.466346 0.0885176
0.81828 0.466346 0.0884718
0.838193 0.4663 0.0885176
0.853208 0.466896 0.0886854
0.863066 0.469352 0.0887312
0.868788 0.471199 0.0887617
0.870924 0.470649 0.0888075
0.869123 0.464714 0.0889754
0.867933 0.460151 0.0890516
0.866285 0.45481 0.0890974
0.864973 0.450233 0.089128
0.863935 0.446632 0.089189
0.862684 0.442481 0.0892195
0.861753 0.439292 0.0892348
0.860929 0.436637 0.0892653
0 0.445563 0.114229
0 0.444999 0.114137
0 0.444648 0.114107
0 0.444007 0.114
0 0.443381 0.113893
0 0.442878 0.113848
0 0.441993 0.11371
0 0.441382 0.113634
0 0.440375 0.113497
0 0.442954 0.113466
0.0318151 0.4589 0.11017
0.180117 0.477958 0.109377
0.288777 0.495705 0.106859
0.465263 0.512001 0.0982834
0.576089 0.520409 0.0936904
0.656153 0.524544 0.0907301
0.717281 0.525658 0.0889143
0.763745 0.525658 0.0878157
0.799771 0.525628 0.0872053
0.827115 0.525902 0.0868696
0.84828 0.526009 0.0868238
0.865431 0.526864 0.0868391
0.877684 0.528832 0.0868086
0.884688 0.530739 0.0867628
0.888792 0.53257 0.0867475
0.887404 0.527626 0.0869764
0.885939 0.522683 0.0872053
0.885039 0.519249 0.0873732
0.883848 0.515038 0.0875105
0.882628 0.511131 0.0876478
0.881666 0.507698 0.0877394
0.881056 0.505348 0.0878004
0.88043 0.503166 0.0878614
0 0.482658 0.119188
0 0.482444 0.119173
0 0.48217 0.119142
0 0.481956 0.119127
0 0.481483 0.119066
0 0.480903 0.118959
0 0.480095 0.118853
0 0.479088 0.11873
0 0.478096 0.118608
0 0.476951 0.118471
0.00943008 0.485771 0.118074
0.0910964 0.506218 0.114
0.233997 0.527672 0.11136
0.384207 0.550134 0.105226
0.543389 0.565103 0.0965896
0.639994 0.574594 0.0916304
0.708431 0.577951 0.0885481
0.761151 0.579217 0.0865187
0.801709 0.579965 0.0852827
0.831876 0.580743 0.0846265
0.855802 0.581628 0.0843061
0.874876 0.582025 0.0841688
0.889189 0.583444 0.0840314
0.897642 0.584756 0.0839399
0.903136 0.586999 0.0838026
0.902937 0.584176 0.0840162
0.902007 0.58056 0.0842298
0.901244 0.577401 0.0844434
0.900389 0.574243 0.0846418
0.899748 0.571786 0.0847791
0.898955 0.568872 0.084947
0.898161 0.566217 0.085069
0.897536 0.564034 0.0851911
0 0.518608 0.123873
0 0.518166 0.123812
0 0.517723 0.123735
0 0.517372 0.123705
0 0.516899 0.123644
0 0.516335 0.123552
0 0.515846 0.123507
0 0.51516 0.12343
0 0.51429 0.123308
0 0.513008 0.123125
0 0.512581 0.123079
0.0254673 0.529763 0.120455
0.164034 0.554208 0.115145
0.300908 0.577935 0.11136
0.50544 0.603571 0.0994888
0.612375 0.616571 0.09308
0.695033 0.623835 0.087953
0.754314 0.626932 0.0847334
0.799588 0.628199 0.0828565
0.8336 0.629236 0.0816663
0.859632 0.63003 0.0810254
0.879713 0.630457 0.0806897
0.895796 0.631251 0.0805371
0.906889 0.632761 0.080354
0.913542 0.634333 0.0801556
0.915297 0.633524 0.0802472
0.914641 0.630549 0.0805524
0.914 0.627909 0.0808118
0.91342 0.625437 0.081117
0.912795 0.622889 0.0813916
0.912261 0.620584 0.0816358
0.911833 0.618845 0.0818036
0.911452 0.617182 0.0819257
0 0.550546 0.12813
0 0.550164 0.128069
0 0.549966 0.128054
0 0.549615 0.128008
0 0.549249 0.127962
0 0.54873 0.127886
0 0.548241 0.127825
0 0.54786 0.127794
0 0.546944 0.127642
0 0.546151 0.12755
0 0.544945 0.127367
0.00289921 0.54902 0.127535
0.0712444 0.57528 0.119921
0.242359 0.602014 0.115312
0.43357 0.633539 0.105089
0.579263 0.651911 0.0949569
0.674327 0.663279 0.0877546
0.743114 0.668421 0.0826276
0.794003 0.670985 0.0797436
0.831907 0.672023 0.0779583
0.860044 0.673381 0.0768597
0.88191 0.673762 0.0763256
0.89984 0.674342 0.0758984
0.913161 0.675578 0.075639
0.921263 0.677058 0.075349
0.92517 0.677531 0.0753185
0.924758 0.675288 0.075639
0.924224 0.673014 0.0759442
0.92372 0.67071 0.0762493
0.9234 0.669017 0.0764782
0.923018 0.667247 0.0767071
0.922744 0.665812 0.0769055
0.922438 0.664515 0.0770428
0 0.577783 0.131624
0 0.577462 0.131579
0 0.577249 0.131563
0 0.576959 0.131518
0 0.576654 0.131487
0 0.576272 0.131441
0 0.57586 0.13138
0 0.57554 0.131365
0 0.574975 0.131289
0 0.574365 0.131197
0 0.573587 0.13109
0 0.572671 0.130999
0.0217136 0.589212 0.127474
0.167987 0.619318 0.119448
0.328313 0.647944 0.113634
0.540673 0.680095 0.0982223
0.648463 0.695186 0.0890822
0.726802 0.703624 0.0817273
0.784573 0.707301 0.0772869
0.826612 0.709529 0.0745251
0.858274 0.710994 0.0727092
0.882704 0.712047 0.0715648
0.90135 0.712474 0.0710155
0.916259 0.713069 0.0707408
0.926314 0.714168 0.0704509
0.932616 0.715145 0.0703288
0.932921 0.713848 0.0704967
0.932631 0.7122 0.0707408
0.932418 0.710857 0.0709087
0.932006 0.708995 0.0711528
0.93167 0.707591 0.0713512
0.931411 0.706523 0.0714733
0.931136 0.705333 0.0716411
0 0.60058 0.134356
0 0.600336 0.134325
0 0.600107 0.134295
0 0.599954 0.134279
0 0.599786 0.134279
0 0.599512 0.134218
0 0.599207 0.134173
0 0.598901 0.134142
0 0.598566 0.134112
0 0.59794 0.134035
0 0.597436 0.133989
0 0.596735 0.133913
0 0.597299 0.133944
0.0742504 0.629175 0.124453
0.268574 0.659617 0.118425
0.484245 0.697978 0.104036
0.616632 0.718914 0.092607
0.706844 0.73109 0.0830854
0.771282 0.737301 0.0766308
0.819394 0.739895 0.072755
0.85449 0.741497 0.0700694
0.880522 0.742519 0.068101
0.900771 0.743191 0.0671855
0.917144 0.743801 0.0666056
0.929137 0.744701 0.0662242
0.936522 0.745388 0.0660868
0.939315 0.745373 0.0660563
0.938857 0.743679 0.0662852
0.938582 0.742382 0.0664683
0.93843 0.741299 0.0666056
0.938231 0.74023 0.0667582
0.938003 0.739147 0.0669261
0.937896 0.73846 0.0670024
0 0.619928 0.136706
0 0.619806 0.136706
0 0.619593 0.13666
0 0.619425 0.136614
0 0.619318 0.136614
0 0.619058 0.136568
0 0.618845 0.136553
0 0.618601 0.136522
0 0.618235 0.136477
0 0.617838 0.136416
0 0.617411 0.13637
0 0.616907 0.136309
0 0.61619 0.136202
0.0225376 0.633082 0.131518
0.202808 0.666972 0.122606
0.379873 0.70103 0.113741
0.576989 0.734585 0.0972915
0.682445 0.750698 0.0864118
0.754482 0.758694 0.0783551
0.807919 0.762829 0.0731823
0.847639 0.764981 0.0695354
0.876249 0.766323 0.0669566
0.898177 0.767163 0.0654307
0.916075 0.768109 0.0643168
0.929076 0.768277 0.0640421
0.938247 0.769207 0.0637675
0.943511 0.76965 0.0635843
0.94342 0.768765 0.0636454
0.943221 0.767742 0.0637369
0.943023 0.766705 0.063859
0.942992 0.76611 0.0639048
0.942885 0.765423 0.0639658
0.942824 0.764782 0.0640116
0 0.636225 0.138857
0 0.636133 0.138857
0 0.636011 0.138842
0 0.635828 0.138796
0 0.635645 0.13875
0 0.635447 0.138705
0 0.635279 0.138689
0 0.635035 0.138659
0 0.634821 0.138628
0 0.634531 0.138582
0 0.634195 0.138552
0 0.633814 0.138506
0 0.633326 0.138445
0.00218204 0.634043 0.138293
0.10428 0.670039 0.126726
0.309514 0.70341 0.119982
0.533013 0.7449 0.102541
0.651987 0.764431 0.090898
0.736141 0.775814 0.0809491
0.794644 0.78114 0.0746014
0.838178 0.784314 0.0701305
0.870619 0.786114 0.0668345
0.894652 0.787259 0.0647593
0.913314 0.787915 0.0633555
0.92813 0.788449 0.0625925
0.938598 0.788983 0.0623484
0.945312 0.78967 0.0621195
0.947005 0.78941 0.0620737
0.946853 0.788495 0.0621195
0.946746 0.787823 0.0621653
0.946624 0.787182 0.0621805
0.946502 0.786526 0.0622263
0.946456 0.78613 0.0622416
0.00325017 0.648569 0.140536
0.00320439 0.648493 0.140536
0.00315862 0.648386 0.14052
0.00314336 0.648356 0.14052
0.0031281 0.64831 0.14052
0.00309758 0.648173 0.14049
0.0030518 0.648066 0.14049
0.00296025 0.647913 0.140475
0.00282292 0.647639 0.140444
0.00265507 0.647349 0.140444
0.00260929 0.647013 0.140383
0.00238041 0.646601 0.140322
0.00215152 0.646189 0.140291
0.00195315 0.645762 0.140261
0.0307622 0.66743 0.132738
0.257359 0.704692 0.124163
0.449897 0.745327 0.111666
0.618036 0.774273 0.0960403
0.713191 0.788785 0.0848554
0.780056 0.796277 0.0766003
0.828031 0.799878 0.0714733
0.863355 0.802167 0.0677195
0.889479 0.803342 0.0647593
0.909316 0.804013 0.0632792
0.925566 0.804654 0.0621958
0.937148 0.8047 0.0617227
0.945296 0.805524 0.0613718
0.949355 0.805753 0.0612039
0.949325 0.805173 0.0612345
0.949233 0.804547 0.061265
0.949157 0.803998 0.0612955
0.949096 0.803479 0.0613107
0.948989 0.80293 0.0613565
0.00833143 0.657603 0.140978
0.00828565 0.657542 0.140978
0.00825513 0.657481 0.140978
0.00822461 0.657389 0.140963
0.00819409 0.657343 0.140948
0.00814832 0.657298 0.140963
0.00808728 0.65713 0.140932
0.0080415 0.657053 0.140948
0.00799573 0.656931 0.140917
0.00787366 0.656809 0.140963
0.00770581 0.656596 0.140963
0.0075227 0.656291 0.140932
0.00738537 0.656062 0.140932
0.00721752 0.655772 0.140948
0.0125734 0.659419 0.139544
0.198856 0.700999 0.127642
0.369574 0.736599 0.119326
0.580591 0.779324 0.101213
0.690227 0.798032 0.0895857
0.763745 0.807507 0.0803388
0.817151 0.812345 0.0740978
0.85539 0.814908 0.0697795
0.882826 0.81648 0.0666056
0.905013 0.817655 0.0642405
0.922164 0.818235 0.0629435
0.935134 0.818418 0.06215
0.944686 0.818998 0.0616922
0.950439 0.819471 0.0614176
0.951385 0.81912 0.0613413
0.951385 0.818677 0.0612802
0.951354 0.818235 0.0612497
0.951293 0.817777 0.0612039
0.951186 0.817365 0.0611887
0.0129397 0.663874 0.140169
0.0128786 0.663798 0.140169
0.0128176 0.663737 0.140169
0.0127718 0.663661 0.140185
0.0127108 0.6636 0.1402
0.0126345 0.663523 0.140261
0.0125734 0.663478 0.140261
0.0125429 0.663417 0.140276
0.0125277 0.66334 0.140261
0.0126345 0.663401 0.14023
0.0124819 0.663203 0.140261
0.0122835 0.662989 0.140276
0.0120699 0.662715 0.140368
0.0118105 0.662425 0.140414
0.0115663 0.66215 0.140475
0.10309 0.691325 0.130282
0.329809 0.731304 0.122637
0.535454 0.777813 0.106889
0.664881 0.802029 0.0938125
0.747326 0.814694 0.083711
0.8047 0.82089 0.0767071
0.846738 0.824384 0.0719921
0.877913 0.826886 0.0684825
0.900969 0.828214 0.06598
0.918593 0.828885 0.0644694
0.932906 0.829343 0.0634165
0.943252 0.829587 0.0629282
0.950179 0.830121 0.0625467
0.953201 0.83032 0.0623941
0.953124 0.829847 0.0623484
0.953094 0.829511 0.0623178
0.953063 0.82919 0.0622873
0.952987 0.828855 0.0622568
0.0148165 0.665888 0.139452
0.0147555 0.665827 0.139483
0.0147097 0.665782 0.139483
0.0146792 0.665721 0.139498
0.0147402 0.665827 0.139483
0.0147707 0.665873 0.139467
0.0148318 0.665888 0.139452
0.0148318 0.665888 0.139452
0.0148318 0.665888 0.139452
0.0148318 0.665888 0.139452
0.0148318 0.665888 0.139452
0.0148318 0.665888 0.139452
0.0148318 0.665888 0.139452
0.0148318 0.665888 0.139452
0.0148318 0.665888 0.139452
0.0294041 0.677684 0.135058
0.286625 0.722728 0.125429
0.456809 0.764294 0.114168
0.638727 0.801862 0.0977035
0.731258 0.818235 0.0871138
0.794568 0.826352 0.0791943
0.839887 0.830854 0.0738079
0.872786 0.833616 0.0700236
0.897093 0.835431 0.0673228
0.915221 0.836301 0.0657664
0.930694 0.837034 0.0645151
0.942245 0.837446 0.0637827
0.949844 0.837827 0.0633097
0.954604 0.83827 0.063035
0.955032 0.837964 0.062974
0.95491 0.837705 0.0629587
0.954849 0.837446 0.0629282
0.954849 0.837324 0.0629282
0.0148318 0.665888 0.139452
0.014786 0.665873 0.139467
0.0147402 0.665827 0.139483
0.0146944 0.665766 0.139483
0.0146944 0.665766 0.139483
0.0147402 0.665827 0.139483
0.0148013 0.665873 0.139467
0.0148318 0.665888 0.139452
0.0148318 0.665888 0.139452
0.0148318 0.665888 0.139452
0.0148318 0.665888 0.139452
0.0148318 0.665888 0.139452
0.0148318 0.665888 0.139452
0.0148318 0.665888 0.139452
0.0148318 0.665888 0.139452
0.0148318 0.665888 0.139452
0.219654 0.709285 0.127962
0.39324 0.748653 0.118898
0.604486 0.795224 0.101183
0.708919 0.814725 0.0898604
0.780118 0.825422 0.081178
0.829831 0.83093 0.0751965
0.866102 0.834638 0.0712291
0.891844 0.837003 0.0683604
0.911345 0.838483 0.0665141
0.927535 0.839826 0.0652018
0.940047 0.840543 0.0643626
0.948898 0.841337 0.0639048
0.954345 0.841825 0.0635996
0.956298 0.842115 0.0635386
0.956298 0.842115 0.0635386
0.956298 0.842115 0.0635386
0.956298 0.842115 0.0635386
0.0148318 0.665888 0.139452
0.0148318 0.665888 0.139452
0.0148318 0.665888 0.139452
0.0148165 0.665888 0.139452
0.0148165 0.665888 0.139452
0.0148165 0.665888 0.139452
0.0148318 0.665888 0.139452
0.0148318 0.665888 0.139452
