rally.cube
TITLE "Generated by Resolve"
LUT_3D_SIZE 9
0.04065 0.0462196 0.0537575
0.10135 0.054902 0.0591592
0.283421 0.0781262 0.0623789
0.590448 0.087892 0.0708171
0.718593 0.0830854 0.0753643
0.753307 0.0868391 0.0768139
0.760204 0.100618 0.0774548
0.760204 0.100618 0.0774548
0.760204 0.100618 0.0774548
0.0366979 0.105989 0.060029
0.0498054 0.102724 0.0591745
0.210056 0.112749 0.0662699
0.557549 0.0953384 0.0700236
0.71368 0.0831922 0.0752117
0.752483 0.0859083 0.0767529
0.760204 0.100618 0.0774548
0.760204 0.100618 0.0774548
0.760204 0.100618 0.0774548
0 0.228779 0.0829633
0 0.224628 0.0823072
0.154833 0.238041 0.0841535
0.483131 0.246952 0.0803388
0.687144 0.230594 0.0807965
0.771572 0.213596 0.0819715
0.784741 0.192386 0.0813306
0.773114 0.150301 0.0787823
0.764477 0.119371 0.0775464
0 0.366018 0.102693
0 0.363455 0.102327
0.010132 0.366659 0.100572
0.415274 0.411826 0.094377
0.719539 0.411673 0.0888838
0.825986 0.407584 0.0890974
0.852918 0.409323 0.0895247
0.845975 0.388663 0.0891432
0.841199 0.375311 0.0889143
0 0.518608 0.123873
0 0.516899 0.123644
0 0.51429 0.123308
0.164034 0.554208 0.115145
0.695033 0.623835 0.087953
0.859632 0.63003 0.0810254
0.913542 0.634333 0.0801556
0.91342 0.625437 0.081117
0.911452 0.617182 0.0819257
0 0.619928 0.136706
0 0.619318 0.136614
0 0.618235 0.136477
0 0.61619 0.136202
0.576989 0.734585 0.0972915
0.847639 0.764981 0.0695354
0.929076 0.768277 0.0640421
0.943221 0.767742 0.0637369
0.942824 0.764782 0.0640116
0.0129397 0.663874 0.140169
0.0127108 0.6636 0.1402
0.0125277 0.66334 0.140261
0.0120699 0.662715 0.140368
0.329809 0.731304 0.122637
0.8047 0.82089 0.0767071
0.918593 0.828885 0.0644694
0.953201 0.83032 0.0623941
0.952987 0.828855 0.0622568
0.0148318 0.665888 0.139452
0.0148318 0.665888 0.139452
0.0148318 0.665888 0.139452
0.0148318 0.665888 0.139452
0.0326848 0.68014 0.134203
0.747646 0.820798 0.0851911
0.901915 0.837812 0.0673533
0.950851 0.841505 0.0637827
0.956298 0.842115 0.0635386
0.0148318 0.665888 0.139452
0.0146639 0.665721 0.139498
0.0147555 0.665827 0.139483
0.0148318 0.665888 0.139452
0.0148318 0.665888 0.139452
0.691341 0.811688 0.0920119
0.885618 0.836316 0.0690166
0.943496 0.840787 0.0641794
0.956298 0.842115 0.0635386
0.0387274 0.0483253 0.0927596
0.0944686 0.0556039 0.0970626
0.244114 0.0744793 0.0982681
0.57023 0.0886244 0.0700847
0.716136 0.0830701 0.0752728
0.753185 0.0866865 0.0767987
0.760204 0.100618 0.0774548
0.760204 0.100618 0.0774548
0.760204 0.100618 0.0774548
0.0368048 0.0871595 0.0747692
0.0494392 0.0814832 0.0712139
0.222965 0.0905318 0.075761
0.565255 0.0887312 0.0698711
0.713252 0.0832074 0.0751812
0.752346 0.0857557 0.0767376
0.760204 0.100618 0.0774548
0.760204 0.100618 0.0774548
0.760204 0.100618 0.0774548
0 0.216693 0.0810559
0 0.212863 0.0804761
0.152209 0.224826 0.0824598
0.479652 0.231952 0.0791791
0.683391 0.214984 0.0798352
0.767376 0.196277 0.0809949
0.779675 0.172412 0.0801251
0.765576 0.123735 0.0776532
0.760204 0.100618 0.0774548
0 0.357214 0.101427
0 0.35494 0.101091
0.00923171 0.357107 0.099443
0.411002 0.401648 0.093843
0.716121 0.400183 0.0886549
0.822614 0.396277 0.0888991
0.849226 0.39791 0.0893263
0.841993 0.377432 0.0889601
0.836927 0.363363 0.0886854
0 0.513726 0.123232
0 0.512215 0.123018
0 0.509453 0.122683
0.158831 0.548394 0.114946
0.692882 0.617594 0.0883497
0.858198 0.623758 0.0815595
0.912001 0.627832 0.0808423
0.911742 0.618448 0.0818494
0.909789 0.610574 0.0823377
0 0.618006 0.136446
0 0.617365 0.13637
0 0.616159 0.136202
0 0.614206 0.135973
0.574212 0.732097 0.0974136
0.846738 0.762387 0.0697032
0.928634 0.765835 0.0642557
0.94287 0.76527 0.0639811
0.942138 0.761776 0.0643015
0.0126497 0.663386 0.140185
0.0124514 0.663203 0.140261
0.0120699 0.662715 0.140368
0.0115053 0.662013 0.140475
0.324544 0.729702 0.122911
0.803357 0.819684 0.0768139
0.918074 0.827649 0.0643778
0.953033 0.829068 0.0622721
0.952667 0.827619 0.0621653
0.0148318 0.665888 0.139452
0.0147402 0.665827 0.139483
0.0148318 0.665888 0.139452
0.0148318 0.665888 0.139452
0.0311742 0.679118 0.134539
0.746303 0.820584 0.0853285
0.901656 0.837797 0.0673686
0.950683 0.841474 0.063798
0.956298 0.842115 0.0635386
0.0148318 0.665888 0.139452
0.0138094 0.664454 0.139757
0.0145876 0.66566 0.139574
0.0148318 0.665888 0.139452
0.0148318 0.665888 0.139452
0.689708 0.811383 0.092195
0.88513 0.836301 0.0691081
0.943282 0.840772 0.0641794
0.956298 0.842115 0.0635386
0.0271611 0.0510262 0.200137
0.0918746 0.0579843 0.205814
0.238224 0.081651 0.219837
0.55668 0.0894636 0.206287
0.700801 0.0842908 0.188357
0.753109 0.0834363 0.177569
0.759472 0.0836805 0.158206
0.758785 0.0844739 0.144884
0.760204 0.0912642 0.13666
0.0274815 0.0578927 0.188495
0.0445411 0.0522927 0.189242
0.207752 0.0773327 0.205951
0.537041 0.0901503 0.193652
0.694987 0.0846113 0.174411
0.751217 0.0834821 0.159106
0.758572 0.0834821 0.146181
0.760845 0.0942245 0.13341
0.764065 0.107942 0.126421
0 0.209094 0.181216
0 0.204349 0.1785
0.142123 0.215106 0.170352
0.497429 0.213153 0.158114
0.700725 0.1888 0.1299
0.770321 0.171572 0.123888
0.770626 0.134813 0.123644
0.762509 0.105776 0.0986038
0.760906 0.103746 0.0784924
0 0.333562 0.148714
0 0.332982 0.147173
0.00820935 0.349065 0.152178
0.397574 0.389715 0.134249
0.712306 0.385138 0.0991836
0.816663 0.379644 0.0885786
0.842893 0.379965 0.0889906
0.835126 0.358419 0.0885634
0.829831 0.344274 0.088014
0 0.505943 0.122225
0 0.504631 0.122072
0 0.501686 0.121675
0.153094 0.538476 0.114519
0.68867 0.606439 0.0890364
0.855543 0.612497 0.082475
0.909453 0.617227 0.0818799
0.908934 0.607324 0.082536
0.906752 0.598947 0.0830549
0 0.614694 0.136019
0 0.613947 0.135927
0 0.612772 0.135775
0 0.607843 0.135195
0.56669 0.723552 0.097673
0.845197 0.757931 0.0700389
0.927657 0.761517 0.0645609
0.942046 0.7608 0.0643778
0.941421 0.757534 0.064683
0.0115511 0.662104 0.140475
0.0114748 0.661982 0.14049
0.0111391 0.661555 0.140566
0.0105898 0.660777 0.140658
0.315679 0.72697 0.123278
0.801816 0.817975 0.0767224
0.917403 0.825635 0.06421
0.952544 0.826917 0.0621042
0.952392 0.825513 0.0618753
0.0148318 0.665888 0.139452
0.0148318 0.665888 0.139452
0.0148165 0.665888 0.139452
0.0148318 0.665888 0.139452
0.0292821 0.677653 0.135103
0.744457 0.82034 0.0855573
0.901076 0.837766 0.0674296
0.950469 0.841459 0.0638132
0.956298 0.842115 0.0635386
0.0148318 0.665888 0.139452
0.0148318 0.665888 0.139452
0.0147402 0.665827 0.139483
0.0148013 0.665888 0.139452
0.0148318 0.665888 0.139452
0.687053 0.81091 0.0924849
0.884337 0.83621 0.0691539
0.942946 0.840772 0.06421
0.956298 0.842115 0.0635386
0.00172427 0.0237125 0.341939
0.0680858 0.0487526 0.351949
0.238224 0.073106 0.369574
0.546517 0.0817578 0.361898
0.702052 0.0719158 0.359869
0.759106 0.0721752 0.366201
0.769696 0.0820325 0.366796
0.769009 0.0818952 0.354284
0.768612 0.0818952 0.346578
0.00178531 0.0279545 0.332677
0.011841 0.0353094 0.335271
0.206622 0.0696574 0.35729
0.529137 0.0826581 0.352911
0.69688 0.0734875 0.349813
0.757321 0.0718395 0.354299
0.769085 0.0818952 0.355718
0.768414 0.0817121 0.343511
0.767926 0.0816052 0.334874
0.00340276 0.17377 0.355261
0.00323491 0.168322 0.342855
0.114427 0.180056 0.324804
0.469673 0.181277 0.317662
0.681041 0.139788 0.310185
0.755199 0.0793469 0.33225
0.768078 0.0816205 0.337728
0.767285 0.081178 0.325139
0.76672 0.080705 0.31635
0 0.354986 0.33225
0 0.351888 0.330709
0.000213626 0.348547 0.328725
0.369955 0.376379 0.325475
0.699031 0.375448 0.298207
0.816983 0.359289 0.265003
0.841276 0.357778 0.27126
0.832914 0.33228 0.25774
0.827588 0.315709 0.250263
0 0.415045 0.197436
0 0.413657 0.197055
0 0.410971 0.195972
0.0873426 0.552972 0.271595
0.685786 0.60412 0.247318
0.857145 0.608026 0.238972
0.909865 0.611551 0.241001
0.909407 0.600763 0.230426
0.907103 0.591196 0.221378
0 0.611933 0.21207
0 0.611917 0.210361
0 0.611978 0.207645
0 0.6112 0.201572
0.554162 0.722896 0.160296
0.839582 0.747967 0.0856336
0.925536 0.752346 0.0654154
0.940764 0.752117 0.0651865
0.9402 0.748821 0.0655528
0.010071 0.663111 0.155688
0.0101778 0.662181 0.152575
0.0103151 0.660777 0.147494
0.00944533 0.658717 0.140734
0.29836 0.720195 0.123705
0.790127 0.807584 0.0768444
0.915663 0.821439 0.0638743
0.951949 0.82298 0.0616617
0.95172 0.821225 0.0615091
0.0148318 0.665888 0.139452
0.0148318 0.665888 0.139452
0.0148318 0.665888 0.139452
0.0148318 0.665888 0.139452
0.0257572 0.674769 0.13611
0.740795 0.819837 0.0860151
0.900023 0.837674 0.0675059
0.950011 0.841459 0.063859
0.956298 0.842115 0.0635386
0.0148318 0.665888 0.139452
0.0148318 0.665888 0.139452
0.0148318 0.665888 0.139452
0.0147707 0.665873 0.139467
0.0148318 0.665888 0.139452
0.682963 0.810239 0.093019
0.883131 0.836149 0.069337
0.942428 0.840711 0.06421
0.956298 0.842115 0.0635386
0.00224308 0.0138705 0.551247
0.0165866 0.0164797 0.555642
0.2159 0.0149844 0.573266
0.540352 0.0325628 0.572747
0.699763 0.125277 0.570047
0.770596 0.0789502 0.589487
0.783062 0.0886549 0.598444
0.782544 0.0865949 0.589944
0.782254 0.085893 0.58436
0.0021973 0.0135958 0.545007
0.0021973 0.0135805 0.543816
0.179019 0.0137179 0.561852
0.520592 0.0343786 0.564828
0.691875 0.124117 0.560891
0.768399 0.0742504 0.58027
0.782589 0.0870069 0.590539
0.782116 0.0853132 0.582269
0.781857 0.0843977 0.577096
0.002121 0.0263523 0.528389
0.00210575 0.0222324 0.527489
0.114046 0.0326848 0.548012
0.483665 0.0366827 0.552712
0.680583 0.122789 0.547814
0.765011 0.0660563 0.566598
0.781933 0.0844892 0.578988
0.781415 0.082826 0.569909
0.781003 0.0814069 0.563821
0.010071 0.332311 0.649882
0.00991836 0.32871 0.646983
0.00970474 0.323674 0.642573
0.33373 0.350637 0.518181
0.667109 0.354925 0.50515
0.788693 0.322484 0.507225
0.824994 0.306294 0.523812
0.81677 0.273304 0.516152
0.810956 0.249226 0.510887
0 0.52723 0.504616
0 0.525536 0.503334
0 0.522072 0.500908
0 0.523507 0.498604
0.664179 0.583703 0.48983
0.817273 0.565225 0.481697
0.902922 0.592981 0.498207
0.902358 0.582467 0.494545
0.899794 0.571633 0.489067
0 0.543465 0.321569
0 0.541833 0.320119
0 0.539803 0.317769
0 0.535805 0.313527
0.533165 0.741863 0.450965
0.834073 0.761837 0.413031
0.923842 0.766094 0.410559
0.939879 0.765637 0.410208
0.9393 0.760723 0.404242
0 0.591745 0.271077
0 0.591119 0.269917
0 0.590143 0.268101
0 0.58854 0.265034
0.168414 0.763348 0.423056
0.783139 0.831693 0.362448
0.902663 0.828244 0.337163
0.950591 0.836362 0.329015
0.950927 0.834531 0.321324
0 0.629938 0.261067
0 0.630808 0.260822
0 0.63267 0.261082
0 0.636103 0.261784
0 0.653193 0.280339
0.717876 0.839597 0.333669
0.8822 0.848814 0.286595
0.947356 0.855573 0.253788
0.95613 0.855955 0.24715
0 0.651392 0.268482
0 0.653025 0.269612
0 0.655558 0.271336
0 0.660349 0.27451
0 0.667094 0.280888
0.658854 0.827375 0.302113
0.87744 0.848829 0.236393
0.939986 0.848386 0.182773
0.956512 0.849958 0.183825
0.00300603 0.0247196 0.672923
0.00434882 0.0260624 0.680034
0.184665 0.044831 0.704417
0.531838 0.013901 0.71693
0.701076 0.0714885 0.726925
0.78616 0.181094 0.747555
0.804517 0.185901 0.759304
0.803235 0.181109 0.753826
0.801785 0.176822 0.748501
0.00302129 0.0246433 0.675898
0.00302129 0.024567 0.675319
0.141192 0.0724346 0.699702
0.510857 0.0121767 0.712932
0.693889 0.0641642 0.722789
0.783322 0.178897 0.743358
0.803922 0.182895 0.755856
0.803342 0.179965 0.752422
0.802823 0.177676 0.749859
0.00300603 0.0240482 0.671824
0.00299077 0.0239719 0.671214
0.0535134 0.0429389 0.685344
0.468452 0.00921645 0.705501
0.682445 0.0554208 0.716884
0.778286 0.174197 0.73637
0.802548 0.177432 0.749325
0.802045 0.174517 0.746212
0.801892 0.173144 0.744564
0.00755322 0.242756 0.697536
0.00729381 0.23592 0.691417
0.00694286 0.226017 0.683879
0.274372 0.267933 0.702983
0.648463 0.252659 0.70695
0.77525 0.260319 0.72079
0.80679 0.213657 0.731655
0.80032 0.174075 0.730526
0.799878 0.164248 0.733776
0.0179751 0.514382 0.769924
0.0179141 0.511788 0.769802
0.017792 0.50808 0.769421
0.0178378 0.50605 0.77557
0.704082 0.537377 0.700114
0.826795 0.574105 0.730587
0.883131 0.560388 0.73254
0.882033 0.540993 0.72668
0.885618 0.541283 0.744656
0.0108034 0.640528 0.675822
0.0111696 0.645899 0.682322
0.0110933 0.644343 0.680659
0.0109865 0.641688 0.67805
0.0382391 0.673594 0.666453
0.813184 0.750744 0.666712
0.877012 0.710307 0.639765
0.910704 0.716838 0.64828
0.91548 0.719554 0.649332
0 0.666529 0.546532
0 0.668406 0.545327
0 0.667247 0.542596
0 0.665324 0.538949
0 0.604517 0.436667
0.76791 0.842939 0.632929
0.896056 0.844083 0.60412
0.934737 0.834653 0.595773
0.935149 0.832029 0.592126
0 0.640345 0.439231
0 0.652598 0.434653
0 0.651606 0.431342
0 0.649729 0.425986
0 0.647379 0.418204
0.704021 0.86595 0.615137
0.87895 0.879484 0.568017
0.926879 0.872023 0.551583
0.934936 0.865217 0.546181
0 0.638819 0.408545
0 0.641443 0.405356
0 0.642374 0.402197
0 0.640665 0.396994
0 0.638254 0.38909
0.639704 0.855161 0.601007
0.86067 0.875624 0.546822
0.919402 0.872511 0.520882
0.94197 0.873182 0.523278
0.00328069 0.035935 0.713344
0.00328069 0.035996 0.713512
0.155596 0.1234 0.73875
0.517479 0.0362554 0.764904
0.701808 0.0735637 0.77966
0.786801 0.158709 0.79765
0.812909 0.214527 0.814649
0.812802 0.214817 0.814084
0.811841 0.212482 0.812467
0.00328069 0.0356909 0.712963
0.00328069 0.0358434 0.713298
0.083772 0.109239 0.731502
0.492882 0.0343175 0.762127
0.694377 0.0681621 0.778134
0.784024 0.15491 0.79585
0.812985 0.215244 0.814343
0.813001 0.215824 0.813947
0.812222 0.213962 0.812558
0.00328069 0.0352636 0.712306
0.00328069 0.0351873 0.712184
0.0324254 0.0480812 0.720745
0.447715 0.0306096 0.757061
0.681041 0.0584268 0.775265
0.778744 0.148562 0.792798
0.813016 0.216175 0.813733
0.813031 0.21677 0.81323
0.813092 0.217304 0.812985
0.00369268 0.0717479 0.724956
0.00361639 0.0671397 0.723613
0.00350958 0.0596017 0.721508
0.297795 0.123278 0.750713
0.652399 0.05449 0.771252
0.767865 0.137743 0.78732
0.81323 0.218097 0.812665
0.813413 0.219287 0.812329
0.813199 0.219165 0.811582
0.0174868 0.476677 0.82652
0.0173648 0.47393 0.826062
0.0171359 0.468635 0.824887
0.0179294 0.454841 0.816342
0.616053 0.492714 0.840162
0.810651 0.514427 0.853025
0.878202 0.543282 0.865293
0.879164 0.531929 0.8598
0.879286 0.527611 0.863157
0.0209354 0.646677 0.822385
0.0209354 0.64564 0.822034
0.0209201 0.643793 0.821485
0.0209201 0.640162 0.820752
0.0494392 0.662272 0.839109
0.852277 0.725353 0.811994
0.895994 0.749477 0.835981
0.915633 0.73283 0.825574
0.919127 0.736446 0.836316
0.0178531 0.696025 0.778164
0.0184176 0.701167 0.788052
0.0183413 0.700328 0.786679
0.0182345 0.698924 0.78471
0.0177615 0.70013 0.778424
0.541878 0.839811 0.76643
0.88423 0.840513 0.790372
0.90277 0.795666 0.746334
0.914488 0.804898 0.754696
0.0147402 0.722576 0.750118
0.0149386 0.7243 0.752804
0.0147555 0.723995 0.750774
0.0145418 0.723201 0.748318
0.0142519 0.721767 0.744854
0.114244 0.72369 0.570184
0.864958 0.884962 0.769528
0.921843 0.882612 0.752087
0.933242 0.877592 0.743999
0.0104067 0.708568 0.707973
0.0128023 0.720897 0.730816
0.0125429 0.720546 0.728511
0.0119173 0.719753 0.723217
0.0109712 0.718502 0.715572
0.033814 0.675746 0.519753
0.848371 0.889555 0.757412
0.916259 0.893339 0.729061
0.932555 0.885649 0.723415
0.00331121 0.0383459 0.717083
0.00331121 0.0382849 0.717006
0.122133 0.125277 0.739498
0.504173 0.0423285 0.767697
0.69955 0.0788128 0.784817
0.786618 0.156313 0.801968
0.812604 0.208713 0.818128
0.812604 0.208713 0.818128
0.810254 0.202289 0.81532
0.00331121 0.0382849 0.717006
0.00331121 0.0382849 0.717006
0.0524605 0.104921 0.732784
0.478706 0.0413214 0.765393
0.692012 0.0744335 0.783856
0.783963 0.152834 0.80087
0.812604 0.208713 0.818128
0.812604 0.208713 0.818128
0.812436 0.208301 0.817945
0.00331121 0.0383307 0.717067
0.00331121 0.0383001 0.717006
0.0230411 0.0423438 0.723217
0.429862 0.0383307 0.760494
0.678264 0.0678111 0.78233
0.778988 0.147509 0.799207
0.812604 0.208713 0.818128
0.812604 0.208713 0.818128
0.812604 0.208713 0.818128
0.00331121 0.0382849 0.717006
0.00331121 0.0382849 0.717006
0.00331121 0.0382849 0.717006
0.295521 0.137804 0.760296
0.648569 0.057145 0.779461
0.768475 0.137957 0.796216
0.812604 0.208713 0.818128
0.812604 0.208713 0.818128
0.812604 0.208713 0.818128
0.0155795 0.432349 0.819547
0.0154421 0.428824 0.818753
0.015198 0.423285 0.817456
0.0285496 0.403143 0.806912
0.595972 0.434409 0.852125
0.792859 0.447303 0.864012
0.862165 0.471122 0.875868
0.864332 0.459709 0.874495
0.861204 0.444022 0.871336
0.0218814 0.638895 0.850706
0.0218814 0.637995 0.850782
0.0218662 0.63592 0.850706
0.0218357 0.632136 0.850492
0.0749371 0.667231 0.868452
0.85597 0.708156 0.881102
0.901335 0.714717 0.90425
0.914839 0.729229 0.909895
0.914611 0.724788 0.909972
0.0214084 0.70782 0.847547
0.0214084 0.707378 0.847364
0.0213931 0.7066 0.846845
0.0213779 0.705272 0.846204
0.0214542 0.705104 0.848142
0.587961 0.842451 0.879911
0.877714 0.839994 0.881758
0.925704 0.839368 0.884184
0.928328 0.836805 0.883696
0.0206607 0.724056 0.834821
0.0207828 0.725567 0.837674
0.0207675 0.725063 0.837018
0.0207065 0.724056 0.835782
0.0206302 0.722225 0.833616
0.0780499 0.787884 0.833921
0.75964 0.892164 0.854704
0.917617 0.881895 0.860121
0.927184 0.870924 0.84686
0.0206455 0.730617 0.836133
0.0206302 0.730648 0.835721
0.0205997 0.730694 0.835096
0.0205692 0.730785 0.834211
0.0204929 0.730755 0.832593
0.0180209 0.728191 0.790646
0.740215 0.870192 0.797253
0.907668 0.897612 0.848371
0.933257 0.897414 0.842573
0.00331121 0.0382849 0.717006
0.00331121 0.0382849 0.717006
0.0982986 0.12047 0.737453
0.496162 0.0416266 0.766934
0.697368 0.0770275 0.784482
0.785779 0.155093 0.801602
0.812604 0.208713 0.818128
0.812604 0.208713 0.818128
0.812604 0.208713 0.818128
0.00331121 0.0382849 0.717006
0.00331121 0.0382849 0.717006
0.0474403 0.0906386 0.730602
0.470146 0.0408789 0.764538
0.689784 0.0731823 0.783612
0.783123 0.151873 0.800565
0.812604 0.208713 0.818128
0.812604 0.208713 0.818128
0.812604 0.208713 0.818128
0.00331121 0.0382849 0.717006
0.00331121 0.0382849 0.717006
0.0176242 0.0412146 0.721981
0.419806 0.0380255 0.759503
0.675273 0.0669871 0.782071
0.777859 0.146166 0.798779
0.812604 0.208713 0.818128
0.812604 0.208713 0.818128
0.812604 0.208713 0.818128
0.00331121 0.0382849 0.717006
0.00331121 0.0382849 0.717006
0.00331121 0.0382849 0.717006
0.273915 0.141375 0.759075
0.644907 0.0569009 0.779217
0.7673 0.136995 0.795895
0.812375 0.208103 0.817945
0.812604 0.208713 0.818128
0.812604 0.208713 0.818128
0.0137789 0.391104 0.809689
0.0135805 0.386435 0.808499
0.0132448 0.378927 0.806607
0.0234836 0.363119 0.796399
0.566567 0.392294 0.838239
0.775784 0.399313 0.850431
0.849897 0.418326 0.863462
0.85304 0.406348 0.862928
0.84828 0.386252 0.857908
0.0218051 0.626001 0.850431
0.0217899 0.624659 0.850324
0.0217899 0.622812 0.85034
0.0217441 0.618692 0.850126
0.082002 0.654597 0.866102
0.84155 0.693874 0.88455
0.897093 0.699504 0.906035
0.914137 0.709819 0.914015
0.913329 0.70396 0.913832
0.0215763 0.705333 0.851179
0.0215915 0.704845 0.851179
0.0215915 0.704021 0.851118
0.0216068 0.702724 0.851057
0.0217288 0.702571 0.854307
0.592996 0.835935 0.891325
0.916365 0.816953 0.884627
0.922332 0.83238 0.907179
0.924575 0.832349 0.90631
0.0213626 0.726726 0.850538
0.0213626 0.726467 0.850477
0.0213626 0.72607 0.85037
0.0213779 0.725567 0.850446
0.0213931 0.725002 0.850797
0.0844739 0.791104 0.869184
0.824048 0.884794 0.900206
0.913191 0.880034 0.898665
0.928862 0.879469 0.900114
0.0213169 0.730694 0.850523
0.0213169 0.730694 0.850523
0.0213169 0.730694 0.850523
0.0213169 0.730694 0.850523
0.0213169 0.730694 0.850523
0.0212253 0.738445 0.850401
0.623987 0.896849 0.872923
0.879973 0.900862 0.902434
0.931655 0.899565 0.893278
