tlwarm.cube
TITLE "Generated by Resolve"
LUT_3D_SIZE 9
0.0303044 0.0535286 0.071046
0.0186313 0.0235294 0.0378882
0.096025 0.039704 0.0703441
0.269825 0.0305333 0.10016
0.442145 0.0183871 0.106279
0.590356 0.0106813 0.105943
0.726879 0.00428779 0.103838
0.846967 0.000991836 0.102068
0.922438 0 0.101259
0.0382849 0.164462 0.141466
0.0743572 0.118776 0.110887
0.168078 0.127077 0.122301
0.358312 0.110796 0.10634
0.521172 0.10161 0.0982376
0.659541 0.09897 0.0939651
0.782086 0.100649 0.0919509
0.889082 0.106569 0.0928206
0.949371 0.111437 0.0955825
0.00491341 0.304402 0.150469
0.0640879 0.24448 0.13228
0.234684 0.229679 0.155261
0.391562 0.226719 0.101228
0.543114 0.221485 0.0867475
0.675196 0.220478 0.0850843
0.795651 0.222812 0.0866865
0.904295 0.22826 0.0918593
0.958923 0.23238 0.0955367
0 0.433097 0.14197
0.0425574 0.379278 0.110994
0.255085 0.353124 0.122545
0.431952 0.339742 0.114366
0.563836 0.34049 0.0971542
0.681682 0.345251 0.081651
0.802686 0.347372 0.0831617
0.913542 0.351995 0.0888685
0.962112 0.355596 0.092546
0 0.557916 0.135439
0.0491188 0.504707 0.101289
0.252644 0.48365 0.0888533
0.411933 0.475196 0.0815595
0.591363 0.457755 0.105486
0.737499 0.450278 0.127733
0.818418 0.468116 0.0914473
0.918379 0.477226 0.0853437
0.955001 0.480507 0.0879072
0 0.682429 0.129458
0.0567483 0.629496 0.0930953
0.254673 0.610468 0.0792859
0.413489 0.602106 0.073167
0.554772 0.598596 0.0700389
0.718608 0.585824 0.0931563
0.887907 0.568414 0.145586
0.980789 0.579187 0.142123
0.993378 0.585443 0.136339
0 0.804837 0.128252
0.0654307 0.754025 0.087541
0.255741 0.737209 0.0714885
0.413169 0.729381 0.0650339
0.553414 0.726146 0.0627909
0.682795 0.725917 0.063798
0.823926 0.720272 0.081178
0.992996 0.698695 0.144732
1 0.698268 0.153826
0 0.926146 0.130449
0.0782025 0.876539 0.0884718
0.259876 0.862699 0.0696422
0.413382 0.856016 0.061799
0.55198 0.853391 0.0597238
0.680293 0.853269 0.0617533
0.800275 0.855085 0.0674296
0.920913 0.856245 0.0800031
0.934951 0.857725 0.082887
0 1 0.130159
0.0917525 0.991104 0.0913405
0.268025 0.984207 0.0738689
0.417014 0.980835 0.0654154
0.552819 0.979278 0.0627146
0.678935 0.979995 0.0644999
0.797803 0.980865 0.0694438
0.907149 0.983139 0.0766155
0.916381 0.984558 0.0778058
0.0234379 0.0604105 0.113878
0.0209201 0.0291447 0.0689555
0.106203 0.0416724 0.0955978
0.277012 0.0314336 0.137881
0.45005 0.0182498 0.150652
0.598199 0.0102693 0.154208
0.734722 0.00378424 0.156451
0.854734 0.000564584 0.159152
0.929244 0.00062562 0.161776
0.0192111 0.174441 0.199908
0.0665141 0.127306 0.151263
0.169879 0.133455 0.152819
0.355413 0.114977 0.166262
0.525673 0.10312 0.162829
0.663676 0.100557 0.161212
0.786603 0.102327 0.161639
0.894606 0.107942 0.164996
0.954437 0.112902 0.168154
0.00311284 0.307942 0.224506
0.0661021 0.248173 0.192432
0.235721 0.233722 0.21445
0.377417 0.233158 0.181292
0.544854 0.223529 0.161456
0.677791 0.222644 0.159518
0.799756 0.224338 0.160388
0.910216 0.229374 0.164401
0.964538 0.233524 0.16791
0 0.434897 0.218921
0.0489204 0.379965 0.186145
0.27126 0.349081 0.21474
0.419608 0.344228 0.205341
0.553048 0.347555 0.159014
0.684016 0.34725 0.155001
0.806271 0.349035 0.155749
0.919036 0.353262 0.159945
0.967071 0.356664 0.163348
0 0.55967 0.210651
0.0525673 0.506127 0.174792
0.259724 0.483299 0.167941
0.415106 0.476265 0.160006
0.596506 0.458305 0.183139
0.713909 0.462394 0.175463
0.811048 0.474342 0.151156
0.922728 0.478935 0.153521
0.959075 0.481804 0.156573
0 0.684382 0.201938
0.0596323 0.631113 0.164355
0.257557 0.612131 0.150393
0.416144 0.603967 0.143999
0.557168 0.600397 0.140459
0.728298 0.584878 0.169741
0.878355 0.574838 0.205692
0.958144 0.591699 0.181781
0.975296 0.597879 0.175708
0 0.80734 0.196765
0.0668803 0.756207 0.1552
0.25774 0.739101 0.139223
0.415152 0.731441 0.132525
0.555444 0.727993 0.129732
0.685115 0.727672 0.129534
0.834104 0.71957 0.150576
0.995682 0.700496 0.210361
1 0.701244 0.217548
0 0.928725 0.195224
0.0785077 0.879088 0.151629
0.260044 0.865324 0.13225
0.414267 0.858732 0.124056
0.553124 0.855787 0.121263
0.68191 0.855619 0.122072
0.802533 0.857786 0.126604
0.927459 0.857313 0.14052
0.940551 0.858564 0.143999
0 1 0.191745
0.0921492 0.992416 0.151141
0.267597 0.985931 0.132143
0.416648 0.982879 0.122591
0.55285 0.981414 0.119127
0.679622 0.981857 0.120226
0.799237 0.98323 0.124804
0.908873 0.985306 0.132128
0.917296 0.986664 0.133776
0.0120699 0.0662699 0.177966
0.0205997 0.0335393 0.121798
0.12578 0.0409094 0.144991
0.291188 0.0310063 0.199069
0.46067 0.0179141 0.220844
0.608194 0.00970474 0.228214
0.743938 0.00320439 0.232547
0.863233 0.000183108 0.235782
0.935897 0.000900282 0.238148
0.00572213 0.183154 0.277363
0.0519875 0.135149 0.218814
0.184115 0.135668 0.195346
0.357183 0.118349 0.234348
0.530114 0.104433 0.241093
0.667491 0.102113 0.240574
0.790478 0.103731 0.24094
0.899794 0.109133 0.243153
0.959243 0.114046 0.245594
0.000244144 0.312016 0.303166
0.0568551 0.25478 0.260624
0.240772 0.24007 0.242725
0.362661 0.241154 0.251652
0.544808 0.226261 0.24152
0.68014 0.224537 0.239536
0.803021 0.226276 0.239918
0.915419 0.23061 0.242695
0.969573 0.234546 0.245304
0 0.436851 0.298726
0.0524147 0.381918 0.263722
0.292149 0.346258 0.289998
0.397559 0.353399 0.287907
0.547448 0.35137 0.242893
0.685969 0.34931 0.23508
0.809094 0.350774 0.235294
0.923644 0.354894 0.23801
0.97142 0.357946 0.240604
0 0.561456 0.290578
0.0565347 0.507698 0.254322
0.275731 0.480018 0.259876
0.421912 0.474144 0.265827
0.588373 0.462806 0.266361
0.694255 0.473075 0.233845
0.811734 0.47689 0.228397
0.926894 0.480781 0.231037
0.962509 0.483391 0.233295
0 0.686229 0.281453
0.0630198 0.63299 0.24387
0.260975 0.613672 0.230732
0.41973 0.605097 0.226291
0.559655 0.602167 0.221469
0.734707 0.584924 0.255924
0.857099 0.585885 0.264332
0.937713 0.603326 0.234089
0.95819 0.607614 0.231495
0 0.809613 0.274449
0.0690318 0.758297 0.233555
0.260258 0.741238 0.218784
0.417838 0.733379 0.212467
0.558007 0.730114 0.209476
0.687587 0.729686 0.208453
0.84564 0.718379 0.235355
0.996338 0.704753 0.284001
1 0.706432 0.288487
0 0.931273 0.271092
0.0791638 0.882078 0.227604
0.26099 0.86804 0.209049
0.41561 0.861143 0.201312
0.554879 0.858335 0.198245
0.683894 0.858183 0.198016
0.804929 0.860166 0.200534
0.935866 0.857633 0.216037
0.948425 0.858961 0.219577
0 1 0.26656
0.0924849 0.993896 0.225422
0.267002 0.988128 0.205753
0.416175 0.984878 0.195651
0.552926 0.983612 0.191608
0.680354 0.983917 0.191699
0.800778 0.985367 0.195041
0.910658 0.987579 0.201434
0.918288 0.988724 0.20293
0.00328069 0.0711833 0.258808
0.0189364 0.0367132 0.191623
0.146914 0.0377356 0.213993
0.309468 0.0284581 0.269596
0.47068 0.0174716 0.29427
0.617334 0.00917067 0.304845
0.751949 0.00283818 0.310842
0.870375 7.62951e-05 0.314168
0.941314 0.00144961 0.316396
4.57771e-05 0.188373 0.362005
0.0401312 0.140612 0.30602
0.205035 0.13228 0.272602
0.368231 0.118364 0.308156
0.534279 0.106035 0.320958
0.670665 0.10367 0.321279
0.793759 0.105516 0.321508
0.904143 0.110582 0.32282
0.963256 0.115404 0.324453
0 0.314427 0.384405
0.0445258 0.26099 0.342107
0.246647 0.244968 0.281132
0.359487 0.247196 0.30692
0.542229 0.229786 0.320836
0.682216 0.226337 0.320241
0.805722 0.228168 0.320638
0.9196 0.231968 0.32253
0.973678 0.235721 0.324437
0 0.43827 0.379614
0.0528725 0.384482 0.342489
0.302922 0.349325 0.333639
0.38439 0.361669 0.348959
0.53344 0.357809 0.327947
0.68751 0.3514 0.315938
0.811399 0.352758 0.315953
0.927214 0.356374 0.317922
0.974502 0.359304 0.319814
0 0.562997 0.371405
0.0598459 0.50927 0.33463
0.292668 0.477607 0.340719
0.433967 0.471 0.367987
0.560891 0.473472 0.349218
0.69012 0.477317 0.310796
0.813794 0.478904 0.309331
0.930098 0.482353 0.310994
0.964813 0.484977 0.312734
0 0.687831 0.362036
0.0666514 0.634485 0.3243
0.265339 0.614694 0.312428
0.429572 0.603265 0.3205
0.562783 0.602823 0.312154
0.732555 0.587839 0.337926
0.831144 0.598962 0.318013
0.930907 0.608988 0.303441
0.954009 0.611826 0.304204
0 0.811505 0.353704
0.0714885 0.760128 0.313497
0.263035 0.742947 0.299351
0.420691 0.73492 0.29366
0.560708 0.731792 0.290883
0.689998 0.731609 0.289677
0.855009 0.717571 0.323095
0.991318 0.7122 0.352651
0.998383 0.714885 0.353902
0 0.933394 0.348455
0.0804608 0.884459 0.30547
0.262501 0.870436 0.28806
0.417716 0.863218 0.281086
0.557076 0.860365 0.278126
0.686107 0.860166 0.277363
0.807218 0.862272 0.278523
0.945266 0.85713 0.297398
0.95761 0.858152 0.301183
0 1 0.342962
0.093019 0.995148 0.30135
0.267109 0.989883 0.281376
0.416281 0.986664 0.271855
0.553491 0.985382 0.267781
0.681453 0.985565 0.267201
0.802274 0.986954 0.269154
0.912154 0.989105 0.273854
0.919158 0.990173 0.275196
6.10361e-05 0.0748608 0.340154
0.0184176 0.0388342 0.271595
0.16611 0.0336614 0.298283
0.326238 0.0256504 0.347539
0.480217 0.0169375 0.370809
0.625772 0.0087129 0.383658
0.758923 0.00270085 0.390723
0.876173 0.000213626 0.393973
0.945434 0.00233463 0.39556
0 0.19147 0.442374
0.0342107 0.143465 0.396323
0.221759 0.127871 0.373144
0.385641 0.115465 0.392737
0.538705 0.107225 0.401984
0.673594 0.105303 0.402686
0.796414 0.107195 0.402777
0.907805 0.112154 0.403464
0.966384 0.11667 0.404486
0 0.316289 0.466285
0.040589 0.264179 0.42768
0.250095 0.246448 0.365225
0.373968 0.247105 0.371252
0.542763 0.232303 0.398779
0.684306 0.228275 0.401526
0.808225 0.229831 0.401999
0.922896 0.233738 0.403571
0.976837 0.236973 0.405127
0 0.440024 0.461234
0.0539406 0.386816 0.423468
0.295171 0.357305 0.38143
0.387335 0.368368 0.381353
0.524498 0.364096 0.398184
0.687526 0.353811 0.397284
0.81355 0.354604 0.397436
0.930175 0.358099 0.399084
0.976623 0.360739 0.40061
0 0.564584 0.452934
0.0630503 0.510872 0.415656
0.299626 0.479667 0.408392
0.448997 0.470115 0.439048
0.538888 0.482734 0.427924
0.683482 0.481163 0.397604
0.815579 0.480781 0.39089
0.932601 0.484154 0.392187
0.966262 0.48658 0.393668
0 0.689372 0.443183
0.0700236 0.635935 0.405417
0.270481 0.615702 0.394202
0.448463 0.59852 0.417395
0.569543 0.600565 0.421469
0.71284 0.596765 0.415717
0.817746 0.606867 0.384649
0.932021 0.611307 0.383429
0.954772 0.613657 0.384833
0 0.813413 0.433829
0.0743572 0.761929 0.394339
0.265965 0.744671 0.380758
0.424598 0.73611 0.376364
0.565667 0.732509 0.375723
0.693095 0.732998 0.372793
0.859098 0.718257 0.409522
0.968536 0.723705 0.411566
0.979126 0.727214 0.410254
0 0.935393 0.426886
0.0822461 0.886793 0.384894
0.265141 0.872282 0.368414
0.420188 0.865003 0.362127
0.559655 0.861875 0.359594
0.688502 0.861906 0.358846
0.809537 0.864256 0.359472
0.954665 0.856474 0.383612
0.966751 0.857038 0.387717
0 1 0.420493
0.0941024 0.996185 0.378912
0.267201 0.991379 0.359655
0.417227 0.988098 0.350698
0.554879 0.986831 0.347036
0.682994 0.986877 0.346242
0.803967 0.98822 0.347372
0.913512 0.990402 0.350484
0.919966 0.991333 0.35169
0 0.0781262 0.412665
0.0193942 0.0408484 0.349706
0.180179 0.0307622 0.386099
0.337682 0.0244907 0.425467
0.489464 0.0162814 0.449638
0.633143 0.00842298 0.464271
0.764477 0.00288396 0.471641
0.880507 0.000823987 0.474372
0.948135 0.00328069 0.475395
0 0.193957 0.523522
0.0344701 0.145525 0.477836
0.231922 0.125185 0.475944
0.394354 0.114641 0.48101
0.542214 0.108598 0.484337
0.676097 0.107012 0.484627
0.798917 0.108965 0.484443
0.910719 0.113848 0.484581
0.968673 0.118181 0.485252
0 0.317998 0.548669
0.0426032 0.265721 0.510979
0.251545 0.245579 0.473121
0.395666 0.242634 0.459358
0.551034 0.232273 0.479912
0.686641 0.229938 0.48333
0.810452 0.231373 0.483894
0.925689 0.235126 0.485374
0.97908 0.238499 0.486427
0 0.441642 0.543145
0.0560006 0.388418 0.505531
0.2795 0.364813 0.461341
0.399313 0.370901 0.427695
0.524468 0.368353 0.460914
0.686305 0.356847 0.477546
0.815488 0.356634 0.479255
0.932586 0.359716 0.480903
0.978134 0.36231 0.482338
0 0.56611 0.534752
0.0663767 0.512428 0.497292
0.292653 0.485283 0.476768
0.457649 0.474952 0.472511
0.526909 0.491096 0.487968
0.669718 0.487526 0.480262
0.816373 0.48304 0.47303
0.934585 0.485679 0.474128
0.967163 0.488289 0.475517
0 0.69073 0.524727
0.073106 0.637644 0.487098
0.273671 0.617288 0.474662
0.467765 0.595773 0.496025
0.581109 0.597772 0.522164
0.688151 0.606699 0.495842
0.815198 0.609934 0.466911
0.933837 0.612955 0.465614
0.955352 0.615518 0.466911
0 0.814481 0.514733
0.0774701 0.763607 0.475792
0.269062 0.746197 0.46247
0.431312 0.736171 0.461341
0.57702 0.729595 0.476509
0.697322 0.732555 0.471092
0.85182 0.722972 0.489891
0.944213 0.735927 0.468421
0.954269 0.739193 0.467445
0 0.93695 0.506477
0.0849012 0.88867 0.465324
0.267155 0.874113 0.450019
0.422904 0.866545 0.444175
0.562371 0.863371 0.44213
0.691478 0.863371 0.441474
0.81236 0.865614 0.442023
0.962768 0.855344 0.472435
0.973907 0.856184 0.476402
0 1 0.499062
0.0957809 0.996933 0.457649
0.268025 0.992569 0.439429
0.418997 0.989288 0.431128
0.55697 0.987823 0.428092
0.685817 0.987869 0.427039
0.806455 0.989151 0.428046
0.914855 0.991318 0.430732
0.920775 0.992325 0.431861
0 0.0813611 0.486824
0.0218357 0.0429694 0.419883
0.18819 0.0307622 0.46424
0.345815 0.0241855 0.505135
0.497414 0.0158236 0.531029
0.639765 0.00833143 0.54609
0.768948 0.00340276 0.552972
0.883635 0.00183108 0.554559
0.949584 0.00476081 0.555123
0 0.196231 0.605936
0.0363317 0.147509 0.560082
0.236225 0.125811 0.562097
0.399741 0.115221 0.565515
0.546365 0.109636 0.566827
0.67866 0.108461 0.566934
0.800885 0.110643 0.566522
0.913039 0.115587 0.566003
0.970153 0.119905 0.566308
0 0.319646 0.630945
0.0454108 0.267552 0.593744
0.25333 0.245731 0.574807
0.411429 0.238254 0.561181
0.557504 0.232853 0.564416
0.689433 0.231754 0.565499
0.812619 0.233143 0.566293
0.928054 0.236896 0.567468
0.980682 0.239994 0.568505
0 0.443061 0.625452
0.059205 0.389868 0.587793
0.267826 0.368826 0.56054
0.413916 0.367926 0.518593
0.537285 0.367926 0.534005
0.689342 0.35845 0.557702
0.817639 0.358328 0.561486
0.934874 0.361456 0.56321
0.979477 0.363943 0.564584
0 0.567147 0.616602
0.0694743 0.513787 0.579293
0.279194 0.491905 0.557931
0.453803 0.482322 0.517037
0.531762 0.496696 0.524025
0.668406 0.491859 0.548562
0.816709 0.485267 0.554574
0.936446 0.487663 0.556435
0.967834 0.490105 0.557885
0 0.691676 0.606363
0.0766461 0.638834 0.569024
0.274022 0.619791 0.555444
0.474678 0.598276 0.555673
0.589105 0.599954 0.582055
0.677089 0.612757 0.573953
0.805478 0.61471 0.555627
0.93521 0.615015 0.548272
0.955673 0.617319 0.549462
0 0.815732 0.595804
0.0810864 0.764935 0.557778
0.271473 0.747753 0.544732
0.440314 0.735805 0.544961
0.597498 0.724651 0.572671
0.711727 0.728115 0.579431
0.829221 0.732448 0.569009
0.933898 0.74258 0.540032
0.944518 0.744884 0.54049
0 0.939544 0.586297
0.0879988 0.890211 0.546532
0.269688 0.8757 0.532158
0.42594 0.867933 0.526421
0.566888 0.864286 0.526345
0.700923 0.862409 0.527962
0.825483 0.86453 0.521614
0.965942 0.856153 0.558968
0.975402 0.857374 0.562524
0 1 0.578149
0.0982986 0.997467 0.537484
0.269795 0.993515 0.520333
0.422415 0.990158 0.51223
0.559625 0.988754 0.510201
0.688441 0.988678 0.509483
0.810483 0.989715 0.509102
0.916411 0.991958 0.512474
0.921843 0.992905 0.513603
0 0.0846418 0.563958
0.0243992 0.0449531 0.492226
0.19472 0.0311131 0.542718
0.353643 0.0238041 0.586725
0.504601 0.0154879 0.613458
0.644953 0.00856031 0.628244
0.772198 0.00436408 0.634241
0.885878 0.00321965 0.634058
0.94995 0.00675975 0.633112
0 0.198428 0.688502
0.0387121 0.149081 0.643
0.239841 0.127092 0.646723
0.403265 0.116426 0.649851
0.549142 0.111284 0.650233
0.681056 0.110231 0.649256
0.802213 0.112505 0.648493
0.914611 0.117754 0.647334
0.970916 0.121889 0.647227
0 0.321218 0.712001
0.049134 0.268681 0.676036
0.255818 0.246983 0.659937
0.417227 0.238056 0.651728
0.561151 0.233814 0.648692
0.692744 0.233021 0.648173
0.815 0.234821 0.648829
0.930373 0.238697 0.649943
0.981918 0.241825 0.650782
0 0.44416 0.706767
0.0629435 0.391165 0.670176
0.265461 0.370932 0.653513
0.423056 0.364721 0.62887
0.55758 0.363195 0.62649
0.698543 0.357977 0.64065
0.821027 0.35964 0.643946
0.937102 0.363134 0.64596
0.980545 0.365499 0.647334
0 0.568307 0.698024
0.0738842 0.515038 0.661631
0.272404 0.495842 0.645594
0.443198 0.48748 0.603494
0.546914 0.497047 0.583017
0.676982 0.493111 0.615991
0.822248 0.486152 0.634867
0.938933 0.489555 0.638956
0.968719 0.491814 0.640452
0 0.692744 0.687861
0.0818036 0.639811 0.651057
0.274678 0.622095 0.637629
0.464363 0.60557 0.618936
0.595697 0.605768 0.610452
0.671519 0.619486 0.628016
0.800961 0.618952 0.632532
0.9355 0.617395 0.630976
0.955261 0.61944 0.632151
0 0.817517 0.677119
0.0852216 0.766018 0.639796
0.273991 0.749416 0.627085
0.443778 0.73756 0.623545
0.616724 0.722026 0.646433
0.71902 0.727291 0.672587
0.824216 0.737087 0.642054
0.930114 0.745403 0.626581
0.940597 0.747646 0.626947
0 0.943175 0.667094
0.0920729 0.891478 0.628016
0.272206 0.877424 0.614527
0.428946 0.869505 0.608759
0.575921 0.863645 0.613489
0.714641 0.858839 0.631739
0.835431 0.86215 0.622003
0.958892 0.8607 0.640177
0.966003 0.862455 0.642176
0 1 0.657282
0.101427 0.997833 0.617975
0.27155 0.994354 0.602365
0.424567 0.99115 0.594781
0.562936 0.98967 0.592508
0.692454 0.989212 0.592233
0.816938 0.989853 0.58967
0.91928 0.992584 0.592004
0.924025 0.993362 0.593225
0 0.0871748 0.642618
0.0270085 0.0466773 0.567559
0.200778 0.0314031 0.623529
0.360281 0.0235904 0.669642
0.51046 0.0155184 0.696422
0.648783 0.009308 0.710277
0.773693 0.00588998 0.714977
0.886427 0.00514229 0.713756
0.949371 0.00906386 0.712734
0 0.200793 0.769467
0.0420386 0.150439 0.725277
0.242908 0.128145 0.730922
0.406455 0.117693 0.733883
0.551354 0.112703 0.733242
0.682689 0.1122 0.73135
0.803311 0.114611 0.729961
0.915618 0.119951 0.728206
0.970993 0.124071 0.727932
0 0.322118 0.790768
0.0533913 0.270069 0.756893
0.258488 0.248539 0.743297
0.420066 0.239384 0.735775
0.563851 0.235187 0.732143
0.695521 0.234424 0.731258
0.817136 0.236378 0.731792
0.931914 0.240681 0.732494
0.982452 0.243687 0.733181
0 0.445228 0.786282
0.0677806 0.392294 0.751873
0.267704 0.372412 0.737667
0.427512 0.364034 0.728588
0.568612 0.360815 0.723766
0.702403 0.359335 0.725093
0.823789 0.36112 0.727001
0.939162 0.364797 0.729137
0.981369 0.367208 0.730358
0 0.569024 0.778149
0.0788739 0.515923 0.743679
0.273381 0.497581 0.7299
0.435615 0.48983 0.709178
0.564111 0.492485 0.681285
0.693721 0.4907 0.696864
0.827466 0.487114 0.716991
0.941161 0.491081 0.721874
0.969482 0.493507 0.723278
0 0.693385 0.768338
0.0867781 0.640665 0.733242
0.276356 0.623819 0.720607
0.448188 0.612833 0.701488
0.592737 0.6121 0.66302
0.675105 0.62504 0.670268
0.798474 0.623697 0.700267
0.932998 0.620661 0.712596
0.95285 0.622217 0.714427
0 0.817838 0.757702
0.0904402 0.767056 0.721767
0.276524 0.751019 0.709834
0.440208 0.741344 0.702876
0.61944 0.72636 0.701213
0.724849 0.73135 0.722362
0.805341 0.745373 0.72282
0.914366 0.75169 0.715434
0.924651 0.75375 0.716091
0 0.943832 0.747875
0.0968185 0.892454 0.709682
0.274784 0.878874 0.697505
0.430762 0.871473 0.691569
0.585077 0.863157 0.696452
0.73489 0.854139 0.724758
0.842542 0.859251 0.73434
0.934966 0.869352 0.728939
0.940398 0.871595 0.729183
0 1 0.737697
0.105501 0.998062 0.699001
0.274037 0.995056 0.684916
0.42678 0.991958 0.677791
0.565469 0.990463 0.675715
0.697108 0.98941 0.678614
0.824384 0.988663 0.683726
0.92285 0.992325 0.679469
0.927001 0.993164 0.680369
