tlwarm.cube
TITLE "Generated by Resolve"
LUT_3D_SIZE 5
0.0303044 0.0535286 0.071046
0.096025 0.039704 0.0703441
0.442145 0.0183871 0.106279
0.726879 0.00428779 0.103838
0.922438 0 0.101259
0.00491341 0.304402 0.150469
0.234684 0.229679 0.155261
0.543114 0.221485 0.0867475
0.795651 0.222812 0.0866865
0.958923 0.23238 0.0955367
0 0.557916 0.135439
0.252644 0.48365 0.0888533
0.591363 0.457755 0.105486
0.818418 0.468116 0.0914473
0.955001 0.480507 0.0879072
0 0.804837 0.128252
0.255741 0.737209 0.0714885
0.553414 0.726146 0.0627909
0.823926 0.720272 0.081178
1 0.698268 0.153826
0 1 0.130159
0.268025 0.984207 0.0738689
0.552819 0.979278 0.0627146
0.797803 0.980865 0.0694438
0.916381 0.984558 0.0778058
0.0120699 0.0662699 0.177966
0.12578 0.0409094 0.144991
0.46067 0.0179141 0.220844
0.743938 0.00320439 0.232547
0.935897 0.000900282 0.238148
0.000244144 0.312016 0.303166
0.240772 0.24007 0.242725
0.544808 0.226261 0.24152
0.803021 0.226276 0.239918
0.969573 0.234546 0.245304
0 0.561456 0.290578
0.275731 0.480018 0.259876
0.588373 0.462806 0.266361
0.811734 0.47689 0.228397
0.962509 0.483391 0.233295
0 0.809613 0.274449
0.260258 0.741238 0.218784
0.558007 0.730114 0.209476
0.84564 0.718379 0.235355
1 0.706432 0.288487
0 1 0.26656
0.267002 0.988128 0.205753
0.552926 0.983612 0.191608
0.800778 0.985367 0.195041
0.918288 0.988724 0.20293
6.10361e-05 0.0748608 0.340154
0.16611 0.0336614 0.298283
0.480217 0.0169375 0.370809
0.758923 0.00270085 0.390723
0.945434 0.00233463 0.39556
0 0.316289 0.466285
0.250095 0.246448 0.365225
0.542763 0.232303 0.398779
0.808225 0.229831 0.401999
0.976837 0.236973 0.405127
0 0.564584 0.452934
0.299626 0.479667 0.408392
0.538888 0.482734 0.427924
0.815579 0.480781 0.39089
0.966262 0.48658 0.393668
0 0.813413 0.433829
0.265965 0.744671 0.380758
0.565667 0.732509 0.375723
0.859098 0.718257 0.409522
0.979126 0.727214 0.410254
0 1 0.420493
0.267201 0.991379 0.359655
0.554879 0.986831 0.347036
0.803967 0.98822 0.347372
0.919966 0.991333 0.35169
0 0.0813611 0.486824
0.18819 0.0307622 0.46424
0.497414 0.0158236 0.531029
0.768948 0.00340276 0.552972
0.949584 0.00476081 0.555123
0 0.319646 0.630945
0.25333 0.245731 0.574807
0.557504 0.232853 0.564416
0.812619 0.233143 0.566293
0.980682 0.239994 0.568505
0 0.567147 0.616602
0.279194 0.491905 0.557931
0.531762 0.496696 0.524025
0.816709 0.485267 0.554574
0.967834 0.490105 0.557885
0 0.815732 0.595804
0.271473 0.747753 0.544732
0.597498 0.724651 0.572671
0.829221 0.732448 0.569009
0.944518 0.744884 0.54049
0 1 0.578149
0.269795 0.993515 0.520333
0.559625 0.988754 0.510201
0.810483 0.989715 0.509102
0.921843 0.992905 0.513603
0 0.0871748 0.642618
0.200778 0.0314031 0.623529
0.51046 0.0155184 0.696422
0.773693 0.00588998 0.714977
0.949371 0.00906386 0.712734
0 0.322118 0.790768
0.258488 0.248539 0.743297
0.563851 0.235187 0.732143
0.817136 0.236378 0.731792
0.982452 0.243687 0.733181
0 0.569024 0.778149
0.273381 0.497581 0.7299
0.564111 0.492485 0.681285
0.827466 0.487114 0.716991
0.969482 0.493507 0.723278
0 0.817838 0.757702
0.276524 0.751019 0.709834
0.61944 0.72636 0.701213
0.805341 0.745373 0.72282
0.924651 0.75375 0.716091
0 1 0.737697
0.274037 0.995056 0.684916
0.565469 0.990463 0.675715
0.824384 0.988663 0.683726
0.927001 0.993164 0.680369
