tlwarm.cube
TITLE "Generated by Resolve"
LUT_3D_SIZE 33
0.0303044 0.0535286 0.071046
0.0288548 0.0496223 0.0665599
0.0266117 0.0442054 0.060441
0.0214694 0.0335546 0.0486305
0.0186313 0.0235294 0.0378882
0.0294194 0.0256809 0.0404974
0.0461738 0.03093 0.0483711
0.0677195 0.036286 0.0590677
0.096025 0.039704 0.0703441
0.132418 0.0400092 0.0807813
0.175235 0.037995 0.0893568
0.221378 0.0347143 0.0956741
0.269825 0.0305333 0.10016
0.3187 0.0260471 0.103075
0.363958 0.0224613 0.104768
0.403937 0.0202487 0.105715
0.442145 0.0183871 0.106279
0.47985 0.016495 0.106508
0.517235 0.0145418 0.106493
0.554147 0.0125887 0.106294
0.590356 0.0106813 0.105943
0.625864 0.00881972 0.105486
0.660548 0.00712596 0.104952
0.694179 0.00560006 0.104387
0.726879 0.00428779 0.103838
0.758358 0.00315862 0.103288
0.788708 0.00227359 0.102831
0.818204 0.00157168 0.102419
0.846967 0.000991836 0.102068
0.875029 0.000518807 0.101747
0.902541 0.00015259 0.101457
0.922438 0 0.101259
0.922438 0 0.101259
0.0386358 0.0778973 0.091783
0.0375067 0.0725872 0.086183
0.0357671 0.0659953 0.0792554
0.0313268 0.0532998 0.065919
0.0335393 0.0440223 0.0554971
0.0474403 0.0462806 0.0570993
0.0634165 0.0509804 0.0639353
0.0838331 0.0544289 0.0726482
0.112154 0.0554665 0.08159
0.149874 0.0535592 0.0897078
0.194232 0.0498512 0.0960403
0.241382 0.0452735 0.10042
0.290761 0.0402228 0.103258
0.339132 0.0353704 0.104829
0.382864 0.0319982 0.105608
0.422293 0.0298161 0.105989
0.460288 0.0280461 0.106126
0.498024 0.0263828 0.105989
0.535332 0.0248264 0.105638
0.572137 0.02327 0.10515
0.608423 0.021973 0.104524
0.643839 0.0208591 0.103822
0.678141 0.0199741 0.10309
0.711482 0.019379 0.102373
0.743908 0.0191501 0.101656
0.775021 0.0191501 0.100999
0.805051 0.0195315 0.10045
0.83418 0.0201877 0.0999924
0.862394 0.0209659 0.0995804
0.890013 0.022034 0.0992294
0.916808 0.0231174 0.0989548
0.933806 0.0241703 0.0987869
0.933913 0.0243839 0.0987564
0.0434272 0.10457 0.111421
0.0432898 0.098558 0.10576
0.04271 0.0913405 0.0989242
0.0402533 0.0770886 0.0850996
0.0496223 0.0677958 0.075288
0.0673381 0.0696727 0.0758221
0.0827344 0.0743877 0.0816968
0.102632 0.0777142 0.0890822
0.131594 0.0781872 0.0958419
0.171466 0.0756237 0.101167
0.218067 0.0711833 0.104494
0.267414 0.06598 0.106126
0.318135 0.0605173 0.106508
0.366339 0.0558785 0.106188
0.408743 0.0529488 0.105791
0.447761 0.0509194 0.105364
0.485527 0.0493019 0.104814
0.52285 0.047837 0.104112
0.559564 0.0465705 0.103304
0.595544 0.0454414 0.102419
0.630808 0.0446021 0.101488
0.665171 0.043946 0.100572
0.698344 0.0435187 0.0997024
0.730617 0.043534 0.0988937
0.761746 0.0438392 0.0981765
0.791592 0.0443732 0.0976272
0.820386 0.0453193 0.0971847
0.84828 0.0466011 0.096849
0.875273 0.0479591 0.0966354
0.90161 0.0496071 0.0964981
0.927321 0.0513313 0.0964523
0.941344 0.0524758 0.096437
0.941405 0.0527047 0.0964065
0.0434577 0.133272 0.128298
0.0444648 0.127047 0.123247
0.0453651 0.118944 0.116655
0.0457008 0.102754 0.102785
0.0638132 0.0925612 0.0941176
0.0868849 0.0933089 0.0949111
0.102113 0.0979629 0.0999466
0.121202 0.101595 0.105547
0.150118 0.102449 0.109575
0.191226 0.099794 0.111177
0.23946 0.0952621 0.110918
0.29012 0.090074 0.109514
0.341192 0.0847028 0.107393
0.388907 0.0802777 0.105348
0.430335 0.0777447 0.104051
0.468956 0.0759594 0.102998
0.506249 0.0744945 0.101976
0.542977 0.0733196 0.100893
0.578836 0.0722515 0.0998093
0.613993 0.0714733 0.0987411
0.648112 0.0708476 0.0977798
0.681331 0.0705425 0.0968795
0.713481 0.070573 0.0961013
0.744549 0.0708629 0.0954604
0.774487 0.0714733 0.0950027
0.803128 0.0723888 0.0947585
0.830808 0.0736858 0.094667
0.857633 0.0750896 0.0947433
0.883696 0.0767681 0.0948959
0.909224 0.0785077 0.0951553
0.934234 0.0804608 0.0955825
0.946136 0.081529 0.0958419
0.946166 0.081651 0.0958419
0.0382849 0.164462 0.141466
0.0403601 0.157671 0.136965
0.042771 0.148745 0.130968
0.0464027 0.130724 0.117723
0.0743572 0.118776 0.110887
0.104891 0.117693 0.113405
0.122148 0.121508 0.118791
0.140047 0.125628 0.121782
0.168078 0.127077 0.122301
0.208606 0.124987 0.119615
0.256809 0.120775 0.115389
0.3075 0.115862 0.110842
0.358312 0.110796 0.10634
0.405417 0.106813 0.102815
0.44625 0.104494 0.100893
0.484474 0.102846 0.0994736
0.521172 0.10161 0.0982376
0.557076 0.100587 0.0970321
0.592111 0.0998398 0.0958724
0.626352 0.0992294 0.0948501
0.659541 0.09897 0.0939651
0.691798 0.09897 0.0932174
0.722957 0.0992599 0.092607
0.753063 0.0998093 0.092195
0.782086 0.100649 0.0919509
0.809934 0.101778 0.0918898
0.836988 0.103243 0.0919509
0.86334 0.104814 0.092134
0.889082 0.106569 0.0928206
0.914412 0.108354 0.093904
0.9393 0.110231 0.095079
0.949355 0.111315 0.0955825
0.949371 0.111437 0.0955825
0.0281071 0.198367 0.149905
0.0309911 0.191043 0.146151
0.0346685 0.181308 0.140932
0.0416571 0.161028 0.12845
0.0791791 0.147005 0.123949
0.119844 0.143221 0.129335
0.141009 0.145708 0.135622
0.159579 0.149523 0.13753
0.186419 0.151797 0.133974
0.225849 0.150439 0.12604
0.275074 0.146395 0.117266
0.324636 0.142107 0.109895
0.372152 0.138308 0.103944
0.417502 0.134813 0.0994125
0.457511 0.132738 0.0970932
0.495033 0.131273 0.095552
0.531182 0.13022 0.094316
0.566278 0.129503 0.0931563
0.600626 0.128878 0.0921035
0.633875 0.128618 0.0911879
0.666255 0.128511 0.090425
0.697795 0.12871 0.0897841
0.728435 0.129152 0.0893111
0.757977 0.129839 0.0890211
0.786496 0.130816 0.0888685
0.814237 0.131975 0.08925
0.84126 0.133455 0.090074
0.867643 0.135042 0.0910506
0.893446 0.136828 0.0922713
0.918822 0.138552 0.0937057
0.943893 0.14049 0.0951858
0.95227 0.141314 0.0956893
0.9523 0.141558 0.0956893
0.0178836 0.233692 0.153429
0.0197757 0.226261 0.150286
0.0226749 0.216052 0.145678
0.0317082 0.193561 0.134081
0.0773022 0.177798 0.131624
0.129778 0.17055 0.140688
0.157153 0.171283 0.148501
0.177966 0.174487 0.150622
0.204791 0.176593 0.144747
0.242954 0.17612 0.132067
0.291356 0.172885 0.117556
0.338766 0.16939 0.107851
0.382391 0.16669 0.101122
0.425971 0.163928 0.0958572
0.46511 0.162158 0.0933394
0.501823 0.160983 0.0918593
0.537163 0.160098 0.0907607
0.57174 0.159442 0.0897536
0.605386 0.158984 0.0888838
0.638148 0.158862 0.0881056
0.670115 0.158953 0.0874495
0.701396 0.159182 0.0869306
0.731777 0.159518 0.0868696
0.761288 0.160357 0.0871748
0.78999 0.161273 0.0876478
0.817899 0.162478 0.0885023
0.84506 0.163928 0.0896315
0.871504 0.165469 0.0909133
0.89752 0.167041 0.0923171
0.923003 0.168902 0.093843
0.948241 0.170718 0.0954147
0.954879 0.171405 0.0958419
0.954894 0.171649 0.0958419
0.0106508 0.269337 0.153155
0.0120546 0.261891 0.150286
0.0141146 0.25185 0.146029
0.020264 0.227497 0.134783
0.0714733 0.210391 0.134005
0.13341 0.200488 0.145708
0.168811 0.198627 0.155444
0.193347 0.20061 0.158114
0.221241 0.202289 0.153185
0.257694 0.20238 0.140383
0.298985 0.201419 0.123781
0.342092 0.199451 0.110018
0.38677 0.196826 0.100038
0.430289 0.19408 0.09337
0.469322 0.19237 0.0903944
0.505714 0.191302 0.0888685
0.540719 0.190494 0.087953
0.57496 0.190066 0.0871443
0.608316 0.189715 0.0865339
0.640833 0.189639 0.0861372
0.672953 0.189624 0.085832
0.704097 0.189929 0.0857557
0.734646 0.190356 0.0860151
0.764263 0.190951 0.0865339
0.793011 0.191806 0.0872206
0.821103 0.193042 0.0882277
0.848432 0.194415 0.0894179
0.87512 0.195895 0.0907301
0.901152 0.197665 0.0922103
0.926848 0.199252 0.0938277
0.952102 0.20119 0.095491
0.957122 0.20177 0.0958114
0.957137 0.202014 0.0958114
0.00491341 0.304402 0.150469
0.00596628 0.297108 0.147601
0.0075227 0.287205 0.143297
0.0133211 0.261997 0.132204
0.0640879 0.24448 0.13228
0.131624 0.232776 0.144366
0.174853 0.228443 0.155245
0.204623 0.228733 0.158587
0.234684 0.229679 0.155261
0.272465 0.228794 0.147494
0.311666 0.228244 0.13257
0.349874 0.228214 0.114794
0.391562 0.226719 0.101228
0.433509 0.224796 0.0927443
0.471946 0.223239 0.0892958
0.508217 0.222141 0.0876936
0.543114 0.221485 0.0867475
0.577264 0.220905 0.0860609
0.610605 0.220737 0.0855879
0.643198 0.220462 0.0852674
0.675196 0.220478 0.0850843
0.706432 0.22089 0.0851759
0.736934 0.221332 0.0854658
0.766644 0.221897 0.0859998
0.795651 0.222812 0.0866865
0.823896 0.223697 0.0877852
0.851377 0.22504 0.0889754
0.878111 0.226566 0.0903182
0.904295 0.22826 0.0918593
0.93019 0.229801 0.0935378
0.955566 0.231678 0.0953078
0.958907 0.232136 0.0955367
0.958923 0.23238 0.0955367
0.00112917 0.338262 0.147204
0.00169375 0.33138 0.143984
0.00262455 0.32163 0.139269
0.0091249 0.296712 0.127718
0.0559548 0.278843 0.12755
0.126818 0.266361 0.138689
0.17615 0.26006 0.14934
0.211551 0.258671 0.153323
0.243381 0.25922 0.150164
0.282078 0.25771 0.145846
0.326055 0.254917 0.138933
0.364904 0.254383 0.1243
0.401038 0.254963 0.106615
0.438041 0.254841 0.0943618
0.474662 0.254078 0.0892348
0.510262 0.253223 0.0870985
0.545205 0.252552 0.0860304
0.579141 0.251972 0.085359
0.612482 0.251774 0.0848859
0.645243 0.251499 0.0845045
0.677165 0.251591 0.0843519
0.708476 0.251896 0.0844282
0.738979 0.252338 0.0847028
0.768811 0.252934 0.0852216
0.797848 0.253803 0.0859846
0.826154 0.254704 0.0870069
0.853849 0.256001 0.0882429
0.880858 0.257343 0.0896468
0.90724 0.25893 0.09131
0.933165 0.260548 0.0930343
0.95848 0.262364 0.0948501
0.96025 0.26273 0.0949722
0.960266 0.262852 0.0949722
0 0.370459 0.144884
1.5259e-05 0.36405 0.141192
0.000198367 0.353597 0.135302
0.00611887 0.330022 0.122988
0.0489509 0.313176 0.121538
0.121065 0.300359 0.130968
0.174594 0.293065 0.140459
0.215091 0.290166 0.1449
0.249454 0.28983 0.142229
0.286305 0.288869 0.137179
0.331838 0.285084 0.134981
0.378775 0.281239 0.130159
0.41738 0.280491 0.117586
0.449393 0.28217 0.102205
0.480354 0.283665 0.0922103
0.513344 0.28394 0.0874342
0.547204 0.283513 0.085481
0.58088 0.283101 0.0845655
0.614313 0.282856 0.0839704
0.646952 0.282582 0.0836194
0.678813 0.28275 0.0834669
0.710155 0.283055 0.0835431
0.740673 0.283406 0.0838331
0.770611 0.284092 0.0843519
0.799756 0.284825 0.0851453
0.828244 0.285832 0.0861524
0.855909 0.287175 0.0874037
0.883192 0.288304 0.0888533
0.909758 0.289738 0.090547
0.935683 0.291463 0.0923781
0.961105 0.293248 0.0942855
0.961303 0.293507 0.0942855
0.961318 0.293751 0.0942855
0 0.401923 0.143343
0 0.395239 0.139452
0 0.384131 0.13257
0.00509651 0.361975 0.119417
0.0442817 0.346746 0.115663
0.115221 0.334524 0.122271
0.171344 0.32665 0.130159
0.215808 0.32253 0.134524
0.253468 0.321035 0.133288
0.289494 0.320439 0.127367
0.33164 0.317906 0.122988
0.382269 0.312322 0.12369
0.430808 0.307469 0.12314
0.467384 0.307042 0.115389
0.495018 0.309667 0.103777
0.521752 0.312367 0.0932326
0.551324 0.313664 0.0870985
0.583307 0.314 0.0843519
0.616053 0.314015 0.0832227
0.648463 0.313832 0.0826734
0.680247 0.313939 0.0825208
0.711604 0.314366 0.0825666
0.742138 0.314656 0.0828565
0.772137 0.315221 0.0833906
0.801358 0.316045 0.0841993
0.829847 0.316899 0.0852064
0.857816 0.318227 0.0864881
0.885206 0.319356 0.0880293
0.911864 0.320821 0.0897536
0.937789 0.322438 0.0915999
0.962036 0.324193 0.0934768
0.962036 0.324437 0.0934768
0.962036 0.324681 0.0934615
0 0.433097 0.14197
0 0.426261 0.137865
0 0.414313 0.130373
0.00555428 0.392844 0.117098
0.0425574 0.379278 0.110994
0.109667 0.368643 0.11342
0.166766 0.360693 0.119005
0.214252 0.355657 0.122881
0.255085 0.353124 0.122545
0.292912 0.352041 0.117754
0.331792 0.35082 0.110857
0.378119 0.346777 0.108583
0.431952 0.339742 0.114366
0.479652 0.334539 0.119982
0.514351 0.333989 0.117968
0.540261 0.336782 0.108583
0.563836 0.34049 0.0971542
0.589822 0.343145 0.0886702
0.619257 0.344457 0.0841993
0.650355 0.345052 0.0822309
0.681682 0.345251 0.081651
0.712795 0.345556 0.0815442
0.743404 0.346075 0.0817884
0.773434 0.346548 0.0823529
0.802686 0.347372 0.0831617
0.831281 0.348318 0.0842298
0.859464 0.34931 0.0854963
0.886809 0.350637 0.0870832
0.913542 0.351995 0.0888685
0.939651 0.353735 0.0907454
0.962112 0.355108 0.0925612
0.962112 0.355352 0.0925612
0.962112 0.355596 0.092546
0 0.46424 0.140429
0 0.457237 0.136278
0 0.444389 0.128176
0.0059205 0.423667 0.115023
0.043473 0.41088 0.108034
0.10605 0.401953 0.106111
0.16228 0.394614 0.108476
0.211398 0.389227 0.110979
0.254597 0.386023 0.110887
0.294347 0.384283 0.10753
0.332982 0.382879 0.101701
0.373159 0.380957 0.0964523
0.421057 0.376272 0.0984665
0.475715 0.368185 0.110369
0.523598 0.362585 0.12079
0.558602 0.361563 0.122179
0.584894 0.363928 0.115129
0.607202 0.368154 0.103639
0.630137 0.371878 0.0929122
0.656107 0.374472 0.0860456
0.684565 0.375845 0.082475
0.714458 0.376761 0.0811322
0.744564 0.377386 0.0808881
0.77438 0.378119 0.0812543
0.803723 0.378759 0.082002
0.832425 0.37966 0.0831159
0.860639 0.380682 0.0844129
0.888075 0.381857 0.0860151
0.915068 0.383139 0.0878614
0.940963 0.384848 0.0898756
0.960906 0.386236 0.0915084
0.960891 0.386481 0.0915084
0.960891 0.386603 0.0914931
0 0.495338 0.138811
0 0.488212 0.134524
0 0.474647 0.125902
0.0062562 0.454459 0.112993
0.0451514 0.4421 0.105562
0.105592 0.434195 0.101793
0.159396 0.427909 0.10045
0.208576 0.422873 0.10074
0.253178 0.419104 0.100298
0.294453 0.416709 0.0979477
0.333837 0.414832 0.0941176
0.372366 0.413413 0.0898604
0.412314 0.411475 0.0880903
0.460914 0.405921 0.0941482
0.51664 0.397467 0.108827
0.565148 0.391302 0.12195
0.601465 0.389609 0.126024
0.628946 0.391409 0.121614
0.651362 0.395331 0.111696
0.672206 0.399756 0.10013
0.694835 0.403525 0.0908217
0.720104 0.406195 0.0849622
0.747478 0.407935 0.0819409
0.776028 0.40911 0.0809339
0.804837 0.409995 0.0811322
0.833478 0.410864 0.0819562
0.861631 0.4121 0.0832685
0.88922 0.41323 0.0849165
0.916167 0.414664 0.0867781
0.941711 0.416068 0.0887922
0.959075 0.417319 0.0903334
0.95906 0.417563 0.0903182
0.959045 0.417807 0.0903029
0 0.526543 0.137118
0 0.519265 0.132738
0 0.505013 0.123522
0.00648508 0.485328 0.110903
0.0472114 0.473564 0.10338
0.106523 0.465751 0.0988937
0.159197 0.460014 0.0961776
0.20737 0.455406 0.094377
0.252201 0.451804 0.0928359
0.294469 0.44889 0.0909285
0.334752 0.446876 0.0885176
0.37351 0.445167 0.0861372
0.411093 0.443732 0.0839551
0.450538 0.441535 0.0836805
0.499443 0.435691 0.0916152
0.555093 0.427115 0.1075
0.604044 0.420737 0.121782
0.641825 0.41854 0.128252
0.671351 0.419333 0.127214
0.695064 0.422568 0.120012
0.715511 0.427146 0.109407
0.735546 0.431708 0.0987106
0.757519 0.435569 0.0903792
0.781933 0.438544 0.0852216
0.808011 0.440543 0.0825666
0.835279 0.441947 0.0818952
0.862821 0.443198 0.0825666
0.890043 0.444648 0.0839246
0.916945 0.446006 0.0857252
0.942031 0.447486 0.0877089
0.957092 0.448722 0.0891127
0.957061 0.448981 0.0890974
0.957061 0.449104 0.0890974
0 0.557916 0.135439
0 0.550393 0.130922
0 0.53521 0.121157
0.00653086 0.515984 0.108736
0.0491188 0.504707 0.101289
0.107912 0.497169 0.0965744
0.159823 0.4916 0.0933089
0.207645 0.487236 0.0908675
0.252644 0.48365 0.0888533
0.295094 0.480812 0.0869917
0.335454 0.478538 0.0850538
0.374304 0.476753 0.0832074
0.411933 0.475196 0.0815595
0.448875 0.473991 0.0803082
0.487984 0.471885 0.0812695
0.536614 0.466148 0.0896773
0.591363 0.457755 0.105486
0.640879 0.451041 0.120775
0.68043 0.448005 0.129625
0.71194 0.447898 0.131685
0.737499 0.450278 0.127733
0.758801 0.454398 0.119371
0.777966 0.459297 0.108949
0.797375 0.464103 0.0990616
0.818418 0.468116 0.0914473
0.841642 0.47126 0.0868238
0.86659 0.473548 0.0847944
0.892317 0.475456 0.0844739
0.918379 0.477226 0.0853437
0.942275 0.478965 0.0868544
0.955032 0.480018 0.0879225
0.955016 0.480262 0.0879225
0.955001 0.480507 0.0879072
0 0.589151 0.133761
0 0.581613 0.129107
0 0.565454 0.118761
0.00633249 0.546746 0.106523
0.0512093 0.535851 0.0991836
0.109209 0.528572 0.0944533
0.160769 0.523186 0.0909743
0.208469 0.518853 0.0882887
0.253269 0.515389 0.0860609
0.295628 0.512551 0.084123
0.336034 0.510246 0.082414
0.374914 0.508415 0.0808576
0.412619 0.506737 0.0795148
0.449302 0.505623 0.0783246
0.485451 0.504692 0.0774395
0.524529 0.502403 0.0789654
0.572137 0.496849 0.0874647
0.625681 0.488991 0.102998
0.675898 0.481926 0.119081
0.717006 0.478187 0.129931
0.750561 0.477348 0.134844
0.778378 0.478767 0.134325
0.801343 0.482017 0.129046
0.820935 0.486595 0.120378
0.839033 0.491783 0.110338
0.857404 0.496651 0.101213
0.877668 0.500923 0.0946517
0.899687 0.504265 0.0905318
0.923033 0.507149 0.0885786
0.944213 0.509438 0.0881971
0.954498 0.510826 0.0884718
0.954498 0.51107 0.0884871
0.954498 0.511299 0.0885023
0 0.620249 0.132128
0 0.612604 0.127367
0 0.595712 0.116426
0.00593576 0.577646 0.104402
0.0530556 0.567102 0.0970932
0.11043 0.559976 0.0922866
0.161883 0.55465 0.0887922
0.209293 0.550454 0.0860456
0.253956 0.546975 0.0837568
0.296193 0.544244 0.0818341
0.336706 0.541878 0.0801862
0.375662 0.540093 0.0787518
0.413367 0.538476 0.077409
0.450019 0.537301 0.0762798
0.485847 0.536294 0.0752422
0.521172 0.535348 0.0747234
0.559457 0.533394 0.0766003
0.605722 0.52845 0.0848554
0.658228 0.520745 0.100008
0.708797 0.513634 0.116533
0.751675 0.509087 0.12932
0.787167 0.507286 0.136828
0.816968 0.507759 0.139422
0.842145 0.510109 0.137514
0.863203 0.514015 0.131746
0.881346 0.518929 0.123217
0.898497 0.524346 0.11397
0.916228 0.529458 0.105943
0.935271 0.533852 0.0997787
0.952438 0.537545 0.0962539
0.959869 0.539284 0.0952773
0.959945 0.539498 0.0953536
0.960006 0.539712 0.0954299
0 0.651316 0.130678
0 0.643549 0.12575
0 0.625925 0.11426
0.00543221 0.608423 0.102373
0.0548562 0.598245 0.0950179
0.111681 0.591409 0.0901808
0.162615 0.586206 0.0866255
0.210086 0.582101 0.083772
0.254276 0.578698 0.0814984
0.296483 0.575875 0.0796368
0.336934 0.573587 0.0779583
0.37586 0.571725 0.0766155
0.413642 0.570245 0.0752728
0.450217 0.56907 0.0741741
0.485969 0.567971 0.0732433
0.520867 0.567376 0.0724956
0.55552 0.566644 0.0722515
0.593011 0.564782 0.0742962
0.637858 0.560296 0.0821088
0.689219 0.553048 0.0966659
0.73991 0.545815 0.113558
0.784222 0.540703 0.12781
0.821698 0.538201 0.137606
0.853513 0.537774 0.143038
0.88072 0.539025 0.144579
0.903777 0.542031 0.142184
0.923125 0.546395 0.136187
0.9402 0.551675 0.128176
0.956634 0.557107 0.119844
0.97023 0.561791 0.11397
0.975448 0.563745 0.112184
0.975525 0.563836 0.112276
0.975692 0.564019 0.112444
0 0.682429 0.129458
0 0.674556 0.124376
0 0.656123 0.112261
0.00482185 0.639261 0.10045
0.0567483 0.629496 0.0930953
0.112902 0.623041 0.0880751
0.163516 0.617777 0.0844129
0.210483 0.613748 0.0815747
0.254673 0.610468 0.0792859
0.296757 0.607569 0.0773938
0.337041 0.605386 0.0757763
0.375906 0.60354 0.0744182
0.413489 0.602106 0.073167
0.450217 0.600839 0.0721141
0.485939 0.599924 0.0712291
0.520699 0.599176 0.0705425
0.554772 0.598596 0.0700389
0.588693 0.598123 0.0699779
0.625315 0.596689 0.0720073
0.66862 0.592523 0.0793622
0.718608 0.585824 0.0931563
0.76939 0.578622 0.110079
0.815213 0.573007 0.125658
0.854383 0.569665 0.137591
0.887907 0.568414 0.145586
0.917021 0.568933 0.150057
0.941909 0.570916 0.150729
0.962951 0.574517 0.147753
0.980789 0.579187 0.142123
0.990936 0.58352 0.137377
0.993194 0.585199 0.136034
0.993255 0.585275 0.136126
0.993378 0.585443 0.136339
0 0.713176 0.128618
0 0.705318 0.123339
0 0.686122 0.110506
0.00430304 0.669993 0.0987106
0.0587167 0.660716 0.0912032
0.114168 0.654353 0.0860914
0.16434 0.649302 0.0823377
0.210986 0.645396 0.0794385
0.255055 0.642161 0.0771038
0.296834 0.639414 0.0751965
0.337057 0.637171 0.073579
0.375875 0.635416 0.0722057
0.413489 0.633722 0.0710307
0.450187 0.63267 0.0700084
0.485817 0.631678 0.0691997
0.520546 0.630869 0.0685893
0.554559 0.630472 0.0681163
0.587884 0.630198 0.0678264
0.62118 0.629816 0.0679789
0.656672 0.628641 0.0700389
0.698436 0.625055 0.0768292
0.74696 0.618875 0.0897231
0.797269 0.61178 0.106447
0.844038 0.605753 0.123033
0.885008 0.601678 0.136889
0.920241 0.599802 0.147127
0.950774 0.599557 0.153826
0.977264 0.600839 0.157137
0.994598 0.603586 0.157229
0.999725 0.606409 0.156359
1 0.607416 0.156115
1 0.607599 0.156237
1 0.607782 0.156374
0 0.743908 0.128161
0 0.735851 0.122683
0 0.716091 0.109102
0.00404364 0.700511 0.0973068
0.0608682 0.691814 0.0894942
0.115236 0.685786 0.0842908
0.16495 0.68098 0.080415
0.211322 0.677058 0.0773785
0.255177 0.673915 0.0749981
0.297032 0.671168 0.0730602
0.336996 0.669032 0.071397
0.375738 0.667323 0.0700236
0.413489 0.665675 0.068864
0.450004 0.66453 0.0679332
0.485542 0.66363 0.0672007
0.520226 0.662898 0.0666209
0.554253 0.662333 0.0662089
0.587518 0.662074 0.06598
0.620233 0.661875 0.06598
0.652689 0.661799 0.0663615
0.687282 0.660807 0.0684215
0.727321 0.657816 0.0746014
0.773663 0.652384 0.0864271
0.82298 0.645701 0.10251
0.870695 0.6392 0.119905
0.913466 0.634455 0.1355
0.95024 0.631952 0.147539
0.982101 0.631083 0.156191
0.997467 0.631754 0.161563
1 0.633112 0.164355
1 0.633646 0.165026
1 0.633875 0.165057
1 0.634104 0.165087
0 0.774395 0.128054
0 0.766354 0.122393
0 0.74583 0.108125
0.00416571 0.730983 0.0962997
0.0629282 0.722957 0.0882887
0.11667 0.71722 0.0827955
0.165835 0.712551 0.0787518
0.211902 0.708766 0.0755474
0.255329 0.705577 0.0730907
0.297063 0.702998 0.0710765
0.337072 0.700862 0.0693828
0.375769 0.699123 0.0679789
0.413321 0.697505 0.0668345
0.449714 0.696422 0.0659342
0.485191 0.695567 0.0652476
0.519844 0.694804 0.0647288
0.553826 0.69424 0.0643626
0.58703 0.69398 0.0642252
0.619654 0.693767 0.064332
0.651789 0.693797 0.0645762
0.683665 0.693843 0.0652018
0.717128 0.693248 0.0672923
0.755169 0.690913 0.0728618
0.7991 0.686366 0.0833906
0.847227 0.679973 0.0987411
0.895323 0.673564 0.116335
0.9393 0.668238 0.133059
0.977707 0.664881 0.146822
0.996674 0.663462 0.156847
1 0.663676 0.162356
1 0.663935 0.16347
1 0.664179 0.163424
1 0.664439 0.163378
0 0.804837 0.128252
0 0.796567 0.122469
0 0.775372 0.107469
0.00550851 0.761395 0.0957809
0.0654307 0.754025 0.087541
0.118273 0.748455 0.0817884
0.166903 0.743969 0.0774548
0.212543 0.740291 0.0740826
0.255741 0.737209 0.0714885
0.297215 0.734813 0.0693828
0.337102 0.732692 0.0676127
0.375601 0.7308 0.0661936
0.413169 0.729381 0.0650339
0.44947 0.728298 0.0641794
0.484916 0.727413 0.0635233
0.519493 0.72668 0.0630655
0.553414 0.726146 0.0627909
0.586587 0.725902 0.0627298
0.619211 0.725704 0.0629129
0.65127 0.72575 0.0632181
0.682795 0.725917 0.063798
0.713924 0.72607 0.064744
0.746288 0.725734 0.0669108
0.782284 0.724086 0.0718547
0.823926 0.720272 0.081178
0.870054 0.714641 0.095201
0.91809 0.708263 0.112581
0.963073 0.702785 0.129946
0.992996 0.698695 0.144732
0.999725 0.697688 0.152682
1 0.697841 0.153979
1 0.697993 0.153933
1 0.698268 0.153826
0 0.835126 0.128603
0 0.826871 0.122744
0 0.804974 0.107149
0.00947585 0.791821 0.0956588
0.0681773 0.784817 0.0872511
0.120211 0.779553 0.0812085
0.168261 0.775265 0.0766308
0.213474 0.77171 0.0730602
0.256321 0.768826 0.0702831
0.297536 0.766445 0.0680552
0.337179 0.76437 0.0662394
0.375677 0.762554 0.0647746
0.412924 0.761227 0.0636149
0.449287 0.760143 0.0627451
0.484672 0.759258 0.0621042
0.519173 0.758572 0.0616922
0.552926 0.758038 0.0615244
0.58616 0.757778 0.0615244
0.618692 0.75758 0.061738
0.65069 0.75758 0.06215
0.682139 0.757794 0.0628367
0.712932 0.757992 0.0637827
0.743465 0.758312 0.0650339
0.774838 0.758404 0.0672313
0.808988 0.757259 0.0715343
0.847837 0.754589 0.0794537
0.892332 0.749508 0.0923018
0.939605 0.743313 0.109071
0.981537 0.737591 0.12636
0.998032 0.735653 0.135836
0.999939 0.735714 0.136995
0.999939 0.736034 0.136843
0.999939 0.736202 0.136751
0 0.865492 0.129137
0 0.857114 0.12314
0.000320439 0.834867 0.107179
0.0134432 0.822248 0.0958724
0.0712902 0.815427 0.0873884
0.12253 0.810513 0.0810864
0.169955 0.806424 0.0762951
0.214679 0.803006 0.0725567
0.257145 0.80029 0.0695811
0.298116 0.797955 0.0671855
0.337591 0.79588 0.0652934
0.37586 0.794293 0.0637675
0.412909 0.792966 0.0626078
0.448997 0.791913 0.0616922
0.484321 0.791028 0.0610361
0.518746 0.790372 0.0607004
0.552529 0.790005 0.0605325
0.585611 0.789593 0.0606241
0.61825 0.789502 0.0608682
0.650233 0.78938 0.0614176
0.681453 0.789609 0.0621653
0.712306 0.789853 0.0631876
0.742641 0.790311 0.0643778
0.772488 0.790753 0.0659037
0.802808 0.791058 0.0680705
0.835111 0.790768 0.071809
0.872053 0.788495 0.0787823
0.914626 0.784268 0.0905318
