vintage.cube
TITLE "Generated by Resolve"
LUT_3D_SIZE 9
0 0 0
0 0 0
0 0 0
0.172335 0 0
0.337682 0 0
0.475731 0 0
0.643687 0 0
0.850584 0 0
0.999023 0 0
0 0 0
0 0 0
0 0 0
0.158053 0 0
0.329961 0 0
0.468299 0 0
0.63592 0 0
0.842268 0 0
0.999023 0 0
0 0.0159762 0
0 0.0125734 0
0 0.00740063 0
0.138933 0.00135805 0
0.319997 0 0
0.45951 0 0
0.630198 0 0
0.839643 0 0
0.999023 0 0
0 0.191821 0
0 0.188556 0
0 0.183062 0
0.111772 0.172412 0
0.346761 0.151766 0
0.546365 0.133227 0
0.770031 0.116548 0
0.997086 0.103029 0
0.999023 0.0945602 0
0 0.360784 0
0 0.357885 0
0 0.354391 0
0.0749828 0.346334 0
0.320211 0.346639 0
0.616251 0.318685 0
0.989685 0.286213 0
0.999023 0.269642 0
0.999023 0.262287 0
0 0.509896 0
0 0.507576 0
0 0.504784 0
0.0502937 0.502876 0
0.28835 0.509285 0
0.59942 0.515343 0
0.999023 0.475685 0
0.999023 0.462379 0
0.999023 0.456413 0
0 0.69984 0
0 0.697536 0
0 0.694636 0
0.0362554 0.696101 0
0.263737 0.717128 0
0.612833 0.775891 0
0.999023 0.793744 0
0.999023 0.791928 0
0.999023 0.789166 0
0 0.934691 0
0 0.933028 0
0 0.93109 0
0.0356603 0.934462 0
0.267399 0.986435 0
0.716884 0.999023 0
0.999023 0.999023 0
0.999023 0.999023 0
0.999023 0.999023 0.000335698
0 0.999023 0
0 0.999023 0
0 0.999023 0
0.0585794 0.999023 0
0.33109 0.999023 0
0.814878 0.999023 0
0.999023 0.999023 0.00207523
0.999023 0.999023 0.0135042
0.999023 0.999023 0.025864
0 0 0
0 0 0
0 0 0
0.175265 0 0
0.340352 0 0
0.47834 0 0
0.646632 0 0
0.854276 0 0
0.999023 0 0
0 0 0
0 0 0
0 0 0
0.16495 0 0
0.333822 0 0
0.472007 0 0
0.639948 0 0
0.846876 0 0
0.999023 0 0
0 0.0153964 0
0 0.0137026 0
0 0.00671397 0
0.144717 0 0
0.32491 0 0
0.463783 0 0
0.63566 0 0
0.845289 0 0
0.999023 0 0
0 0.191821 0
0 0.18941 0
0 0.1841 0
0.111116 0.171954 0
0.350759 0.149401 0
0.549416 0.13051 0
0.772625 0.114015 0
0.997223 0.100893 0
0.999023 0.0925917 0
0 0.360983 0
0 0.359426 0
0 0.35555 0
0.0695811 0.347341 0
0.318898 0.345724 0
0.620615 0.316747 0
0.990341 0.284108 0
0.999023 0.267353 0
0.999023 0.260456 0
0 0.510124 0
0 0.508263 0
0 0.506401 0
0.0439765 0.504311 0
0.284123 0.509239 0
0.598901 0.5149 0
0.999023 0.474678 0
0.999023 0.460761 0
0.999023 0.454337 0
0 0.69984 0
0 0.69868 0
0 0.696376 0
0.0311284 0.696925 0
0.257191 0.716258 0
0.607736 0.775799 0
0.999023 0.793088 0
0.999023 0.790234 0
0.999023 0.787137 0
0 0.934691 0
0 0.934142 0
0 0.93193 0
0.0299229 0.934707 0
0.259068 0.986862 0
0.708171 0.999023 0
0.999023 0.999023 0
0.999023 0.999023 0
0.999023 0.999023 0.00030518
0 0.999023 0
0 0.999023 0
0 0.999023 0
0.0523232 0.999023 0
0.322148 0.999023 0
0.805493 0.999023 0
0.999023 0.999023 0.00207523
0.999023 0.999023 0.0135042
0.999023 0.999023 0.0256962
0 0 0.0821698
0 0 0.0812543
0 0 0.0694438
0.174945 0 0.0552071
0.341894 0 0.0342412
0.479057 0 0.0171054
0.650416 0 0.00578317
0.864225 0 0.0009308
0.999023 0 0
0 0 0.0662242
0 0 0.071931
0 0 0.0626535
0.167819 0 0.0442512
0.336614 0 0.0235447
0.474235 0 0.00799573
0.643824 0 0
0.857404 0 0
0.999023 0 0
0 0.0113832 0.0481727
0 0.00985733 0.046128
0 0.00411994 0.0386358
0.152895 0 0.0218662
0.327153 0 0.0090486
0.467063 0 0.00280766
0.63714 0 0
0.850675 0 0
0.999023 0 0
0 0.186526 0.0309911
0 0.185794 0.0235599
0 0.183124 0.0148165
0.106233 0.167193 0.00646983
0.355352 0.141192 0.000411994
0.550027 0.122988 0
0.772686 0.107179 0
0.994873 0.0944228 0
0.999023 0.0872969 0
0 0.358114 0.0173495
0 0.357687 0.0107271
0 0.355413 0.0081178
0.0575418 0.347219 0.00248722
0.315022 0.341573 0
0.624414 0.311925 0
0.989776 0.278874 0
0.999023 0.262318 0
0.999023 0.255543 0
0 0.507485 0.00494392
0 0.507286 0.00337224
0 0.505501 0.00271611
0.033875 0.501884 6.10361e-05
0.276555 0.507759 0
0.597498 0.513344 0
0.999023 0.47097 0
0.999023 0.457694 0
0.999023 0.451179 0
0 0.699214 0.00239567
0 0.698283 0
0 0.697063 0
0.0241855 0.697704 0
0.247761 0.71693 0
0.604013 0.776226 1.5259e-05
0.999023 0.792752 0
0.999023 0.787732 0
0.999023 0.785824 0
0 0.93463 0.0015259
0 0.933944 0
0 0.932937 0
0.0202335 0.935882 0
0.25037 0.984039 0.000839246
0.698329 0.999023 0
0.999023 0.999023 0.00196841
0.999023 0.999023 0.00247196
0.999023 0.999023 0.00491341
0 0.999023 0.0041352
0 0.999023 0.00270085
0 0.999023 0.000946059
0.0454871 0.999023 0.000564584
0.310826 0.999023 0
0.791806 0.999023 0.012604
0.999023 0.999023 0.0271305
0.999023 0.999023 0.0469825
0.999023 0.999023 0.0612345
0 0 0.223865
0 0 0.224384
0 0 0.219989
0.170199 0 0.223575
0.363958 0 0.20824
0.512413 0 0.181537
0.690806 0 0.15314
0.906447 0 0.132799
0.999023 0 0.116442
0 0 0.214237
0 0 0.21767
0 0 0.216846
0.162814 0 0.218082
0.360418 0 0.20029
0.507713 0 0.173037
0.683345 0 0.145174
0.897658 0 0.12575
0.999023 0 0.110063
0 0.00424201 0.202457
0 0.002533 0.20557
0 0 0.210269
0.149752 0 0.209323
0.356466 0 0.185306
0.500404 0 0.159075
0.673594 0 0.133272
0.888762 0 0.11429
0.999023 0 0.0996719
0 0.173251 0.200916
0 0.171633 0.199435
0 0.169024 0.197162
0.0870222 0.149187 0.184512
0.361501 0.116976 0.155566
0.556329 0.103426 0.131197
0.787808 0.0892653 0.106645
0.993667 0.077409 0.0873732
0.999023 0.0708476 0.0751812
0 0.355016 0.192447
0 0.354849 0.187304
0 0.354253 0.178759
0.0281987 0.348852 0.156527
0.299397 0.328908 0.131533
0.613581 0.298634 0.112032
0.98143 0.266545 0.0844739
0.999023 0.25124 0.0695048
0.999023 0.24358 0.0634318
0 0.516884 0.170382
0 0.515755 0.164279
0 0.51429 0.155276
0.0153658 0.512016 0.138506
0.248005 0.507408 0.121279
0.580713 0.50837 0.100771
0.999023 0.466621 0.0778821
0.999023 0.454932 0.0745708
0.999023 0.447807 0.0728313
0 0.713024 0.149844
0 0.711238 0.144335
0 0.70898 0.136461
0.0118868 0.71162 0.12401
0.221744 0.725582 0.116503
0.587655 0.780529 0.0997787
0.999023 0.800946 0.0826886
0.999023 0.794949 0.0868544
0.999023 0.788998 0.0924849
0 0.95404 0.135271
0 0.95256 0.129747
0 0.94876 0.122972
0.00909438 0.954253 0.111971
0.224872 0.984314 0.113268
0.66659 0.999023 0.114824
0.999023 0.999023 0.112078
0.999023 0.999023 0.12871
0.999023 0.999023 0.139193
0 0.999023 0.139803
0 0.999023 0.134432
0 0.999023 0.127214
0.0249943 0.999023 0.121828
0.288579 0.999023 0.129305
0.760388 0.999023 0.145144
0.999023 0.999023 0.160815
0.999023 0.999023 0.177035
0.999023 0.999023 0.188571
0 0 0.345815
0 0 0.346197
0 0 0.34612
0.146227 0 0.360662
0.340017 0 0.354788
0.504448 0 0.33872
0.718273 0 0.311116
0.972213 0 0.285328
0.999023 0 0.261555
0 0 0.33901
0 0 0.341527
0 0 0.342046
0.136721 0 0.357977
0.337453 0 0.351812
0.502297 0 0.334554
0.714473 0 0.305852
0.966644 0 0.278965
0.999023 0 0.255497
0 0.00123598 0.335012
0 0.000244144 0.33756
0 0 0.33994
0.11899 0 0.353109
0.331563 0 0.344839
0.499382 0 0.327108
0.711345 0 0.294957
0.949538 0 0.2663
0.999023 0 0.24509
0 0.149325 0.346426
0 0.146868 0.347707
0 0.142168 0.349859
0.0711986 0.125902 0.356237
0.346227 0.0925002 0.345418
0.563897 0.080415 0.306874
0.810468 0.0687572 0.272145
0.999023 0.0560311 0.242893
0.999023 0.0503395 0.224277
0 0.338247 0.358862
0 0.337118 0.358144
0 0.335256 0.356695
0.0171054 0.334752 0.354971
0.265629 0.307164 0.334859
0.596796 0.277333 0.28687
0.955383 0.250263 0.249485
0.999023 0.231937 0.224613
0.999023 0.223545 0.211627
0 0.528267 0.354528
0 0.527993 0.350896
0 0.527611 0.345174
0.00445563 0.532067 0.33434
0.198047 0.524025 0.300587
0.541909 0.502113 0.257389
0.999023 0.461921 0.228305
0.999023 0.44683 0.218921
0.999023 0.433097 0.21503
0 0.763836 0.329259
0 0.762158 0.324315
0 0.758389 0.316564
0.00195315 0.767727 0.305943
0.184131 0.766705 0.274784
0.534981 0.788251 0.244617
0.999023 0.818082 0.222782
0.999023 0.807568 0.232151
0.999023 0.794522 0.23621
0 0.994263 0.318883
0 0.993866 0.312963
0 0.993118 0.304585
0.000213626 0.994858 0.298131
0.187854 0.998642 0.27425
0.581476 0.999023 0.262425
0.999023 0.999023 0.258366
0.999023 0.999023 0.273701
0.999023 0.999023 0.283772
0 0.999023 0.334905
0 0.999023 0.328359
0 0.999023 0.319432
0.00700389 0.999023 0.310185
0.253941 0.999023 0.284245
0.691295 0.999023 0.292546
0.999023 0.999023 0.308934
0.999023 0.999023 0.320348
0.999023 0.999023 0.326528
0 0 0.460914
0 0 0.461784
0 0 0.462181
0.123613 0 0.480415
0.308659 0 0.480522
0.462928 0 0.471336
0.674998 0 0.452308
0.938018 0 0.423301
0.999023 0 0.401831
0 0 0.454994
0 0 0.45742
0 0 0.458412
0.113436 0 0.477577
0.304906 0 0.478676
0.459998 0 0.468635
0.672877 0 0.448722
0.937362 0 0.418524
0.999023 0 0.396628
0 0.000167849 0.450629
0 0 0.453605
0 0 0.455909
0.0959487 0 0.473121
0.298024 0 0.476143
0.455817 0 0.463767
0.66807 0 0.439155
0.937987 0 0.412009
0.999023 0 0.387793
0 0.13022 0.463508
0 0.127321 0.465583
0 0.122667 0.46775
0.0588235 0.110796 0.483268
0.291081 0.08748 0.496422
0.516258 0.0685893 0.465232
0.779339 0.0552987 0.424872
0.998749 0.0428779 0.390585
0.999023 0.0365454 0.367468
0 0.312245 0.502327
0 0.310735 0.503349
0 0.307393 0.504479
0.0174411 0.303075 0.514794
0.223102 0.289769 0.530938
0.530892 0.25713 0.482078
0.907195 0.233707 0.41915
0.999023 0.217197 0.38265
0.999023 0.20824 0.359274
0 0.516213 0.534081
0 0.515541 0.533349
0 0.513069 0.531212
0.00271611 0.521569 0.538033
0.169345 0.536645 0.551431
0.456062 0.492927 0.495613
0.974655 0.450965 0.419608
0.999023 0.428748 0.388357
0.999023 0.406653 0.369345
0 0.824643 0.537057
0 0.823453 0.533852
0 0.82034 0.528481
0 0.844816 0.528695
0.147692 0.867979 0.518029
0.424964 0.8103 0.430228
0.994949 0.815625 0.371801
0.999023 0.78735 0.3785
0.999023 0.760143 0.38233
0 0.999023 0.563333
0 0.999023 0.558434
0 0.999023 0.549599
0 0.999023 0.556268
0.158724 0.999023 0.526894
0.462989 0.999023 0.425147
0.991989 0.999023 0.401205
0.999023 0.999023 0.417762
0.999023 0.999023 0.431113
0 0.999023 0.611627
0 0.999023 0.604089
0 0.999023 0.594156
0.00714122 0.999023 0.58555
0.215183 0.999023 0.511513
0.573816 0.999023 0.450187
0.999023 0.999023 0.459846
0.999023 0.999023 0.472847
0.999023 0.999023 0.479393
0 0 0.586603
0 0 0.587854
0 0 0.588281
0.102449 0 0.612284
0.280644 0 0.622309
0.426017 0 0.615976
0.616541 0 0.605875
0.867414 0 0.577691
0.999023 0 0.556329
0 0 0.581598
0 0 0.583841
0 0 0.585092
0.0925917 0 0.608225
0.275898 0 0.621164
0.422187 0 0.613977
0.613718 0 0.603052
0.866224 0 0.574502
0.999023 0 0.55259
0 0 0.578164
0 0 0.581003
0 0 0.583017
0.0775158 0 0.603052
0.268788 0 0.62565
0.416175 0 0.610162
0.603235 0 0.592874
0.865248 0 0.569512
0.999023 0 0.54493
0 0.115297 0.58677
0 0.112428 0.589166
0 0.109071 0.591318
0.0462348 0.0995651 0.620233
0.24799 0.083299 0.658915
0.452476 0.063798 0.635691
0.703304 0.0496071 0.59353
0.977523 0.0353094 0.554253
0.999023 0.0284276 0.526314
0 0.290471 0.656565
0 0.287816 0.658305
0 0.284092 0.659541
0.0136873 0.281636 0.683635
0.198581 0.27863 0.73283
0.428748 0.25153 0.698009
0.819059 0.222354 0.61413
0.999023 0.206394 0.560586
0.999023 0.195254 0.526955
0 0.49131 0.740749
0 0.489387 0.742092
0 0.486137 0.74226
0.00111391 0.493584 0.766339
0.157427 0.511711 0.827588
0.358694 0.483696 0.809766
0.83505 0.433188 0.68716
0.999023 0.408896 0.615808
0.999023 0.391699 0.577417
0 0.864866 0.822629
0 0.86389 0.822003
0 0.86067 0.819135
0 0.894163 0.848493
0.133791 0.933349 0.912947
0.326024 0.903197 0.868696
0.842206 0.817487 0.72134
0.999023 0.769116 0.65098
0.999023 0.728374 0.621912
0 0.999023 0.912139
0 0.999023 0.908614
0 0.999023 0.904189
0 0.999023 0.919219
0.145022 0.999023 0.933898
0.342199 0.999023 0.803693
0.814389 0.999023 0.638102
0.999023 0.999023 0.598123
0.999023 0.999023 0.618738
0 0.999023 0.954955
0 0.999023 0.95169
0 0.999023 0.947005
0.00358587 0.999023 0.942351
0.181903 0.999023 0.910933
0.408606 0.999023 0.763943
0.860487 0.999023 0.657084
0.999023 0.999023 0.637354
0.999023 0.999023 0.652232
0 0 0.728817
0 0 0.730541
0 0 0.731563
0.0852216 0 0.761318
0.259876 0 0.78761
0.4 0 0.784909
0.566857 0 0.769635
0.789792 0 0.752605
0.995636 0 0.729503
0 0 0.723323
0 0 0.726207
0 0 0.72781
0.0766003 0 0.75613
0.25272 0 0.783597
0.396002 0 0.7832
0.56347 0 0.767605
0.786511 0 0.749325
0.995178 0 0.726421
0 0 0.721218
0 0 0.724178
0 0 0.726497
0.0626535 0 0.750072
0.244572 0 0.788052
0.389181 0 0.77998
0.557397 0 0.763241
0.785748 0 0.746624
0.994415 0 0.719509
0 0.104311 0.735561
0 0.101762 0.738277
0 0.0986954 0.740734
0.036286 0.0891585 0.773877
0.224491 0.0739605 0.844831
0.408423 0.057496 0.829068
0.628977 0.0449531 0.781292
0.913222 0.0294041 0.741726
0.999023 0.0221103 0.705943
0 0.273442 0.827466
0 0.271336 0.829587
0 0.267826 0.830411
0.00758373 0.265293 0.866636
0.17879 0.266819 0.94464
0.370932 0.246311 0.92604
0.715496 0.216266 0.846601
0.999023 0.195468 0.772625
0.999023 0.184909 0.724361
0 0.470359 0.960418
0 0.468177 0.961715
0 0.465324 0.962737
0 0.475044 0.98143
0.14612 0.499931 0.999023
0.319951 0.480003 0.999023
0.657816 0.429847 0.964324
0.999023 0.398489 0.88069
0.999023 0.388571 0.833265
0 0.865629 0.999023
0 0.862593 0.999023
0 0.858549 0.999023
0 0.895598 0.999023
0.130419 0.926375 0.999023
0.304036 0.899153 0.999023
0.626123 0.824506 0.999023
0.999023 0.750332 0.971145
0.999023 0.719585 0.933333
0 0.999023 0.999023
0 0.999023 0.999023
0 0.999023 0.999023
0 0.999023 0.999023
0.145693 0.999023 0.999023
0.320516 0.999023 0.999023
0.58027 0.999023 0.999023
0.999023 0.998825 0.977722
0.999023 0.997589 0.947753
0 0.999023 0.999023
0 0.999023 0.999023
0 0.999023 0.999023
0.0010071 0.999023 0.999023
0.170901 0.999023 0.999023
0.344991 0.999023 0.999023
0.578988 0.999023 0.999023
0.998108 0.999023 0.931838
0.999023 0.999023 0.905272
0 0 0.902098
0 0 0.904128
0 0 0.905089
0.0708019 0 0.932448
0.241505 0 0.968292
0.379889 0 0.971984
0.537606 0 0.954498
0.738231 0 0.948623
0.966384 0 0.924346
0 0 0.896712
0 0 0.899397
0 0 0.900694
0.0624552 0 0.927733
0.235569 0 0.967361
0.375235 0 0.970703
0.533639 0 0.95378
0.734585 0 0.94641
0.965393 0 0.922026
0 0 0.894255
0 0 0.897719
0 0 0.899794
0.0501259 0 0.922408
0.225254 0 0.964538
0.367956 0 0.967285
0.529076 0 0.953445
0.725963 0 0.939666
0.962982 0 0.916854
0 0.0936446 0.910948
0 0.0915694 0.914046
0 0.0886549 0.916533
0.0274662 0.078996 0.94461
0.205707 0.065095 0.99295
0.37528 0.0510719 0.990448
0.57908 0.0387884 0.972854
0.830182 0.024033 0.944854
0.999023 0.0151675 0.912154
0 0.259525 0.991623
0 0.257252 0.991913
0 0.253895 0.992111
0.00184634 0.252689 0.99501
0.167422 0.25745 0.999023
0.337972 0.243656 0.999023
0.63389 0.216022 0.999023
0.979217 0.188159 0.982315
0.999023 0.174502 0.946105
0 0.457923 0.999023
0 0.455344 0.999023
0 0.452064 0.999023
0 0.467262 0.999023
0.139834 0.501808 0.999023
0.298802 0.487358 0.999023
0.559823 0.440146 0.999023
0.94461 0.399374 0.999023
0.999023 0.391409 0.999023
0 0.853788 0.999023
0 0.849744 0.999023
0 0.845014 0.999023
0 0.885634 0.999023
0.129473 0.927779 0.999023
0.291264 0.899901 0.999023
0.55285 0.84155 0.999023
0.947478 0.759472 0.999023
0.999023 0.733776 0.999023
0 0.999023 0.999023
0 0.999023 0.999023
0 0.999023 0.999023
0.000228885 0.999023 0.999023
0.147066 0.999023 0.999023
0.316899 0.999023 0.999023
0.554772 0.999023 0.999023
0.944625 0.99855 0.999023
0.999023 0.99295 0.999023
0 0.999023 0.999023
0 0.999023 0.999023
0 0.999023 0.999023
0.000686656 0.999023 0.999023
0.174228 0.999023 0.999023
0.346288 0.999023 0.999023
0.55169 0.999023 0.999023
0.879103 0.999023 0.999023
0.999023 0.999023 0.999023
