vintage.cube
TITLE "Generated by Resolve"
LUT_3D_SIZE 5
0 0 0
0 0 0
0.337682 0 0
0.643687 0 0
0.999023 0 0
0 0.0159762 0
0 0.00740063 0
0.319997 0 0
0.630198 0 0
0.999023 0 0
0 0.360784 0
0 0.354391 0
0.320211 0.346639 0
0.989685 0.286213 0
0.999023 0.262287 0
0 0.69984 0
0 0.694636 0
0.263737 0.717128 0
0.999023 0.793744 0
0.999023 0.789166 0
0 0.999023 0
0 0.999023 0
0.33109 0.999023 0
0.999023 0.999023 0.00207523
0.999023 0.999023 0.025864
0 0 0.0821698
0 0 0.0694438
0.341894 0 0.0342412
0.650416 0 0.00578317
0.999023 0 0
0 0.0113832 0.0481727
0 0.00411994 0.0386358
0.327153 0 0.0090486
0.63714 0 0
0.999023 0 0
0 0.358114 0.0173495
0 0.355413 0.0081178
0.315022 0.341573 0
0.989776 0.278874 0
0.999023 0.255543 0
0 0.699214 0.00239567
0 0.697063 0
0.247761 0.71693 0
0.999023 0.792752 0
0.999023 0.785824 0
0 0.999023 0.0041352
0 0.999023 0.000946059
0.310826 0.999023 0
0.999023 0.999023 0.0271305
0.999023 0.999023 0.0612345
0 0 0.345815
0 0 0.34612
0.340017 0 0.354788
0.718273 0 0.311116
0.999023 0 0.261555
0 0.00123598 0.335012
0 0 0.33994
0.331563 0 0.344839
0.711345 0 0.294957
0.999023 0 0.24509
0 0.338247 0.358862
0 0.335256 0.356695
0.265629 0.307164 0.334859
0.955383 0.250263 0.249485
0.999023 0.223545 0.211627
0 0.763836 0.329259
0 0.758389 0.316564
0.184131 0.766705 0.274784
0.999023 0.818082 0.222782
0.999023 0.794522 0.23621
0 0.999023 0.334905
0 0.999023 0.319432
0.253941 0.999023 0.284245
0.999023 0.999023 0.308934
0.999023 0.999023 0.326528
0 0 0.586603
0 0 0.588281
0.280644 0 0.622309
0.616541 0 0.605875
0.999023 0 0.556329
0 0 0.578164
0 0 0.583017
0.268788 0 0.62565
0.603235 0 0.592874
0.999023 0 0.54493
0 0.290471 0.656565
0 0.284092 0.659541
0.198581 0.27863 0.73283
0.819059 0.222354 0.61413
0.999023 0.195254 0.526955
0 0.864866 0.822629
0 0.86067 0.819135
0.133791 0.933349 0.912947
0.842206 0.817487 0.72134
0.999023 0.728374 0.621912
0 0.999023 0.954955
0 0.999023 0.947005
0.181903 0.999023 0.910933
0.860487 0.999023 0.657084
0.999023 0.999023 0.652232
0 0 0.902098
0 0 0.905089
0.241505 0 0.968292
0.537606 0 0.954498
0.966384 0 0.924346
0 0 0.894255
0 0 0.899794
0.225254 0 0.964538
0.529076 0 0.953445
0.962982 0 0.916854
0 0.259525 0.991623
0 0.253895 0.992111
0.167422 0.25745 0.999023
0.63389 0.216022 0.999023
0.999023 0.174502 0.946105
0 0.853788 0.999023
0 0.845014 0.999023
0.129473 0.927779 0.999023
0.55285 0.84155 0.999023
0.999023 0.733776 0.999023
0 0.999023 0.999023
0 0.999023 0.999023
0.174228 0.999023 0.999023
0.55169 0.999023 0.999023
0.999023 0.999023 0.999023
