vintage.cube
TITLE "Generated by Resolve"
LUT_3D_SIZE 33
0 0 0
0 0 0
0 0 0
0 0 0
0 0 0
0 0 0
0 0 0
0 0 0
0 0 0
0.0295415 0 0
0.0746777 0 0
0.125582 0 0
0.172335 0 0
0.215152 0 0
0.25713 0 0
0.301472 0 0
0.337682 0 0
0.372488 0 0
0.404059 0 0
0.438163 0 0
0.475731 0 0
0.513863 0 0
0.554376 0 0
0.598352 0 0
0.643687 0 0
0.689494 0 0
0.742123 0 0
0.797574 0 0
0.850584 0 0
0.914137 0 0
0.966491 0 0
0.999023 0 0
0.999023 0 0
0 0 0
0 0 0
0 0 0
0 0 0
0 0 0
0 0 0
0 0 0
0 0 0
0 0 0
0.0266575 0 0
0.0710918 0 0
0.122423 0 0
0.16994 0 0
0.21326 0 0
0.254856 0 0
0.299458 0 0
0.336583 0 0
0.37113 0 0
0.403037 0 0
0.437339 0 0
0.474632 0 0
0.512703 0 0
0.553201 0 0
0.597101 0 0
0.642618 0 0
0.688151 0 0
0.740673 0 0
0.796643 0 0
0.849241 0 0
0.912795 0 0
0.965957 0 0
0.999023 0 0
0.999023 0 0
0 0 0
0 0 0
0 0 0
0 0 0
0 0 0
0 0 0
0 0 0
0 0 0
0 0 0
0.0233921 0 0
0.0667887 0 0
0.118563 0 0
0.166323 0 0
0.209995 0 0
0.251514 0 0
0.296513 0 0
0.334371 0 0
0.369192 0 0
0.401175 0 0
0.435279 0 0
0.47245 0 0
0.510613 0 0
0.551339 0 0
0.595346 0 0
0.641016 0 0
0.686549 0 0
0.738643 0 0
0.794461 0 0
0.847227 0 0
0.911116 0 0
0.96405 0 0
0.999023 0 0
0.999023 0 0
0 0 0
0 0 0
0 0 0
0 0 0
0 0 0
0 0 0
0 0 0
0 0 0
0 0 0
0.0192264 0 0
0.0626688 0 0
0.114168 0 0
0.162539 0 0
0.206729 0 0
0.247822 0 0
0.293385 0 0
0.332357 0 0
0.367041 0 0
0.399115 0 0
0.433234 0 0
0.470268 0 0
0.508507 0 0
0.549477 0 0
0.593332 0 0
0.638331 0 0
0.684138 0 0
0.736049 0 0
0.792264 0 0
0.844877 0 0
0.907759 0 0
0.961898 0 0
0.999023 0 0
0.999023 0 0
0 0 0
0 0 0
0 0 0
0 0 0
0 0 0
0 0 0
0 0 0
0 0 0
0 0 0
0.0151827 0 0
0.0579385 0 0
0.108797 0 0
0.158053 0 0
0.202777 0 0
0.244358 0 0
0.290166 0 0
0.329961 0 0
0.364309 0 0
0.39707 0 0
0.430762 0 0
0.468299 0 0
0.506188 0 0
0.547158 0 0
0.590585 0 0
0.63592 0 0
0.681727 0 0
0.733745 0 0
0.789761 0 0
0.842268 0 0
0.905058 0 0
0.96025 0 0
0.999023 0 0
0.999023 0 0
0 0 0
0 0 0
0 0 0
0 0 0
0 0 0
0 0 0
0 0 0
0 0 0
0 0 0
0.0109102 0 0
0.0525826 0 0
0.103395 0 0
0.153323 0 0
0.198825 0 0
0.240925 0 0
0.286473 0 0
0.327565 0 0
0.361975 0 0
0.394827 0 0
0.428717 0 0
0.466117 0 0
0.503853 0 0
0.544594 0 0
0.588312 0 0
0.633524 0 0
0.67985 0 0
0.730556 0 0
0.787259 0 0
0.83978 0 0
0.901701 0 0
0.958633 0 0
0.999023 0 0
0.999023 0 0
0 0 0
0 0 0
0 0 0
0 0 0
0 0 0
0 0 0
0 0 0
0 0 0
0 0 0
0.00663767 0 0
0.0469368 0 0
0.0971237 0 0
0.148577 0 0
0.194522 0 0
0.23714 0 0
0.282429 0 0
0.324987 0 0
0.35906 0 0
0.392554 0 0
0.426032 0 0
0.463508 0 0
0.501289 0 0
0.542275 0 0
0.585809 0 0
0.630838 0 0
0.67718 0 0
0.727657 0 0
0.784451 0 0
0.836957 0 0
0.899001 0 0
0.956741 0 0
0.999023 0 0
0.999023 0 0
0 0 0
0 0 0
0 0 0
0 0 0
0 0 0
0 0 0
0 0 0
0 0 0
0 0 0
0.00283818 0 0
0.04065 0 0
0.0914473 0 0
0.143252 0 0
0.189868 0 0
0.233066 0 0
0.274784 0 0
0.319722 0 0
0.354803 0 0
0.389151 0 0
0.423346 0 0
0.460456 0 0
0.498466 0 0
0.539666 0 0
0.583124 0 0
0.632349 0 0
0.679103 0 0
0.728115 0 0
0.781949 0 0
0.838209 0 0
0.899275 0 0
0.954559 0 0
0.999023 0 0
0.999023 0 0
0 0.0159762 0
0 0.0151827 0
0 0.0144961 0
0 0.0137026 0
0 0.0125734 0
0 0.0114443 0
0 0.00985733 0
0 0.00883497 0
0 0.00740063 0
0 0.00540169 0
0.0343786 0.00508125 0
0.0855268 0.00302129 0
0.138933 0.00135805 0
0.186954 6.10361e-05 0
0.232761 0 0
0.273091 0 0
0.319997 0 0
0.354253 0 0
0.387869 0 0
0.422736 0 0
0.45951 0 0
0.497963 0 0
0.538247 0 0
0.581613 0 0
0.630198 0 0
0.679805 0 0
0.730465 0 0
0.780224 0 0
0.839643 0 0
0.900832 0 0
0.953414 0 0
0.999023 0 0
0.999023 0 0
0 0.0514229 0
0 0.05066 0
0 0.049897 0
0 0.048661 0
0 0.0471351 0
0 0.045304 0
0 0.0439307 0
0 0.0416419 0
0 0.0404059 0
0 0.0372015 0
0.0283665 0.034287 0
0.0778515 0.0290379 0
0.135027 0.0238651 0
0.184909 0.0195621 0
0.232761 0.0164187 0
0.278767 0.0131533 0
0.325887 0.010544 0
0.357504 0.0087129 0
0.3888 0.007187 0
0.427741 0.00569162 0
0.46569 0.00427253 0
0.504784 0.00289921 0
0.545998 0.00134279 0
0.589914 0.000457771 0
0.636774 0 0
0.685206 0 0
0.7364 0 0
0.797086 0 0
0.853819 0 0
0.912276 0 0
0.963623 0 0
0.999023 0 0
0.999023 0 0
0 0.0983444 0
0 0.0979934 0
0 0.0970932 0
0 0.0958267 0
0 0.0942245 0
0 0.092256 0
0 0.0904555 0
0 0.088838 0
0 0.0864576 0
0 0.0830854 0
0.0208438 0.0791638 0
0.0719768 0.0770123 0
0.128862 0.0717327 0
0.182849 0.0665141 0
0.233265 0.0614328 0
0.283497 0.0563516 0
0.33196 0.0510872 0
0.368994 0.046952 0
0.40531 0.0439612 0
0.442802 0.0406195 0
0.481865 0.037583 0
0.522896 0.0346532 0
0.565774 0.0322118 0
0.611215 0.0302129 0
0.659373 0.0284276 0
0.709941 0.0267796 0
0.763912 0.0257877 0
0.817044 0.0234226 0
0.880262 0.0212406 0
0.940627 0.0187991 0
0.99118 0.016846 0
0.999023 0.0153658 0
0.999023 0.0140688 0
0 0.146746 0
0 0.145876 0
0 0.145342 0
0 0.144121 0
0 0.142718 0
0 0.141131 0
0 0.139727 0
0 0.138155 0
0 0.136049 0
0 0.133333 0
0.0162966 0.130892 0
0.0621347 0.126787 0
0.121324 0.12517 0
0.177981 0.119829 0
0.232898 0.113985 0
0.287373 0.108034 0
0.342428 0.102403 0
0.386572 0.098497 0
0.427741 0.0950332 0
0.469749 0.0901961 0
0.513176 0.0860151 0
0.55758 0.0822919 0
0.604791 0.0792706 0
0.655085 0.0758526 0
0.705547 0.0725872 0
0.760327 0.0698558 0
0.819135 0.0669871 0
0.872084 0.0636606 0
0.933959 0.0610513 0
0.990021 0.0583505 0
0.998856 0.0560769 0
0.999023 0.0543526 0
0.999023 0.0526741 0
0 0.191821 0
0 0.191302 0
0 0.190448 0
0 0.189242 0
0 0.188556 0
0 0.187518 0
0 0.185977 0
0 0.184604 0
0 0.183062 0
0 0.179843 0
0.0115969 0.178012 0
0.0535439 0.174899 0
0.111772 0.172412 0
0.170016 0.168231 0
0.227802 0.163272 0
0.286427 0.156374 0
0.346761 0.151766 0
0.397864 0.14725 0
0.44416 0.142748 0
0.495247 0.138033 0
0.546365 0.133227 0
0.599771 0.128756 0
0.654536 0.124163 0
0.710964 0.120256 0
0.770031 0.116548 0
0.829755 0.112627 0
0.890608 0.108858 0
0.948074 0.105974 0
0.997086 0.103029 0
0.998611 0.100893 0
0.999023 0.0984817 0
0.999023 0.0963455 0
0.999023 0.0945602 0
0 0.23508 0
0 0.234394 0
0 0.233875 0
0 0.233356 0
0 0.232151 0
0 0.231128 0
0 0.229923 0
0 0.228382 0
0 0.227359 0
0 0.224872 0
0.00788891 0.222629 0
0.0455024 0.219608 0
0.101961 0.216587 0
0.160174 0.213764 0
0.219196 0.210941 0
0.281209 0.206897 0
0.345998 0.200519 0
0.402274 0.194232 0
0.454978 0.189563 0
0.514138 0.183719 0
0.575708 0.178546 0
0.638727 0.172778 0
0.703548 0.167452 0
0.768856 0.162264 0
0.83711 0.156939 0
0.908202 0.15227 0
0.967193 0.149981 0
0.996353 0.147082 0
0.999023 0.143526 0
0.999023 0.13994 0
0.999023 0.13843 0
0.999023 0.137026 0
0.999023 0.135363 0
0 0.27689 0
0 0.276356 0
0 0.276188 0
0 0.275303 0
0 0.274434 0
0 0.273381 0
0 0.272145 0
0 0.271458 0
0 0.270222 0
0 0.267735 0
0.00480659 0.265507 0
0.0369879 0.263172 0
0.0925917 0.259754 0
0.151492 0.257816 0
0.21001 0.256535 0
0.272114 0.254307 0
0.338613 0.247028 0
0.402472 0.24181 0
0.460639 0.236316 0
0.52665 0.230213 0
0.596292 0.223377 0
0.670359 0.216785 0
0.745693 0.209934 0
0.823484 0.203845 0
0.905364 0.198016 0
0.975082 0.193164 0
0.996277 0.188388 0
0.999023 0.185565 0
0.999023 0.182391 0
0.999023 0.179767 0
0.999023 0.17847 0
0.999023 0.177127 0
0.999023 0.175921 0
0 0.3187 0
0 0.318151 0
0 0.317601 0
0 0.317235 0
0 0.316136 0
0 0.315038 0
0 0.314488 0
0 0.313207 0
0 0.312108 0
0 0.310277 0
0.00239567 0.308278 0
0.0291752 0.306416 0
0.08365 0.302953 0
0.14255 0.300847 0
0.201007 0.30042 0
0.262638 0.300053 0
0.330709 0.297124 0
0.398322 0.290944 0
0.460212 0.28455 0
0.531548 0.277287 0
0.609445 0.269795 0
0.693629 0.261769 0
0.781598 0.254124 0
0.873564 0.247471 0
0.958663 0.241123 0
0.995392 0.236271 0
0.999023 0.231678 0
0.999023 0.227695 0
0.999023 0.224414 0
0.999023 0.221973 0
0.999023 0.219974 0
0.999023 0.219059 0
0.999023 0.217853 0
0 0.360784 0
0 0.360204 0
0 0.359823 0
0 0.359045 0
0 0.357885 0
0 0.357687 0
0 0.356512 0
0 0.35555 0
0 0.354391 0
0 0.35259 0
0.000976577 0.351247 0
0.0221866 0.349264 0
0.0749828 0.346334 0
0.133623 0.344076 0
0.191882 0.344335 0
0.252384 0.344762 0
0.320211 0.346639 0
0.393317 0.344182 0
0.458122 0.336477 0
0.532738 0.327611 0
0.616251 0.318685 0
0.709422 0.309377 0
0.810391 0.301076 0
0.9131 0.293004 0
0.989685 0.286213 0
0.999023 0.281468 0
0.999023 0.276844 0
0.999023 0.273213 0
0.999023 0.269642 0
0.999023 0.266087 0
0.999023 0.265354 0
0.999023 0.263905 0
0.999023 0.262287 0
0 0.396582 0
0 0.395956 0
0 0.39556 0
0 0.395148 0
0 0.394736 0
0 0.394125 0
0 0.393088 0
0 0.392279 0
0 0.391455 0
0 0.390402 0
0.000167849 0.388663 0
0.0161135 0.386694 0
0.0675517 0.385641 0
0.125826 0.384009 0
0.183261 0.384192 0
0.244831 0.386862 0
0.310674 0.390097 0
0.384237 0.390295 0
0.448997 0.385138 0
0.527245 0.377066 0
0.618006 0.367086 0
0.720256 0.356481 0
0.829709 0.347311 0
0.939239 0.338796 0
0.99379 0.33164 0
0.999023 0.32607 0
0.999023 0.322972 0
0.999023 0.320623 0
0.999023 0.318059 0
0.999023 0.314366 0
0.999023 0.312856 0
0.999023 0.311528 0
0.999023 0.310018 0
0 0.431662 0
0 0.431678 0
0 0.431464 0
0 0.43064 0
0 0.430442 0
0 0.429618 0
0 0.428794 0
0 0.42797 0
0 0.427359 0
0 0.426246 0
0 0.425879 0
0.0108492 0.422766 0
0.0613413 0.421485 0
0.118502 0.4206 0
0.176989 0.420966 0
0.236835 0.423453 0
0.301778 0.428733 0
0.374258 0.430488 0
0.439734 0.427726 0
0.520088 0.421912 0
0.614481 0.412253 0
0.722011 0.400839 0
0.839124 0.389822 0
0.952499 0.380804 0
0.997162 0.373602 0
0.999023 0.36849 0
0.999023 0.364782 0
0.999023 0.361181 0
0.999023 0.358724 0
0.999023 0.357244 0
0.999023 0.3552 0
0.999023 0.35378 0
0.999023 0.352163 0
0 0.469856 0
0 0.469856 0
0 0.4692 0
0 0.468986 0
0 0.467903 0
0 0.467247 0
0 0.466819 0
0 0.466377 0
0 0.465293 0
0 0.463966 0
0 0.463355 0
0.00668345 0.460685 0
0.0558175 0.461418 0
0.111986 0.460395 0
0.169863 0.460792 0
0.230381 0.462211 0
0.294957 0.468071 0
0.366445 0.471321 0
0.4327 0.472892 0
0.512154 0.469932 0
0.607507 0.461616 0
0.719646 0.450324 0
0.843168 0.439048 0
0.962264 0.428717 0
0.999023 0.421683 0
0.999023 0.416846 0
0.999023 0.412436 0
0.999023 0.408774 0
0.999023 0.4065 0
0.999023 0.405463 0
0.999023 0.403983 0
0.999023 0.402274 0
0.999023 0.400595 0
0 0.509896 0
0 0.509438 0
0 0.508965 0
0 0.508263 0
0 0.507576 0
0 0.507103 0
0 0.506645 0
0 0.505943 0
0 0.504784 0
0 0.504112 0
0 0.502983 0
0.00370794 0.502144 0
0.0502937 0.502876 0
0.10576 0.503166 0
0.163043 0.503258 0
0.22356 0.503792 0
0.28835 0.509285 0
0.359808 0.516213 0
0.424979 0.5205 0
0.503944 0.52079 0
0.59942 0.515343 0
0.716014 0.504753 0
0.845747 0.493736 0
0.970703 0.48307 0
0.999023 0.475685 0
0.999023 0.471382 0
0.999023 0.466575 0
0.999023 0.463523 0
0.999023 0.462379 0
0.999023 0.461021 0
0.999023 0.459388 0
0.999023 0.458015 0
0.999023 0.456413 0
0 0.552163 0
0 0.551919 0
0 0.551461 0
0 0.550759 0
0 0.55053 0
0 0.549599 0
0 0.548913 0
0 0.547982 0
0 0.547524 0
0 0.546197 0
0 0.545556 0
0.00112917 0.545129 0
0.0456397 0.546212 0
0.100038 0.54699 0
0.156222 0.548287 0
0.216754 0.54963 0
0.281926 0.554177 0
0.35317 0.562997 0
0.418097 0.56997 0
0.495262 0.573648 0
0.590921 0.57229 0
0.712428 0.565103 0
0.849409 0.555764 0
0.975967 0.545693 0
0.999023 0.538796 0
0.999023 0.53402 0
0.999023 0.530541 0
0.999023 0.528099 0
0.999023 0.527855 0
0.999023 0.527642 0
0.999023 0.526162 0
0.999023 0.525429 0
0.999023 0.524712 0
0 0.598672 0
0 0.597925 0
0 0.597681 0
0 0.597421 0
0 0.596674 0
0 0.59617 0
0 0.595422 0
0 0.594675 0
0 0.593912 0
0 0.593378 0
0 0.592309 0
0.000228885 0.592981 0
0.0416724 0.592279 0
0.0947585 0.595895 0
0.149523 0.598352 0
0.209628 0.601282 0
0.275578 0.604273 0
0.348379 0.613519 0
0.415335 0.622065 0
0.493355 0.629984 0
0.592508 0.63473 0
0.716884 0.633173 0
0.858579 0.626947 0
0.9785 0.619699 0
0.999023 0.613474 0
0.999023 0.609628 0
0.999023 0.60708 0
0.999023 0.606149 0
0.999023 0.605585 0
0.999023 0.604791 0
0.999023 0.604257 0
0.999023 0.603998 0
0.999023 0.603204 0
0 0.6477 0
0 0.6477 0
0 0.647166 0
0 0.646632 0
0 0.646097 0
0 0.645289 0
0 0.644221 0
0 0.644221 0
0 0.643427 0
0 0.642664 0
0 0.641382 0
0 0.643061 0
0.0381628 0.642237 0
0.0910658 0.646876 0
0.144121 0.651102 0
0.202548 0.654734 0
0.269215 0.659205 0
0.345342 0.668208 0
0.415915 0.680278 0
0.496406 0.691524 0
0.599405 0.702358 0
0.72665 0.70695 0
0.872023 0.706142 0
0.982605 0.702449 0
0.999023 0.69807 0
0.999023 0.694652 0
0.999023 0.692744 0
0.999023 0.693126 0
0.999023 0.693401 0
0.999023 0.692531 0
0.999023 0.692805 0
0.999023 0.691951 0
0.999023 0.691096 0
0 0.69984 0
0 0.69984 0
0 0.69926 0
0 0.698405 0
0 0.697536 0
0 0.696956 0
0 0.696666 0
0 0.695796 0
0 0.694636 0
0 0.694408 0
0 0.693904 0
0 0.695689 0
0.0362554 0.696101 0
0.0878462 0.700755 0
0.140017 0.706096 0
0.196582 0.71133 0
0.263737 0.717128 0
0.343664 0.730022 0
0.419883 0.743282 0
0.503059 0.758083 0
0.612833 0.775891 0
0.74313 0.788724 0
0.889662 0.793927 0
0.989548 0.79588 0
0.999023 0.793744 0
0.999023 0.791043 0
0.999023 0.789273 0
0.999023 0.789899 0
0.999023 0.791928 0
0.999023 0.792233 0
0.999023 0.79086 0
0.999023 0.790188 0
0.999023 0.789166 0
0 0.755032 0
0 0.754742 0
0 0.754742 0
0 0.753887 0
0 0.753307 0
0 0.753017 0
0 0.751858 0
0 0.750988 0
0 0.750713 0
0 0.749966 0
0 0.750637 0
0 0.751507 0
0.03505 0.752224 0
0.0854658 0.757122 0
0.136858 0.763699 0
0.192676 0.770809 0
0.26067 0.779767 0
0.341833 0.794186 0
0.424949 0.812345 0
0.516487 0.835813 0
0.633005 0.858228 0
0.766079 0.878065 0
0.910567 0.88986 0
0.999023 0.894469 0
0.999023 0.893492 0
0.999023 0.893339 0
0.999023 0.893538 0
0.999023 0.892332 0
0.999023 0.895781 0
0.999023 0.895705 0
0.999023 0.894774 0
0.999023 0.894163 0
0.999023 0.893843 0
0 0.813001 0
0 0.812375 0
0 0.812375 0
0 0.811749 0
0 0.811444 0
0 0.811139 0
0 0.809567 0
0 0.808942 0
0 0.808011 0
0 0.807599 0
0 0.80734 0
0.000534066 0.806256 0
0.0335088 0.808652 0
0.0841382 0.816464 0
0.135866 0.824323 0
0.192294 0.835187 0
0.260685 0.849546 0
0.344961 0.869612 0
0.434928 0.891691 0
0.535927 0.915862 0
0.659648 0.939361 0
0.796918 0.959579 0
0.934279 0.965545 0
0.999023 0.969802 0
0.999023 0.970703 0
0.999023 0.972396 0
0.999023 0.973739 0
0.999023 0.973816 0
0.999023 0.974563 0
0.999023 0.974487 0
0.999023 0.974212 0
0.999023 0.973342 0
0.999023 0.97351 0
0 0.872816 0
0 0.87216 0
0 0.872816 0
0 0.87216 0
0 0.871489 0
0 0.870466 0
0 0.86981 0
0 0.869139 0
0 0.868467 0
